( This gcode generated by /opt/eagle-5.6.0/ulp/pcb-gcode.ulp )
( Copyright 2005 by John Johnson. See readme.txt for licensing terms. )

( This file generated from the board /usr/data1/freebus/freebus-svn/freebus/trunk/hardware/Eagle Layouts/app_avr_glcd/glcd_240x128/glcd_240x128.brd )
( This file generated 05.03.10 21:20 )

( Settings from pcb-machine.h )
( tool size = 0.3000 )
( z high = 5.0000	z up = 2.0000	z down = -2.5000 )
( drill depth = -5.0000 )
( spindle on time = 1.0000 )
( milling depth = 5.0000 )
( tool change at X40.0000, Y-26.0000, Z5.0000 )
( feed rate = 200.0000	feed rate z = 40.0000 )

( Settings from pcb-defaults.h )
( Default isolate = 0.0025 )
( isolate max = 0.5588 )
( isolate step = 0.1500 )
( Generated: top outlines, top drill, bottom outlines, bottom drill,  )
( Unit of measure: mm )


( T01 0.800000 )
( T02 0.812800 )
( T03 0.900000 )
( T04 0.914400 )
( T05 1.000000 )
( T06 1.016000 )
( T07 1.100000 )
( T08 1.117600 )
( T09 1.320800 )
( T10 1.400000 )
( T11 3.200000 )
( T12 3.302000 )
G21

G90
M05
G00 X40.0000 Y-26.0000 Z5.0000 
M06 T01  ; 0.8000 
G00 Z2.0000 
M03
G04 P1.000000
G82 X114.3000 Y3.8100 Z-5.0000 F40.00 R2.0000 P0.000000
G82 X114.3000 Y19.0500 
G82 X25.4000 Y17.7800 
G82 X25.4000 Y25.4000 
G82 X27.9400 Y17.7800 
G82 X27.9400 Y25.4000 
G82 X30.4800 Y17.7800 
G82 X30.4800 Y25.4000 
G82 X33.0200 Y17.7800 
G82 X33.0200 Y25.4000 
G82 X40.6400 Y12.7000 
G82 X40.6400 Y19.0500 
G82 X48.2600 Y28.5750 
G82 X55.8800 Y28.5750 
G82 X74.9300 Y24.1300 
G82 X76.2000 Y3.8100 
G82 X76.2000 Y19.0500 
G82 X80.0100 Y24.1300 
G82 X81.2800 Y19.0500 
M05
G00 X40.0000 Y-26.0000 Z5.0000 
M06 T02  ; 0.8128 
G00 Z2.0000 
M03
G04 P1.000000
G82 X100.9650 Y35.5600 Z-5.0000 F40.00 R2.0000 P0.000000
G82 X100.9650 Y50.8000 
G82 X104.7750 Y70.4850 
G82 X104.7750 Y78.1050 
G82 X106.6800 Y80.6450 
G82 X108.5850 Y79.3750 
G82 X108.5850 Y81.9150 
G82 X109.8550 Y85.0900 
G82 X109.8550 Y87.6300 
G82 X109.8550 Y90.1700 
G82 X109.8550 Y92.7100 
G82 X25.4000 Y27.9400 
G82 X27.9400 Y15.2400 
G82 X30.4800 Y12.7000 
G82 X30.4800 Y27.9400 
G82 X31.7500 Y62.8650 
G82 X31.7500 Y65.4050 
G82 X33.0200 Y12.7000 
G82 X34.2900 Y27.9400 
G82 X34.2900 Y35.5600 
G82 X34.2900 Y48.8950 
G82 X35.5600 Y15.2400 
G82 X35.5600 Y17.7800 
G82 X35.5600 Y25.4000 
G82 X36.8300 Y46.3550 
G82 X39.3700 Y46.3550 
G82 X41.9100 Y43.8150 
G82 X41.9100 Y51.4350 
G82 X41.9100 Y61.5950 
G82 X43.1800 Y80.6450 
G82 X44.4500 Y43.8150 
G82 X44.4500 Y48.8950 
G82 X44.4500 Y51.4350 
G82 X44.4500 Y61.5950 
G82 X52.7050 Y13.3350 
G82 X52.7050 Y35.5600 
G82 X52.7050 Y50.8000 
G82 X53.3400 Y80.6450 
G82 X55.2450 Y35.5600 
G82 X55.2450 Y50.8000 
G82 X55.8800 Y24.1300 
G82 X55.8800 Y26.6700 
G82 X57.7850 Y35.5600 
G82 X57.7850 Y50.8000 
G82 X57.7850 Y66.0400 
G82 X59.6900 Y69.2150 
G82 X59.6900 Y73.0250 
G82 X59.6900 Y75.5650 
G82 X60.3250 Y13.3350 
G82 X60.3250 Y35.5600 
G82 X60.3250 Y50.8000 
G82 X62.8650 Y35.5600 
G82 X62.8650 Y50.8000 
G82 X62.8650 Y66.0400 
G82 X65.4050 Y35.5600 
G82 X65.4050 Y50.8000 
G82 X67.9450 Y35.5600 
G82 X67.9450 Y50.8000 
G82 X69.8500 Y69.2150 
G82 X69.8500 Y73.0250 
G82 X69.8500 Y75.5650 
G82 X70.4850 Y35.5600 
G82 X70.4850 Y50.8000 
G82 X72.3900 Y67.9450 
G82 X72.3900 Y78.1050 
G82 X72.3900 Y83.1850 
G82 X72.3900 Y93.3450 
G82 X73.0250 Y35.5600 
G82 X73.0250 Y50.8000 
G82 X75.5650 Y35.5600 
G82 X75.5650 Y50.8000 
G82 X76.2000 Y75.5650 
G82 X76.2000 Y85.7250 
G82 X76.2000 Y88.2650 
G82 X76.2000 Y93.3450 
G82 X76.8350 Y26.6700 
G82 X76.8350 Y31.7500 
G82 X76.8350 Y57.1500 
G82 X76.8350 Y59.6900 
G82 X76.8350 Y62.2300 
G82 X76.8350 Y64.7700 
G82 X78.1050 Y35.5600 
G82 X78.1050 Y50.8000 
G82 X78.7400 Y83.1850 
G82 X78.7400 Y93.3450 
G82 X80.6450 Y26.6700 
G82 X80.6450 Y31.7500 
G82 X80.6450 Y35.5600 
G82 X80.6450 Y50.8000 
G82 X80.6450 Y53.3400 
G82 X80.6450 Y58.4200 
G82 X83.1850 Y35.5600 
G82 X83.1850 Y50.8000 
G82 X83.1850 Y53.9750 
G82 X83.1850 Y56.5150 
G82 X85.7250 Y35.5600 
G82 X85.7250 Y50.8000 
G82 X88.2650 Y35.5600 
G82 X88.2650 Y50.8000 
G82 X90.8050 Y35.5600 
G82 X90.8050 Y50.8000 
G82 X93.3450 Y35.5600 
G82 X93.3450 Y50.8000 
G82 X95.8850 Y35.5600 
G82 X95.8850 Y50.8000 
G82 X98.4250 Y35.5600 
G82 X98.4250 Y50.8000 
M05
G00 X40.0000 Y-26.0000 Z5.0000 
M06 T03  ; 0.9000 
G00 Z2.0000 
M03
G04 P1.000000
G82 X31.7500 Y52.7050 Z-5.0000 F40.00 R2.0000 P0.000000
G82 X31.7500 Y60.3250 
G82 X34.2900 Y52.7050 
G82 X34.2900 Y60.3250 
G82 X36.8300 Y52.7050 
G82 X36.8300 Y60.3250 
G82 X39.3700 Y52.7050 
G82 X39.3700 Y60.3250 
G82 X55.8800 Y69.8500 
G82 X55.8800 Y72.3900 
G82 X57.1500 Y75.5650 
G82 X57.1500 Y78.1050 
G82 X57.1500 Y80.6450 
G82 X57.7850 Y71.1200 
G82 X80.0100 Y78.1050 
G82 X80.0100 Y80.6450 
G82 X81.9150 Y79.3750 
M05
G00 X40.0000 Y-26.0000 Z5.0000 
M06 T04  ; 0.9144 
G00 Z2.0000 
M03
G04 P1.000000
G82 X102.2350 Y63.5000 Z-5.0000 F40.00 R2.0000 P0.000000
G82 X102.2350 Y66.0400 
G82 X46.3550 Y17.7800 
G82 X46.3550 Y20.3200 
G82 X48.8950 Y17.7800 
G82 X48.8950 Y20.3200 
G82 X51.4350 Y17.7800 
G82 X51.4350 Y20.3200 
G82 X53.9750 Y17.7800 
G82 X53.9750 Y20.3200 
G82 X56.5150 Y17.7800 
G82 X56.5150 Y20.3200 
G82 X59.0550 Y17.7800 
G82 X59.0550 Y20.3200 
G82 X61.5950 Y17.7800 
G82 X61.5950 Y20.3200 
G82 X64.1350 Y17.7800 
G82 X64.1350 Y20.3200 
G82 X66.6750 Y17.7800 
G82 X66.6750 Y20.3200 
G82 X69.2150 Y17.7800 
G82 X69.2150 Y20.3200 
G82 X86.3600 Y27.3050 
G82 X86.3600 Y29.8450 
G82 X88.9000 Y27.3050 
G82 X88.9000 Y29.8450 
G82 X91.4400 Y27.3050 
G82 X91.4400 Y29.8450 
G82 X92.0750 Y63.5000 
G82 X92.0750 Y66.0400 
G82 X93.9800 Y27.3050 
G82 X93.9800 Y29.8450 
G82 X94.6150 Y63.5000 
G82 X94.6150 Y66.0400 
G82 X96.5200 Y27.3050 
G82 X96.5200 Y29.8450 
G82 X97.1550 Y63.5000 
G82 X97.1550 Y66.0400 
G82 X99.6950 Y63.5000 
G82 X99.6950 Y66.0400 
M05
G00 X40.0000 Y-26.0000 Z5.0000 
M06 T05  ; 1.0000 
G00 Z2.0000 
M03
G04 P1.000000
G82 X107.9500 Y43.1800 Z-5.0000 F40.00 R2.0000 P0.000000
G82 X107.9500 Y45.7200 
G82 X107.9500 Y48.2600 
G82 X110.4900 Y43.1800 
G82 X110.4900 Y45.7200 
G82 X110.4900 Y48.2600 
G82 X31.7500 Y38.7350 
G82 X31.7500 Y48.8950 
G82 X41.9100 Y88.2650 
G82 X41.9100 Y90.8050 
G82 X52.0700 Y88.2650 
G82 X52.0700 Y90.8050 
G82 X60.9600 Y78.1050 
G82 X60.9600 Y80.6450 
G82 X68.5800 Y78.1050 
G82 X71.1200 Y80.6450 
G82 X73.0250 Y59.0550 
G82 X73.0250 Y64.1350 
M05
G00 X40.0000 Y-26.0000 Z5.0000 
M06 T06  ; 1.0160 
G00 Z2.0000 
M03
G04 P1.000000
G82 X24.7650 Y33.6550 Z-5.0000 F40.00 R2.0000 P0.000000
G82 X25.4000 Y3.8100 
G82 X25.4000 Y13.9700 
G82 X29.8450 Y33.6550 
G82 X30.4800 Y6.3500 
G82 X35.5600 Y6.3500 
G82 X35.5600 Y66.6750 
G82 X38.7350 Y37.4650 
G82 X40.6400 Y66.6750 
G82 X41.2750 Y27.3050 
G82 X43.8150 Y37.4650 
G82 X62.8650 Y55.8800 
G82 X65.4050 Y55.8800 
G82 X67.9450 Y55.8800 
M05
G00 X40.0000 Y-26.0000 Z5.0000 
M06 T07  ; 1.1000 
G00 Z2.0000 
M03
G04 P1.000000
G82 X62.2700 Y88.2650 Z-5.0000 F40.00 R2.0000 P0.000000
G82 X67.2700 Y88.2650 
M05
G00 X40.0000 Y-26.0000 Z5.0000 
M06 T08  ; 1.1176 
G00 Z2.0000 
M03
G04 P1.000000
G82 X104.1400 Y87.6300 Z-5.0000 F40.00 R2.0000 P0.000000
G82 X104.1400 Y90.1700 
G82 X104.1400 Y92.7100 
M05
G00 X40.0000 Y-26.0000 Z5.0000 
M06 T09  ; 1.3208 
G00 Z2.0000 
M03
G04 P1.000000
G82 X33.0200 Y75.6158 Z-5.0000 F40.00 R2.0000 P0.000000
G82 X33.0200 Y80.6196 
G82 X33.0200 Y85.7758 
G82 X33.0200 Y90.7796 
G82 X64.8208 Y6.9850 
G82 X69.8246 Y6.9850 
M05
G00 X40.0000 Y-26.0000 Z5.0000 
M06 T10  ; 1.4000 
G00 Z2.0000 
M03
G04 P1.000000
G82 X41.9100 Y84.4550 Z-5.0000 F40.00 R2.0000 P0.000000
G82 X57.1500 Y84.4550 
M05
G00 X40.0000 Y-26.0000 Z5.0000 
M06 T11  ; 3.2000 
G00 Z2.0000 
M03
G04 P1.000000
G82 X5.0800 Y7.6200 Z-5.0000 F40.00 R2.0000 P0.000000
G82 X5.0800 Y92.7100 
G82 X154.9400 Y7.6200 
G82 X154.9400 Y92.7100 
M05
G00 X40.0000 Y-26.0000 Z5.0000 
M06 T12  ; 3.3020 
G00 Z2.0000 
M03
G04 P1.000000
G82 X89.1540 Y90.1700 Z-5.0000 F40.00 R2.0000 P0.000000
(File Footer)
T01 
G00 Z5.0000 
M05
M02
