( This gcode generated by /opt/eagle-5.6.0/ulp/pcb-gcode.ulp )
( Copyright 2005 by John Johnson. See readme.txt for licensing terms. )

( This file generated from the board /usr/data1/freebus/freebus-svn/freebus/trunk/hardware/Eagle Layouts/app_avr_glcd/glcd_240x128/glcd_240x128.brd )
( This file generated 05.03.10 21:20 )

( Settings from pcb-machine.h )
( tool size = 0.3000 )
( z high = 5.0000	z up = 2.0000	z down = -2.5000 )
( drill depth = -5.0000 )
( spindle on time = 1.0000 )
( milling depth = 5.0000 )
( tool change at X40.0000, Y-26.0000, Z5.0000 )
( feed rate = 200.0000	feed rate z = 40.0000 )

( Settings from pcb-defaults.h )
( Default isolate = 0.0025 )
( isolate max = 0.5588 )
( isolate step = 0.1500 )
( Generated: top outlines, top drill, bottom outlines, bottom drill,  )
( Unit of measure: mm )


G21

G90
G00 Z5.0000 
G00 X0 Y0
M03
G04 P1.000000
G00 Z2.0000 
G00 X79.5527 Y93.0083 
G01 Z-2.5000 F200.00 
G01 X79.5527 Y93.6816 
G01 X79.0766 Y94.1577 
G01 X78.4033 Y94.1577 
G01 X77.9272 Y93.6816 
G01 X77.9272 Y93.0083 
G01 X78.4033 Y92.5322 
G01 X79.0766 Y92.5322 
G01 X79.5527 Y93.0083 
G00 Z2.0000 
G00 X79.5527 Y82.8483 
G01 Z-2.5000 F200.00 
G01 X79.5527 Y83.5216 
G01 X79.0766 Y83.9977 
G01 X78.4033 Y83.9977 
G01 X77.9272 Y83.5216 
G01 X77.9272 Y82.8483 
G01 X78.4033 Y82.3722 
G01 X79.0766 Y82.3722 
G01 X79.5527 Y82.8483 
G00 Z2.0000 
G00 X77.0127 Y93.0083 
G01 Z-2.5000 F200.00 
G01 X77.0127 Y93.6816 
G01 X76.5366 Y94.1577 
G01 X75.8633 Y94.1577 
G01 X75.3872 Y93.6816 
G01 X75.3872 Y93.0083 
G01 X75.8633 Y92.5322 
G01 X76.5366 Y92.5322 
G01 X77.0127 Y93.0083 
G00 Z2.0000 
G00 X77.0127 Y87.9283 
G01 Z-2.5000 F200.00 
G01 X77.0127 Y88.6016 
G01 X76.5366 Y89.0777 
G01 X75.8633 Y89.0777 
G01 X75.3872 Y88.6016 
G01 X75.3872 Y87.9283 
G01 X75.8633 Y87.4522 
G01 X76.5366 Y87.4522 
G01 X77.0127 Y87.9283 
G00 Z2.0000 
G00 X73.9593 Y65.0413 
G01 Z-2.5000 F200.00 
G01 X72.0906 Y65.0413 
G01 X71.7575 Y64.9033 
G01 X71.5026 Y64.6484 
G01 X71.3646 Y64.3153 
G01 X71.3646 Y63.9546 
G01 X71.5026 Y63.6215 
G01 X71.7575 Y63.3666 
G01 X72.0906 Y63.2286 
G01 X73.9593 Y63.2286 
G01 X74.2924 Y63.3666 
G01 X74.5473 Y63.6215 
G01 X74.6853 Y63.9546 
G01 X74.6853 Y64.3153 
G01 X74.5473 Y64.6484 
G01 X74.2924 Y64.9033 
G01 X73.9593 Y65.0413 
G00 Z2.0000 
G00 X73.9593 Y59.9613 
G01 Z-2.5000 F200.00 
G01 X72.0906 Y59.9613 
G01 X71.7575 Y59.8233 
G01 X71.5026 Y59.5684 
G01 X71.3646 Y59.2353 
G01 X71.3646 Y58.8746 
G01 X71.5026 Y58.5415 
G01 X71.7575 Y58.2866 
G01 X72.0906 Y58.1486 
G01 X73.9593 Y58.1486 
G01 X74.2924 Y58.2866 
G01 X74.5473 Y58.5415 
G01 X74.6853 Y58.8746 
G01 X74.6853 Y59.2353 
G01 X74.5473 Y59.5684 
G01 X74.2924 Y59.8233 
G01 X73.9593 Y59.9613 
G00 Z2.0000 
G00 X77.6477 Y59.3533 
G01 Z-2.5000 F200.00 
G01 X77.6477 Y60.0266 
G01 X77.1716 Y60.5027 
G01 X76.4983 Y60.5027 
G01 X76.0222 Y60.0266 
G01 X76.0222 Y59.3533 
G01 X76.4983 Y58.8772 
G01 X77.1716 Y58.8772 
G01 X77.6477 Y59.3533 
G00 Z2.0000 
G00 X77.6477 Y56.8133 
G01 Z-2.5000 F200.00 
G01 X77.6477 Y57.4866 
G01 X77.1716 Y57.9627 
G01 X76.4983 Y57.9627 
G01 X76.0222 Y57.4866 
G01 X76.0222 Y56.8133 
G01 X76.4983 Y56.3372 
G01 X77.1716 Y56.3372 
G01 X77.6477 Y56.8133 
G00 Z2.0000 
G00 X77.6477 Y61.8933 
G01 Z-2.5000 F200.00 
G01 X77.6477 Y62.5666 
G01 X77.1716 Y63.0427 
G01 X76.4983 Y63.0427 
G01 X76.0222 Y62.5666 
G01 X76.0222 Y61.8933 
G01 X76.4983 Y61.4172 
G01 X77.1716 Y61.4172 
G01 X77.6477 Y61.8933 
G00 Z2.0000 
G00 X77.6477 Y64.4333 
G01 Z-2.5000 F200.00 
G01 X77.6477 Y65.1066 
G01 X77.1716 Y65.5827 
G01 X76.4983 Y65.5827 
G01 X76.0222 Y65.1066 
G01 X76.0222 Y64.4333 
G01 X76.4983 Y63.9572 
G01 X77.1716 Y63.9572 
G01 X77.6477 Y64.4333 
G00 Z2.0000 
G00 X81.4577 Y58.0833 
G01 Z-2.5000 F200.00 
G01 X81.4577 Y58.7566 
G01 X80.9816 Y59.2327 
G01 X80.3083 Y59.2327 
G01 X79.8322 Y58.7566 
G01 X79.8322 Y58.0833 
G01 X80.3083 Y57.6072 
G01 X80.9816 Y57.6072 
G01 X81.4577 Y58.0833 
G00 Z2.0000 
G00 X81.4577 Y53.0033 
G01 Z-2.5000 F200.00 
G01 X81.4577 Y53.6766 
G01 X80.9816 Y54.1527 
G01 X80.3083 Y54.1527 
G01 X79.8322 Y53.6766 
G01 X79.8322 Y53.0033 
G01 X80.3083 Y52.5272 
G01 X80.9816 Y52.5272 
G01 X81.4577 Y53.0033 
G00 Z2.0000 
G00 X77.0127 Y75.2283 
G01 Z-2.5000 F200.00 
G01 X77.0127 Y75.9016 
G01 X76.5366 Y76.3777 
G01 X75.8633 Y76.3777 
G01 X75.3872 Y75.9016 
G01 X75.3872 Y75.2283 
G01 X75.8633 Y74.7522 
G01 X76.5366 Y74.7522 
G01 X77.0127 Y75.2283 
G00 Z2.0000 
G00 X77.0127 Y85.3883 
G01 Z-2.5000 F200.00 
G01 X77.0127 Y86.0616 
G01 X76.5366 Y86.5377 
G01 X75.8633 Y86.5377 
G01 X75.3872 Y86.0616 
G01 X75.3872 Y85.3883 
G01 X75.8633 Y84.9122 
G01 X76.5366 Y84.9122 
G01 X77.0127 Y85.3883 
G00 Z2.0000 
G00 X80.8663 Y77.7503 
G01 Z-2.5000 F200.00 
G01 X80.8663 Y78.4596 
G01 X80.3646 Y78.9613 
G01 X79.6553 Y78.9613 
G01 X79.1536 Y78.4596 
G01 X79.1536 Y77.7503 
G01 X79.6553 Y77.2486 
G01 X80.3646 Y77.2486 
G01 X80.8663 Y77.7503 
G00 Z2.0000 
G00 X82.7713 Y79.0203 
G01 Z-2.5000 F200.00 
G01 X82.7713 Y79.7296 
G01 X82.2696 Y80.2313 
G01 X81.5603 Y80.2313 
G01 X81.0586 Y79.7296 
G01 X81.0586 Y79.0203 
G01 X81.5603 Y78.5186 
G01 X82.2696 Y78.5186 
G01 X82.7713 Y79.0203 
G00 Z2.0000 
G00 X80.8663 Y80.2903 
G01 Z-2.5000 F200.00 
G01 X80.8663 Y80.9996 
G01 X80.3646 Y81.5013 
G01 X79.6553 Y81.5013 
G01 X79.1536 Y80.9996 
G01 X79.1536 Y80.2903 
G01 X79.6553 Y79.7886 
G01 X80.3646 Y79.7886 
G01 X80.8663 Y80.2903 
G00 Z2.0000 
G00 X73.2027 Y93.0083 
G01 Z-2.5000 F200.00 
G01 X73.2027 Y93.6816 
G01 X72.7266 Y94.1577 
G01 X72.0533 Y94.1577 
G01 X71.5772 Y93.6816 
G01 X71.5772 Y93.0083 
G01 X72.0533 Y92.5322 
G01 X72.7266 Y92.5322 
G01 X73.2027 Y93.0083 
G00 Z2.0000 
G00 X73.2027 Y82.8483 
G01 Z-2.5000 F200.00 
G01 X73.2027 Y83.5216 
G01 X72.7266 Y83.9977 
G01 X72.0533 Y83.9977 
G01 X71.5772 Y83.5216 
G01 X71.5772 Y82.8483 
G01 X72.0533 Y82.3722 
G01 X72.7266 Y82.3722 
G01 X73.2027 Y82.8483 
G00 Z2.0000 
G00 X83.9977 Y56.1783 
G01 Z-2.5000 F200.00 
G01 X83.9977 Y56.8516 
G01 X83.5216 Y57.3277 
G01 X82.8483 Y57.3277 
G01 X82.3722 Y56.8516 
G01 X82.3722 Y56.1783 
G01 X82.8483 Y55.7022 
G01 X83.5216 Y55.7022 
G01 X83.9977 Y56.1783 
G00 Z2.0000 
G00 X83.9977 Y53.6383 
G01 Z-2.5000 F200.00 
G01 X83.9977 Y54.3116 
G01 X83.5216 Y54.7877 
G01 X82.8483 Y54.7877 
G01 X82.3722 Y54.3116 
G01 X82.3722 Y53.6383 
G01 X82.8483 Y53.1622 
G01 X83.5216 Y53.1622 
G01 X83.9977 Y53.6383 
G00 Z2.0000 
G00 X108.8563 Y47.8845 
G01 Z-2.5000 F200.00 
G01 X108.8563 Y48.6354 
G01 X108.3254 Y49.1663 
G01 X107.5745 Y49.1663 
G01 X107.0436 Y48.6354 
G01 X107.0436 Y47.8845 
G01 X107.5745 Y47.3536 
G01 X108.3254 Y47.3536 
G01 X108.8563 Y47.8845 
G00 Z2.0000 
G00 X111.3963 Y47.8845 
G01 Z-2.5000 F200.00 
G01 X111.3963 Y48.6354 
G01 X110.8654 Y49.1663 
G01 X110.1145 Y49.1663 
G01 X109.5836 Y48.6354 
G01 X109.5836 Y47.8845 
G01 X110.1145 Y47.3536 
G01 X110.8654 Y47.3536 
G01 X111.3963 Y47.8845 
G00 Z2.0000 
G00 X108.8563 Y45.3445 
G01 Z-2.5000 F200.00 
G01 X108.8563 Y46.0954 
G01 X108.3254 Y46.6263 
G01 X107.5745 Y46.6263 
G01 X107.0436 Y46.0954 
G01 X107.0436 Y45.3445 
G01 X107.5745 Y44.8136 
G01 X108.3254 Y44.8136 
G01 X108.8563 Y45.3445 
G00 Z2.0000 
G00 X111.3963 Y45.3445 
G01 Z-2.5000 F200.00 
G01 X111.3963 Y46.0954 
G01 X110.8654 Y46.6263 
G01 X110.1145 Y46.6263 
G01 X109.5836 Y46.0954 
G01 X109.5836 Y45.3445 
G01 X110.1145 Y44.8136 
G01 X110.8654 Y44.8136 
G01 X111.3963 Y45.3445 
G00 Z2.0000 
G00 X108.8563 Y42.8045 
G01 Z-2.5000 F200.00 
G01 X108.8563 Y43.5554 
G01 X108.3254 Y44.0863 
G01 X107.5745 Y44.0863 
G01 X107.0436 Y43.5554 
G01 X107.0436 Y42.8045 
G01 X107.5745 Y42.2736 
G01 X108.3254 Y42.2736 
G01 X108.8563 Y42.8045 
G00 Z2.0000 
G00 X111.3963 Y42.8045 
G01 Z-2.5000 F200.00 
G01 X111.3963 Y43.5554 
G01 X110.8654 Y44.0863 
G01 X110.1145 Y44.0863 
G01 X109.5836 Y43.5554 
G01 X109.5836 Y42.8045 
G01 X110.1145 Y42.2736 
G01 X110.8654 Y42.2736 
G01 X111.3963 Y42.8045 
G00 Z2.0000 
G00 X81.4577 Y31.4133 
G01 Z-2.5000 F200.00 
G01 X81.4577 Y32.0866 
G01 X80.9816 Y32.5627 
G01 X80.3083 Y32.5627 
G01 X79.8322 Y32.0866 
G01 X79.8322 Y31.4133 
G01 X80.3083 Y30.9372 
G01 X80.9816 Y30.9372 
G01 X81.4577 Y31.4133 
G00 Z2.0000 
G00 X81.4577 Y26.3333 
G01 Z-2.5000 F200.00 
G01 X81.4577 Y27.0066 
G01 X80.9816 Y27.4827 
G01 X80.3083 Y27.4827 
G01 X79.8322 Y27.0066 
G01 X79.8322 Y26.3333 
G01 X80.3083 Y25.8572 
G01 X80.9816 Y25.8572 
G01 X81.4577 Y26.3333 
G00 Z2.0000 
G00 X77.6477 Y31.4133 
G01 Z-2.5000 F200.00 
G01 X77.6477 Y32.0866 
G01 X77.1716 Y32.5627 
G01 X76.4983 Y32.5627 
G01 X76.0222 Y32.0866 
G01 X76.0222 Y31.4133 
G01 X76.4983 Y30.9372 
G01 X77.1716 Y30.9372 
G01 X77.6477 Y31.4133 
G00 Z2.0000 
G00 X77.6477 Y26.3333 
G01 Z-2.5000 F200.00 
G01 X77.6477 Y27.0066 
G01 X77.1716 Y27.4827 
G01 X76.4983 Y27.4827 
G01 X76.0222 Y27.0066 
G01 X76.0222 Y26.3333 
G01 X76.4983 Y25.8572 
G01 X77.1716 Y25.8572 
G01 X77.6477 Y26.3333 
G00 Z2.0000 
G00 X30.8936 Y53.5793 
G01 Z-2.5000 F200.00 
G01 X30.8936 Y51.8306 
G01 X31.0240 Y51.5158 
G01 X31.2648 Y51.2750 
G01 X31.5796 Y51.1446 
G01 X31.9203 Y51.1446 
G01 X32.2351 Y51.2750 
G01 X32.4759 Y51.5158 
G01 X32.6063 Y51.8306 
G01 X32.6063 Y53.5793 
G01 X32.4759 Y53.8941 
G01 X32.2351 Y54.1349 
G01 X31.9203 Y54.2653 
G01 X31.5796 Y54.2653 
G01 X31.2648 Y54.1349 
G01 X31.0240 Y53.8941 
G01 X30.8936 Y53.5793 
G00 Z2.0000 
G00 X33.4336 Y53.5793 
G01 Z-2.5000 F200.00 
G01 X33.4336 Y51.8306 
G01 X33.5640 Y51.5158 
G01 X33.8048 Y51.2750 
G01 X34.1196 Y51.1446 
G01 X34.4603 Y51.1446 
G01 X34.7751 Y51.2750 
G01 X35.0159 Y51.5158 
G01 X35.1463 Y51.8306 
G01 X35.1463 Y53.5793 
G01 X35.0159 Y53.8941 
G01 X34.7751 Y54.1349 
G01 X34.4603 Y54.2653 
G01 X34.1196 Y54.2653 
G01 X33.8048 Y54.1349 
G01 X33.5640 Y53.8941 
G01 X33.4336 Y53.5793 
G00 Z2.0000 
G00 X33.4336 Y61.1993 
G01 Z-2.5000 F200.00 
G01 X33.4336 Y59.4506 
G01 X33.5640 Y59.1358 
G01 X33.8048 Y58.8950 
G01 X34.1196 Y58.7646 
G01 X34.4603 Y58.7646 
G01 X34.7751 Y58.8950 
G01 X35.0159 Y59.1358 
G01 X35.1463 Y59.4506 
G01 X35.1463 Y61.1993 
G01 X35.0159 Y61.5141 
G01 X34.7751 Y61.7549 
G01 X34.4603 Y61.8853 
G01 X34.1196 Y61.8853 
G01 X33.8048 Y61.7549 
G01 X33.5640 Y61.5141 
G01 X33.4336 Y61.1993 
G00 Z2.0000 
G00 X30.8936 Y61.1993 
G01 Z-2.5000 F200.00 
G01 X30.8936 Y59.4506 
G01 X31.0240 Y59.1358 
G01 X31.2648 Y58.8950 
G01 X31.5796 Y58.7646 
G01 X31.9203 Y58.7646 
G01 X32.2351 Y58.8950 
G01 X32.4759 Y59.1358 
G01 X32.6063 Y59.4506 
G01 X32.6063 Y61.1993 
G01 X32.4759 Y61.5141 
G01 X32.2351 Y61.7549 
G01 X31.9203 Y61.8853 
G01 X31.5796 Y61.8853 
G01 X31.2648 Y61.7549 
G01 X31.0240 Y61.5141 
G01 X30.8936 Y61.1993 
G00 Z2.0000 
G00 X35.9736 Y53.5793 
G01 Z-2.5000 F200.00 
G01 X35.9736 Y51.8306 
G01 X36.1040 Y51.5158 
G01 X36.3448 Y51.2750 
G01 X36.6596 Y51.1446 
G01 X37.0003 Y51.1446 
G01 X37.3151 Y51.2750 
G01 X37.5559 Y51.5158 
G01 X37.6863 Y51.8306 
G01 X37.6863 Y53.5793 
G01 X37.5559 Y53.8941 
G01 X37.3151 Y54.1349 
G01 X37.0003 Y54.2653 
G01 X36.6596 Y54.2653 
G01 X36.3448 Y54.1349 
G01 X36.1040 Y53.8941 
G01 X35.9736 Y53.5793 
G00 Z2.0000 
G00 X38.5136 Y53.5793 
G01 Z-2.5000 F200.00 
G01 X38.5136 Y51.8306 
G01 X38.6440 Y51.5158 
G01 X38.8848 Y51.2750 
G01 X39.1996 Y51.1446 
G01 X39.5403 Y51.1446 
G01 X39.8551 Y51.2750 
G01 X40.0959 Y51.5158 
G01 X40.2263 Y51.8306 
G01 X40.2263 Y53.5793 
G01 X40.0959 Y53.8941 
G01 X39.8551 Y54.1349 
G01 X39.5403 Y54.2653 
G01 X39.1996 Y54.2653 
G01 X38.8848 Y54.1349 
G01 X38.6440 Y53.8941 
G01 X38.5136 Y53.5793 
G00 Z2.0000 
G00 X35.9736 Y61.1993 
G01 Z-2.5000 F200.00 
G01 X35.9736 Y59.4506 
G01 X36.1040 Y59.1358 
G01 X36.3448 Y58.8950 
G01 X36.6596 Y58.7646 
G01 X37.0003 Y58.7646 
G01 X37.3151 Y58.8950 
G01 X37.5559 Y59.1358 
G01 X37.6863 Y59.4506 
G01 X37.6863 Y61.1993 
G01 X37.5559 Y61.5141 
G01 X37.3151 Y61.7549 
G01 X37.0003 Y61.8853 
G01 X36.6596 Y61.8853 
G01 X36.3448 Y61.7549 
G01 X36.1040 Y61.5141 
G01 X35.9736 Y61.1993 
G00 Z2.0000 
G00 X38.5136 Y61.1993 
G01 Z-2.5000 F200.00 
G01 X38.5136 Y59.4506 
G01 X38.6440 Y59.1358 
G01 X38.8848 Y58.8950 
G01 X39.1996 Y58.7646 
G01 X39.5403 Y58.7646 
G01 X39.8551 Y58.8950 
G01 X40.0959 Y59.1358 
G01 X40.2263 Y59.4506 
G01 X40.2263 Y61.1993 
G01 X40.0959 Y61.5141 
G01 X39.8551 Y61.7549 
G01 X39.5403 Y61.8853 
G01 X39.1996 Y61.8853 
G01 X38.8848 Y61.7549 
G01 X38.6440 Y61.5141 
G01 X38.5136 Y61.1993 
G00 Z2.0000 
G00 X36.9823 Y66.3920 
G01 Z-2.5000 F200.00 
G01 X36.9823 Y66.9579 
G01 X36.7658 Y67.4807 
G01 X36.3657 Y67.8808 
G01 X35.8429 Y68.0973 
G01 X35.2770 Y68.0973 
G01 X34.7542 Y67.8808 
G01 X34.3541 Y67.4807 
G01 X34.1376 Y66.9579 
G01 X34.1376 Y66.3920 
G01 X34.3541 Y65.8692 
G01 X34.7542 Y65.4691 
G01 X35.2770 Y65.2526 
G01 X35.8429 Y65.2526 
G01 X36.3657 Y65.4691 
G01 X36.7658 Y65.8692 
G01 X36.9823 Y66.3920 
G00 Z2.0000 
G00 X42.0623 Y66.0858 
G01 Z-2.5000 F200.00 
G01 X42.0623 Y67.2641 
G01 X41.2291 Y68.0973 
G01 X40.0508 Y68.0973 
G01 X39.2176 Y67.2641 
G01 X39.2176 Y66.0858 
G01 X40.0508 Y65.2526 
G01 X41.2291 Y65.2526 
G01 X42.0623 Y66.0858 
G00 Z2.0000 
G00 X32.5627 Y65.0683 
G01 Z-2.5000 F200.00 
G01 X32.5627 Y65.7416 
G01 X32.0866 Y66.2177 
G01 X31.4133 Y66.2177 
G01 X30.9372 Y65.7416 
G01 X30.9372 Y65.0683 
G01 X31.4133 Y64.5922 
G01 X32.0866 Y64.5922 
G01 X32.5627 Y65.0683 
G00 Z2.0000 
G00 X32.5627 Y62.5283 
G01 Z-2.5000 F200.00 
G01 X32.5627 Y63.2016 
G01 X32.0866 Y63.6777 
G01 X31.4133 Y63.6777 
G01 X30.9372 Y63.2016 
G01 X30.9372 Y62.5283 
G01 X31.4133 Y62.0522 
G01 X32.0866 Y62.0522 
G01 X32.5627 Y62.5283 
G00 Z2.0000 
G00 X32.6563 Y47.9606 
G01 Z-2.5000 F200.00 
G01 X32.6563 Y49.8293 
G01 X32.5183 Y50.1624 
G01 X32.2634 Y50.4173 
G01 X31.9303 Y50.5553 
G01 X31.5696 Y50.5553 
G01 X31.2365 Y50.4173 
G01 X30.9816 Y50.1624 
G01 X30.8436 Y49.8293 
G01 X30.8436 Y47.9606 
G01 X30.9816 Y47.6275 
G01 X31.2365 Y47.3726 
G01 X31.5696 Y47.2346 
G01 X31.9303 Y47.2346 
G01 X32.2634 Y47.3726 
G01 X32.5183 Y47.6275 
G01 X32.6563 Y47.9606 
G00 Z2.0000 
G00 X32.6563 Y37.8006 
G01 Z-2.5000 F200.00 
G01 X32.6563 Y39.6693 
G01 X32.5183 Y40.0024 
G01 X32.2634 Y40.2573 
G01 X31.9303 Y40.3953 
G01 X31.5696 Y40.3953 
G01 X31.2365 Y40.2573 
G01 X30.9816 Y40.0024 
G01 X30.8436 Y39.6693 
G01 X30.8436 Y37.8006 
G01 X30.9816 Y37.4675 
G01 X31.2365 Y37.2126 
G01 X31.5696 Y37.0746 
G01 X31.9303 Y37.0746 
G01 X32.2634 Y37.2126 
G01 X32.5183 Y37.4675 
G01 X32.6563 Y37.8006 
G00 Z2.0000 
G00 X37.6427 Y46.0183 
G01 Z-2.5000 F200.00 
G01 X37.6427 Y46.6916 
G01 X37.1666 Y47.1677 
G01 X36.4933 Y47.1677 
G01 X36.0172 Y46.6916 
G01 X36.0172 Y46.0183 
G01 X36.4933 Y45.5422 
G01 X37.1666 Y45.5422 
G01 X37.6427 Y46.0183 
G00 Z2.0000 
G00 X40.1827 Y46.0183 
G01 Z-2.5000 F200.00 
G01 X40.1827 Y46.6916 
G01 X39.7066 Y47.1677 
G01 X39.0333 Y47.1677 
G01 X38.5572 Y46.6916 
G01 X38.5572 Y46.0183 
G01 X39.0333 Y45.5422 
G01 X39.7066 Y45.5422 
G01 X40.1827 Y46.0183 
G00 Z2.0000 
G00 X35.1027 Y48.5583 
G01 Z-2.5000 F200.00 
G01 X35.1027 Y49.2316 
G01 X34.6266 Y49.7077 
G01 X33.9533 Y49.7077 
G01 X33.4772 Y49.2316 
G01 X33.4772 Y48.5583 
G01 X33.9533 Y48.0822 
G01 X34.6266 Y48.0822 
G01 X35.1027 Y48.5583 
G00 Z2.0000 
G00 X45.2627 Y48.5583 
G01 Z-2.5000 F200.00 
G01 X45.2627 Y49.2316 
G01 X44.7866 Y49.7077 
G01 X44.1133 Y49.7077 
G01 X43.6372 Y49.2316 
G01 X43.6372 Y48.5583 
G01 X44.1133 Y48.0822 
G01 X44.7866 Y48.0822 
G01 X45.2627 Y48.5583 
G00 Z2.0000 
G00 X42.8624 Y43.4205 
G01 Z-2.5000 F200.00 
G01 X42.8624 Y44.2094 
G01 X42.3044 Y44.7674 
G01 X41.5155 Y44.7674 
G01 X40.9575 Y44.2094 
G01 X40.9575 Y43.4205 
G01 X41.5155 Y42.8625 
G01 X42.3044 Y42.8625 
G01 X42.8624 Y43.4205 
G00 Z2.0000 
G00 X45.4024 Y43.6255 
G01 Z-2.5000 F200.00 
G01 X45.4024 Y44.0044 
G01 X45.2574 Y44.3545 
G01 X44.9895 Y44.6224 
G01 X44.6394 Y44.7674 
G01 X44.2605 Y44.7674 
G01 X43.9104 Y44.6224 
G01 X43.6425 Y44.3545 
G01 X43.4975 Y44.0044 
G01 X43.4975 Y43.6255 
G01 X43.6425 Y43.2754 
G01 X43.9104 Y43.0075 
G01 X44.2605 Y42.8625 
G01 X44.6394 Y42.8625 
G01 X44.9895 Y43.0075 
G01 X45.2574 Y43.2754 
G01 X45.4024 Y43.6255 
G00 Z2.0000 
G00 X42.7227 Y61.2583 
G01 Z-2.5000 F200.00 
G01 X42.7227 Y61.9316 
G01 X42.2466 Y62.4077 
G01 X41.5733 Y62.4077 
G01 X41.0972 Y61.9316 
G01 X41.0972 Y61.2583 
G01 X41.5733 Y60.7822 
G01 X42.2466 Y60.7822 
G01 X42.7227 Y61.2583 
G00 Z2.0000 
G00 X42.7227 Y51.0983 
G01 Z-2.5000 F200.00 
G01 X42.7227 Y51.7716 
G01 X42.2466 Y52.2477 
G01 X41.5733 Y52.2477 
G01 X41.0972 Y51.7716 
G01 X41.0972 Y51.0983 
G01 X41.5733 Y50.6222 
G01 X42.2466 Y50.6222 
G01 X42.7227 Y51.0983 
G00 Z2.0000 
G00 X45.2627 Y61.2583 
G01 Z-2.5000 F200.00 
G01 X45.2627 Y61.9316 
G01 X44.7866 Y62.4077 
G01 X44.1133 Y62.4077 
G01 X43.6372 Y61.9316 
G01 X43.6372 Y61.2583 
G01 X44.1133 Y60.7822 
G01 X44.7866 Y60.7822 
G01 X45.2627 Y61.2583 
G00 Z2.0000 
G00 X45.2627 Y51.0983 
G01 Z-2.5000 F200.00 
G01 X45.2627 Y51.7716 
G01 X44.7866 Y52.2477 
G01 X44.1133 Y52.2477 
G01 X43.6372 Y51.7716 
G01 X43.6372 Y51.0983 
G01 X44.1133 Y50.6222 
G01 X44.7866 Y50.6222 
G01 X45.2627 Y51.0983 
G00 Z2.0000 
G00 X43.1992 Y85.6573 
G01 Z-2.5000 F200.00 
G01 X40.6207 Y85.6573 
G01 X40.1789 Y85.4743 
G01 X39.8406 Y85.1360 
G01 X39.6576 Y84.6942 
G01 X39.6576 Y84.2157 
G01 X39.8406 Y83.7739 
G01 X40.1789 Y83.4356 
G01 X40.6207 Y83.2526 
G01 X43.1992 Y83.2526 
G01 X43.6410 Y83.4356 
G01 X43.9793 Y83.7739 
G01 X44.1623 Y84.2157 
G01 X44.1623 Y84.6942 
G01 X43.9793 Y85.1360 
G01 X43.6410 Y85.4743 
G01 X43.1992 Y85.6573 
G00 Z2.0000 
G00 X58.4392 Y85.6573 
G01 Z-2.5000 F200.00 
G01 X55.8607 Y85.6573 
G01 X55.4189 Y85.4743 
G01 X55.0806 Y85.1360 
G01 X54.8976 Y84.6942 
G01 X54.8976 Y84.2157 
G01 X55.0806 Y83.7739 
G01 X55.4189 Y83.4356 
G01 X55.8607 Y83.2526 
G01 X58.4392 Y83.2526 
G01 X58.8810 Y83.4356 
G01 X59.2193 Y83.7739 
G01 X59.4023 Y84.2157 
G01 X59.4023 Y84.6942 
G01 X59.2193 Y85.1360 
G01 X58.8810 Y85.4743 
G01 X58.4392 Y85.6573 
G00 Z2.0000 
G00 X43.9927 Y80.3083 
G01 Z-2.5000 F200.00 
G01 X43.9927 Y80.9816 
G01 X43.5166 Y81.4577 
G01 X42.8433 Y81.4577 
G01 X42.3672 Y80.9816 
G01 X42.3672 Y80.3083 
G01 X42.8433 Y79.8322 
G01 X43.5166 Y79.8322 
G01 X43.9927 Y80.3083 
G00 Z2.0000 
G00 X54.1527 Y80.3083 
G01 Z-2.5000 F200.00 
G01 X54.1527 Y80.9816 
G01 X53.6766 Y81.4577 
G01 X53.0033 Y81.4577 
G01 X52.5272 Y80.9816 
G01 X52.5272 Y80.3083 
G01 X53.0033 Y79.8322 
G01 X53.6766 Y79.8322 
G01 X54.1527 Y80.3083 
G00 Z2.0000 
G00 X70.6627 Y68.8783 
G01 Z-2.5000 F200.00 
G01 X70.6627 Y69.5516 
G01 X70.1866 Y70.0277 
G01 X69.5133 Y70.0277 
G01 X69.0372 Y69.5516 
G01 X69.0372 Y68.8783 
G01 X69.5133 Y68.4022 
G01 X70.1866 Y68.4022 
G01 X70.6627 Y68.8783 
G00 Z2.0000 
G00 X60.5027 Y68.8783 
G01 Z-2.5000 F200.00 
G01 X60.5027 Y69.5516 
G01 X60.0266 Y70.0277 
G01 X59.3533 Y70.0277 
G01 X58.8772 Y69.5516 
G01 X58.8772 Y68.8783 
G01 X59.3533 Y68.4022 
G01 X60.0266 Y68.4022 
G01 X60.5027 Y68.8783 
G00 Z2.0000 
G00 X56.7363 Y72.0353 
G01 Z-2.5000 F200.00 
G01 X56.7363 Y72.7446 
G01 X56.2346 Y73.2463 
G01 X55.5253 Y73.2463 
G01 X55.0236 Y72.7446 
G01 X55.0236 Y72.0353 
G01 X55.5253 Y71.5336 
G01 X56.2346 Y71.5336 
G01 X56.7363 Y72.0353 
G00 Z2.0000 
G00 X58.6413 Y70.7653 
G01 Z-2.5000 F200.00 
G01 X58.6413 Y71.4746 
G01 X58.1396 Y71.9763 
G01 X57.4303 Y71.9763 
G01 X56.9286 Y71.4746 
G01 X56.9286 Y70.7653 
G01 X57.4303 Y70.2636 
G01 X58.1396 Y70.2636 
G01 X58.6413 Y70.7653 
G00 Z2.0000 
G00 X56.7363 Y69.4953 
G01 Z-2.5000 F200.00 
G01 X56.7363 Y70.2046 
G01 X56.2346 Y70.7063 
G01 X55.5253 Y70.7063 
G01 X55.0236 Y70.2046 
G01 X55.0236 Y69.4953 
G01 X55.5253 Y68.9936 
G01 X56.2346 Y68.9936 
G01 X56.7363 Y69.4953 
G00 Z2.0000 
G00 X58.0243 Y78.9613 
G01 Z-2.5000 F200.00 
G01 X56.2756 Y78.9613 
G01 X55.9608 Y78.8309 
G01 X55.7200 Y78.5901 
G01 X55.5896 Y78.2753 
G01 X55.5896 Y77.9346 
G01 X55.7200 Y77.6198 
G01 X55.9608 Y77.3790 
G01 X56.2756 Y77.2486 
G01 X58.0243 Y77.2486 
G01 X58.3391 Y77.3790 
G01 X58.5799 Y77.6198 
G01 X58.7103 Y77.9346 
G01 X58.7103 Y78.2753 
G01 X58.5799 Y78.5901 
G01 X58.3391 Y78.8309 
G01 X58.0243 Y78.9613 
G00 Z2.0000 
G00 X58.0243 Y81.5013 
G01 Z-2.5000 F200.00 
G01 X56.2756 Y81.5013 
G01 X55.9608 Y81.3709 
G01 X55.7200 Y81.1301 
G01 X55.5896 Y80.8153 
G01 X55.5896 Y80.4746 
G01 X55.7200 Y80.1598 
G01 X55.9608 Y79.9190 
G01 X56.2756 Y79.7886 
G01 X58.0243 Y79.7886 
G01 X58.3391 Y79.9190 
G01 X58.5799 Y80.1598 
G01 X58.7103 Y80.4746 
G01 X58.7103 Y80.8153 
G01 X58.5799 Y81.1301 
G01 X58.3391 Y81.3709 
G01 X58.0243 Y81.5013 
G00 Z2.0000 
G00 X58.0243 Y76.4213 
G01 Z-2.5000 F200.00 
G01 X56.2756 Y76.4213 
G01 X55.9608 Y76.2909 
G01 X55.7200 Y76.0501 
G01 X55.5896 Y75.7353 
G01 X55.5896 Y75.3946 
G01 X55.7200 Y75.0798 
G01 X55.9608 Y74.8390 
G01 X56.2756 Y74.7086 
G01 X58.0243 Y74.7086 
G01 X58.3391 Y74.8390 
G01 X58.5799 Y75.0798 
G01 X58.7103 Y75.3946 
G01 X58.7103 Y75.7353 
G01 X58.5799 Y76.0501 
G01 X58.3391 Y76.2909 
G01 X58.0243 Y76.4213 
G00 Z2.0000 
G00 X60.5027 Y75.2283 
G01 Z-2.5000 F200.00 
G01 X60.5027 Y75.9016 
G01 X60.0266 Y76.3777 
G01 X59.3533 Y76.3777 
G01 X58.8772 Y75.9016 
G01 X58.8772 Y75.2283 
G01 X59.3533 Y74.7522 
G01 X60.0266 Y74.7522 
G01 X60.5027 Y75.2283 
G00 Z2.0000 
G00 X70.6627 Y75.2283 
G01 Z-2.5000 F200.00 
G01 X70.6627 Y75.9016 
G01 X70.1866 Y76.3777 
G01 X69.5133 Y76.3777 
G01 X69.0372 Y75.9016 
G01 X69.0372 Y75.2283 
G01 X69.5133 Y74.7522 
G01 X70.1866 Y74.7522 
G01 X70.6627 Y75.2283 
G00 Z2.0000 
G00 X60.5027 Y72.6883 
G01 Z-2.5000 F200.00 
G01 X60.5027 Y73.3616 
G01 X60.0266 Y73.8377 
G01 X59.3533 Y73.8377 
G01 X58.8772 Y73.3616 
G01 X58.8772 Y72.6883 
G01 X59.3533 Y72.2122 
G01 X60.0266 Y72.2122 
G01 X60.5027 Y72.6883 
G00 Z2.0000 
G00 X70.6627 Y72.6883 
G01 Z-2.5000 F200.00 
G01 X70.6627 Y73.3616 
G01 X70.1866 Y73.8377 
G01 X69.5133 Y73.8377 
G01 X69.0372 Y73.3616 
G01 X69.0372 Y72.6883 
G01 X69.5133 Y72.2122 
G01 X70.1866 Y72.2122 
G01 X70.6627 Y72.6883 
G00 Z2.0000 
G00 X61.8943 Y79.0113 
G01 Z-2.5000 F200.00 
G01 X60.0256 Y79.0113 
G01 X59.6925 Y78.8733 
G01 X59.4376 Y78.6184 
G01 X59.2996 Y78.2853 
G01 X59.2996 Y77.9246 
G01 X59.4376 Y77.5915 
G01 X59.6925 Y77.3366 
G01 X60.0256 Y77.1986 
G01 X61.8943 Y77.1986 
G01 X62.2274 Y77.3366 
G01 X62.4823 Y77.5915 
G01 X62.6203 Y77.9246 
G01 X62.6203 Y78.2853 
G01 X62.4823 Y78.6184 
G01 X62.2274 Y78.8733 
G01 X61.8943 Y79.0113 
G00 Z2.0000 
G00 X69.5143 Y79.0113 
G01 Z-2.5000 F200.00 
G01 X67.6456 Y79.0113 
G01 X67.3125 Y78.8733 
G01 X67.0576 Y78.6184 
G01 X66.9196 Y78.2853 
G01 X66.9196 Y77.9246 
G01 X67.0576 Y77.5915 
G01 X67.3125 Y77.3366 
G01 X67.6456 Y77.1986 
G01 X69.5143 Y77.1986 
G01 X69.8474 Y77.3366 
G01 X70.1023 Y77.5915 
G01 X70.2403 Y77.9246 
G01 X70.2403 Y78.2853 
G01 X70.1023 Y78.6184 
G01 X69.8474 Y78.8733 
G01 X69.5143 Y79.0113 
G00 Z2.0000 
G00 X63.6777 Y65.7033 
G01 Z-2.5000 F200.00 
G01 X63.6777 Y66.3766 
G01 X63.2016 Y66.8527 
G01 X62.5283 Y66.8527 
G01 X62.0522 Y66.3766 
G01 X62.0522 Y65.7033 
G01 X62.5283 Y65.2272 
G01 X63.2016 Y65.2272 
G01 X63.6777 Y65.7033 
G00 Z2.0000 
G00 X58.5977 Y65.7033 
G01 Z-2.5000 F200.00 
G01 X58.5977 Y66.3766 
G01 X58.1216 Y66.8527 
G01 X57.4483 Y66.8527 
G01 X56.9722 Y66.3766 
G01 X56.9722 Y65.7033 
G01 X57.4483 Y65.2272 
G01 X58.1216 Y65.2272 
G01 X58.5977 Y65.7033 
G00 Z2.0000 
G00 X68.2473 Y87.2455 
G01 Z-2.5000 F200.00 
G01 X68.2473 Y89.2844 
G01 X68.0985 Y89.6436 
G01 X67.8236 Y89.9185 
G01 X67.4644 Y90.0673 
G01 X67.0755 Y90.0673 
G01 X66.7163 Y89.9185 
G01 X66.4414 Y89.6436 
G01 X66.2926 Y89.2844 
G01 X66.2926 Y87.2455 
G01 X66.4414 Y86.8863 
G01 X66.7163 Y86.6114 
G01 X67.0755 Y86.4626 
G01 X67.4644 Y86.4626 
G01 X67.8236 Y86.6114 
G01 X68.0985 Y86.8863 
G01 X68.2473 Y87.2455 
G00 Z2.0000 
G00 X63.2473 Y87.2455 
G01 Z-2.5000 F200.00 
G01 X63.2473 Y89.2844 
G01 X63.0985 Y89.6436 
G01 X62.8236 Y89.9185 
G01 X62.4644 Y90.0673 
G01 X62.0755 Y90.0673 
G01 X61.7163 Y89.9185 
G01 X61.4414 Y89.6436 
G01 X61.2926 Y89.2844 
G01 X61.2926 Y87.2455 
G01 X61.4414 Y86.8863 
G01 X61.7163 Y86.6114 
G01 X62.0755 Y86.4626 
G01 X62.4644 Y86.4626 
G01 X62.8236 Y86.6114 
G01 X63.0985 Y86.8863 
G01 X63.2473 Y87.2455 
G00 Z2.0000 
G00 X73.2027 Y77.7683 
G01 Z-2.5000 F200.00 
G01 X73.2027 Y78.4416 
G01 X72.7266 Y78.9177 
G01 X72.0533 Y78.9177 
G01 X71.5772 Y78.4416 
G01 X71.5772 Y77.7683 
G01 X72.0533 Y77.2922 
G01 X72.7266 Y77.2922 
G01 X73.2027 Y77.7683 
G00 Z2.0000 
G00 X73.2027 Y67.6083 
G01 Z-2.5000 F200.00 
G01 X73.2027 Y68.2816 
G01 X72.7266 Y68.7577 
G01 X72.0533 Y68.7577 
G01 X71.5772 Y68.2816 
G01 X71.5772 Y67.6083 
G01 X72.0533 Y67.1322 
G01 X72.7266 Y67.1322 
G01 X73.2027 Y67.6083 
G00 Z2.0000 
G00 X51.1356 Y87.3586 
G01 Z-2.5000 F200.00 
G01 X53.0043 Y87.3586 
G01 X53.3374 Y87.4966 
G01 X53.5923 Y87.7515 
G01 X53.7303 Y88.0846 
G01 X53.7303 Y88.4453 
G01 X53.5923 Y88.7784 
G01 X53.3374 Y89.0333 
G01 X53.0043 Y89.1713 
G01 X51.1356 Y89.1713 
G01 X50.8025 Y89.0333 
G01 X50.5476 Y88.7784 
G01 X50.4096 Y88.4453 
G01 X50.4096 Y88.0846 
G01 X50.5476 Y87.7515 
G01 X50.8025 Y87.4966 
G01 X51.1356 Y87.3586 
G00 Z2.0000 
G00 X40.9756 Y87.3586 
G01 Z-2.5000 F200.00 
G01 X42.8443 Y87.3586 
G01 X43.1774 Y87.4966 
G01 X43.4323 Y87.7515 
G01 X43.5703 Y88.0846 
G01 X43.5703 Y88.4453 
G01 X43.4323 Y88.7784 
G01 X43.1774 Y89.0333 
G01 X42.8443 Y89.1713 
G01 X40.9756 Y89.1713 
G01 X40.6425 Y89.0333 
G01 X40.3876 Y88.7784 
G01 X40.2496 Y88.4453 
G01 X40.2496 Y88.0846 
G01 X40.3876 Y87.7515 
G01 X40.6425 Y87.4966 
G01 X40.9756 Y87.3586 
G00 Z2.0000 
G00 X51.1356 Y89.8986 
G01 Z-2.5000 F200.00 
G01 X53.0043 Y89.8986 
G01 X53.3374 Y90.0366 
G01 X53.5923 Y90.2915 
G01 X53.7303 Y90.6246 
G01 X53.7303 Y90.9853 
G01 X53.5923 Y91.3184 
G01 X53.3374 Y91.5733 
G01 X53.0043 Y91.7113 
G01 X51.1356 Y91.7113 
G01 X50.8025 Y91.5733 
G01 X50.5476 Y91.3184 
G01 X50.4096 Y90.9853 
G01 X50.4096 Y90.6246 
G01 X50.5476 Y90.2915 
G01 X50.8025 Y90.0366 
G01 X51.1356 Y89.8986 
G00 Z2.0000 
G00 X40.9756 Y89.8986 
G01 Z-2.5000 F200.00 
G01 X42.8443 Y89.8986 
G01 X43.1774 Y90.0366 
G01 X43.4323 Y90.2915 
G01 X43.5703 Y90.6246 
G01 X43.5703 Y90.9853 
G01 X43.4323 Y91.3184 
G01 X43.1774 Y91.5733 
G01 X42.8443 Y91.7113 
G01 X40.9756 Y91.7113 
G01 X40.6425 Y91.5733 
G01 X40.3876 Y91.3184 
G01 X40.2496 Y90.9853 
G01 X40.2496 Y90.6246 
G01 X40.3876 Y90.2915 
G01 X40.6425 Y90.0366 
G01 X40.9756 Y89.8986 
G00 Z2.0000 
G00 X61.8943 Y81.5513 
G01 Z-2.5000 F200.00 
G01 X60.0256 Y81.5513 
G01 X59.6925 Y81.4133 
G01 X59.4376 Y81.1584 
G01 X59.2996 Y80.8253 
G01 X59.2996 Y80.4646 
G01 X59.4376 Y80.1315 
G01 X59.6925 Y79.8766 
G01 X60.0256 Y79.7386 
G01 X61.8943 Y79.7386 
G01 X62.2274 Y79.8766 
G01 X62.4823 Y80.1315 
G01 X62.6203 Y80.4646 
G01 X62.6203 Y80.8253 
G01 X62.4823 Y81.1584 
G01 X62.2274 Y81.4133 
G01 X61.8943 Y81.5513 
G00 Z2.0000 
G00 X72.0543 Y81.5513 
G01 Z-2.5000 F200.00 
G01 X70.1856 Y81.5513 
G01 X69.8525 Y81.4133 
G01 X69.5976 Y81.1584 
G01 X69.4596 Y80.8253 
G01 X69.4596 Y80.4646 
G01 X69.5976 Y80.1315 
G01 X69.8525 Y79.8766 
G01 X70.1856 Y79.7386 
G01 X72.0543 Y79.7386 
G01 X72.3874 Y79.8766 
G01 X72.6423 Y80.1315 
G01 X72.7803 Y80.4646 
G01 X72.7803 Y80.8253 
G01 X72.6423 Y81.1584 
G01 X72.3874 Y81.4133 
G01 X72.0543 Y81.5513 
G00 Z2.0000 
G00 X101.7777 Y49.9778 
G01 Z-2.5000 F200.00 
G01 X101.7777 Y51.6221 
G01 X101.6540 Y51.9208 
G01 X101.4254 Y52.1494 
G01 X101.1267 Y52.2731 
G01 X100.8032 Y52.2731 
G01 X100.5045 Y52.1494 
G01 X100.2759 Y51.9208 
G01 X100.1522 Y51.6221 
G01 X100.1522 Y49.9778 
G01 X100.2759 Y49.6791 
G01 X100.5045 Y49.4505 
G01 X100.8032 Y49.3268 
G01 X101.1267 Y49.3268 
G01 X101.4254 Y49.4505 
G01 X101.6540 Y49.6791 
G01 X101.7777 Y49.9778 
G00 Z2.0000 
G00 X99.2377 Y49.9778 
G01 Z-2.5000 F200.00 
G01 X99.2377 Y51.6221 
G01 X99.1140 Y51.9208 
G01 X98.8854 Y52.1494 
G01 X98.5867 Y52.2731 
G01 X98.2632 Y52.2731 
G01 X97.9645 Y52.1494 
G01 X97.7359 Y51.9208 
G01 X97.6122 Y51.6221 
G01 X97.6122 Y49.9778 
G01 X97.7359 Y49.6791 
G01 X97.9645 Y49.4505 
G01 X98.2632 Y49.3268 
G01 X98.5867 Y49.3268 
G01 X98.8854 Y49.4505 
G01 X99.1140 Y49.6791 
G01 X99.2377 Y49.9778 
G00 Z2.0000 
G00 X96.6977 Y49.9778 
G01 Z-2.5000 F200.00 
G01 X96.6977 Y51.6221 
G01 X96.5740 Y51.9208 
G01 X96.3454 Y52.1494 
G01 X96.0467 Y52.2731 
G01 X95.7232 Y52.2731 
G01 X95.4245 Y52.1494 
G01 X95.1959 Y51.9208 
G01 X95.0722 Y51.6221 
G01 X95.0722 Y49.9778 
G01 X95.1959 Y49.6791 
G01 X95.4245 Y49.4505 
G01 X95.7232 Y49.3268 
G01 X96.0467 Y49.3268 
G01 X96.3454 Y49.4505 
G01 X96.5740 Y49.6791 
G01 X96.6977 Y49.9778 
G00 Z2.0000 
G00 X94.1577 Y49.9778 
G01 Z-2.5000 F200.00 
G01 X94.1577 Y51.6221 
G01 X94.0340 Y51.9208 
G01 X93.8054 Y52.1494 
G01 X93.5067 Y52.2731 
G01 X93.1832 Y52.2731 
G01 X92.8845 Y52.1494 
G01 X92.6559 Y51.9208 
G01 X92.5322 Y51.6221 
G01 X92.5322 Y49.9778 
G01 X92.6559 Y49.6791 
G01 X92.8845 Y49.4505 
G01 X93.1832 Y49.3268 
G01 X93.5067 Y49.3268 
G01 X93.8054 Y49.4505 
G01 X94.0340 Y49.6791 
G01 X94.1577 Y49.9778 
G00 Z2.0000 
G00 X91.6177 Y49.9778 
G01 Z-2.5000 F200.00 
G01 X91.6177 Y51.6221 
G01 X91.4940 Y51.9208 
G01 X91.2654 Y52.1494 
G01 X90.9667 Y52.2731 
G01 X90.6432 Y52.2731 
G01 X90.3445 Y52.1494 
G01 X90.1159 Y51.9208 
G01 X89.9922 Y51.6221 
G01 X89.9922 Y49.9778 
G01 X90.1159 Y49.6791 
G01 X90.3445 Y49.4505 
G01 X90.6432 Y49.3268 
G01 X90.9667 Y49.3268 
G01 X91.2654 Y49.4505 
G01 X91.4940 Y49.6791 
G01 X91.6177 Y49.9778 
G00 Z2.0000 
G00 X89.0777 Y49.9778 
G01 Z-2.5000 F200.00 
G01 X89.0777 Y51.6221 
G01 X88.9540 Y51.9208 
G01 X88.7254 Y52.1494 
G01 X88.4267 Y52.2731 
G01 X88.1032 Y52.2731 
G01 X87.8045 Y52.1494 
G01 X87.5759 Y51.9208 
G01 X87.4522 Y51.6221 
G01 X87.4522 Y49.9778 
G01 X87.5759 Y49.6791 
G01 X87.8045 Y49.4505 
G01 X88.1032 Y49.3268 
G01 X88.4267 Y49.3268 
G01 X88.7254 Y49.4505 
G01 X88.9540 Y49.6791 
G01 X89.0777 Y49.9778 
G00 Z2.0000 
G00 X86.5377 Y49.9778 
G01 Z-2.5000 F200.00 
G01 X86.5377 Y51.6221 
G01 X86.4140 Y51.9208 
G01 X86.1854 Y52.1494 
G01 X85.8867 Y52.2731 
G01 X85.5632 Y52.2731 
G01 X85.2645 Y52.1494 
G01 X85.0359 Y51.9208 
G01 X84.9122 Y51.6221 
G01 X84.9122 Y49.9778 
G01 X85.0359 Y49.6791 
G01 X85.2645 Y49.4505 
G01 X85.5632 Y49.3268 
G01 X85.8867 Y49.3268 
G01 X86.1854 Y49.4505 
G01 X86.4140 Y49.6791 
G01 X86.5377 Y49.9778 
G00 Z2.0000 
G00 X83.9977 Y49.9778 
G01 Z-2.5000 F200.00 
G01 X83.9977 Y51.6221 
G01 X83.8740 Y51.9208 
G01 X83.6454 Y52.1494 
G01 X83.3467 Y52.2731 
G01 X83.0232 Y52.2731 
G01 X82.7245 Y52.1494 
G01 X82.4959 Y51.9208 
G01 X82.3722 Y51.6221 
G01 X82.3722 Y49.9778 
G01 X82.4959 Y49.6791 
G01 X82.7245 Y49.4505 
G01 X83.0232 Y49.3268 
G01 X83.3467 Y49.3268 
G01 X83.6454 Y49.4505 
G01 X83.8740 Y49.6791 
G01 X83.9977 Y49.9778 
G00 Z2.0000 
G00 X81.4577 Y49.9778 
G01 Z-2.5000 F200.00 
G01 X81.4577 Y51.6221 
G01 X81.3340 Y51.9208 
G01 X81.1054 Y52.1494 
G01 X80.8067 Y52.2731 
G01 X80.4832 Y52.2731 
G01 X80.1845 Y52.1494 
G01 X79.9559 Y51.9208 
G01 X79.8322 Y51.6221 
G01 X79.8322 Y49.9778 
G01 X79.9559 Y49.6791 
G01 X80.1845 Y49.4505 
G01 X80.4832 Y49.3268 
G01 X80.8067 Y49.3268 
G01 X81.1054 Y49.4505 
G01 X81.3340 Y49.6791 
G01 X81.4577 Y49.9778 
G00 Z2.0000 
G00 X78.9177 Y49.9778 
G01 Z-2.5000 F200.00 
G01 X78.9177 Y51.6221 
G01 X78.7940 Y51.9208 
G01 X78.5654 Y52.1494 
G01 X78.2667 Y52.2731 
G01 X77.9432 Y52.2731 
G01 X77.6445 Y52.1494 
G01 X77.4159 Y51.9208 
G01 X77.2922 Y51.6221 
G01 X77.2922 Y49.9778 
G01 X77.4159 Y49.6791 
G01 X77.6445 Y49.4505 
G01 X77.9432 Y49.3268 
G01 X78.2667 Y49.3268 
G01 X78.5654 Y49.4505 
G01 X78.7940 Y49.6791 
G01 X78.9177 Y49.9778 
G00 Z2.0000 
G00 X76.3777 Y49.9778 
G01 Z-2.5000 F200.00 
G01 X76.3777 Y51.6221 
G01 X76.2540 Y51.9208 
G01 X76.0254 Y52.1494 
G01 X75.7267 Y52.2731 
G01 X75.4032 Y52.2731 
G01 X75.1045 Y52.1494 
G01 X74.8759 Y51.9208 
G01 X74.7522 Y51.6221 
G01 X74.7522 Y49.9778 
G01 X74.8759 Y49.6791 
G01 X75.1045 Y49.4505 
G01 X75.4032 Y49.3268 
G01 X75.7267 Y49.3268 
G01 X76.0254 Y49.4505 
G01 X76.2540 Y49.6791 
G01 X76.3777 Y49.9778 
G00 Z2.0000 
G00 X73.8377 Y49.9778 
G01 Z-2.5000 F200.00 
G01 X73.8377 Y51.6221 
G01 X73.7140 Y51.9208 
G01 X73.4854 Y52.1494 
G01 X73.1867 Y52.2731 
G01 X72.8632 Y52.2731 
G01 X72.5645 Y52.1494 
G01 X72.3359 Y51.9208 
G01 X72.2122 Y51.6221 
G01 X72.2122 Y49.9778 
G01 X72.3359 Y49.6791 
G01 X72.5645 Y49.4505 
G01 X72.8632 Y49.3268 
G01 X73.1867 Y49.3268 
G01 X73.4854 Y49.4505 
G01 X73.7140 Y49.6791 
G01 X73.8377 Y49.9778 
G00 Z2.0000 
G00 X71.2977 Y49.9778 
G01 Z-2.5000 F200.00 
G01 X71.2977 Y51.6221 
G01 X71.1740 Y51.9208 
G01 X70.9454 Y52.1494 
G01 X70.6467 Y52.2731 
G01 X70.3232 Y52.2731 
G01 X70.0245 Y52.1494 
G01 X69.7959 Y51.9208 
G01 X69.6722 Y51.6221 
G01 X69.6722 Y49.9778 
G01 X69.7959 Y49.6791 
G01 X70.0245 Y49.4505 
G01 X70.3232 Y49.3268 
G01 X70.6467 Y49.3268 
G01 X70.9454 Y49.4505 
G01 X71.1740 Y49.6791 
G01 X71.2977 Y49.9778 
G00 Z2.0000 
G00 X68.7577 Y49.9778 
G01 Z-2.5000 F200.00 
G01 X68.7577 Y51.6221 
G01 X68.6340 Y51.9208 
G01 X68.4054 Y52.1494 
G01 X68.1067 Y52.2731 
G01 X67.7832 Y52.2731 
G01 X67.4845 Y52.1494 
G01 X67.2559 Y51.9208 
G01 X67.1322 Y51.6221 
G01 X67.1322 Y49.9778 
G01 X67.2559 Y49.6791 
G01 X67.4845 Y49.4505 
G01 X67.7832 Y49.3268 
G01 X68.1067 Y49.3268 
G01 X68.4054 Y49.4505 
G01 X68.6340 Y49.6791 
G01 X68.7577 Y49.9778 
G00 Z2.0000 
G00 X66.2177 Y49.9778 
G01 Z-2.5000 F200.00 
G01 X66.2177 Y51.6221 
G01 X66.0940 Y51.9208 
G01 X65.8654 Y52.1494 
G01 X65.5667 Y52.2731 
G01 X65.2432 Y52.2731 
G01 X64.9445 Y52.1494 
G01 X64.7159 Y51.9208 
G01 X64.5922 Y51.6221 
G01 X64.5922 Y49.9778 
G01 X64.7159 Y49.6791 
G01 X64.9445 Y49.4505 
G01 X65.2432 Y49.3268 
G01 X65.5667 Y49.3268 
G01 X65.8654 Y49.4505 
G01 X66.0940 Y49.6791 
G01 X66.2177 Y49.9778 
G00 Z2.0000 
G00 X63.6777 Y49.9778 
G01 Z-2.5000 F200.00 
G01 X63.6777 Y51.6221 
G01 X63.5540 Y51.9208 
G01 X63.3254 Y52.1494 
G01 X63.0267 Y52.2731 
G01 X62.7032 Y52.2731 
G01 X62.4045 Y52.1494 
G01 X62.1759 Y51.9208 
G01 X62.0522 Y51.6221 
G01 X62.0522 Y49.9778 
G01 X62.1759 Y49.6791 
G01 X62.4045 Y49.4505 
G01 X62.7032 Y49.3268 
G01 X63.0267 Y49.3268 
G01 X63.3254 Y49.4505 
G01 X63.5540 Y49.6791 
G01 X63.6777 Y49.9778 
G00 Z2.0000 
G00 X61.1377 Y49.9778 
G01 Z-2.5000 F200.00 
G01 X61.1377 Y51.6221 
G01 X61.0140 Y51.9208 
G01 X60.7854 Y52.1494 
G01 X60.4867 Y52.2731 
G01 X60.1632 Y52.2731 
G01 X59.8645 Y52.1494 
G01 X59.6359 Y51.9208 
G01 X59.5122 Y51.6221 
G01 X59.5122 Y49.9778 
G01 X59.6359 Y49.6791 
G01 X59.8645 Y49.4505 
G01 X60.1632 Y49.3268 
G01 X60.4867 Y49.3268 
G01 X60.7854 Y49.4505 
G01 X61.0140 Y49.6791 
G01 X61.1377 Y49.9778 
G00 Z2.0000 
G00 X58.5977 Y49.9778 
G01 Z-2.5000 F200.00 
G01 X58.5977 Y51.6221 
G01 X58.4740 Y51.9208 
G01 X58.2454 Y52.1494 
G01 X57.9467 Y52.2731 
G01 X57.6232 Y52.2731 
G01 X57.3245 Y52.1494 
G01 X57.0959 Y51.9208 
G01 X56.9722 Y51.6221 
G01 X56.9722 Y49.9778 
G01 X57.0959 Y49.6791 
G01 X57.3245 Y49.4505 
G01 X57.6232 Y49.3268 
G01 X57.9467 Y49.3268 
G01 X58.2454 Y49.4505 
G01 X58.4740 Y49.6791 
G01 X58.5977 Y49.9778 
G00 Z2.0000 
G00 X56.0577 Y49.9778 
G01 Z-2.5000 F200.00 
G01 X56.0577 Y51.6221 
G01 X55.9340 Y51.9208 
G01 X55.7054 Y52.1494 
G01 X55.4067 Y52.2731 
G01 X55.0832 Y52.2731 
G01 X54.7845 Y52.1494 
G01 X54.5559 Y51.9208 
G01 X54.4322 Y51.6221 
G01 X54.4322 Y49.9778 
G01 X54.5559 Y49.6791 
G01 X54.7845 Y49.4505 
G01 X55.0832 Y49.3268 
G01 X55.4067 Y49.3268 
G01 X55.7054 Y49.4505 
G01 X55.9340 Y49.6791 
G01 X56.0577 Y49.9778 
G00 Z2.0000 
G00 X53.5177 Y49.9778 
G01 Z-2.5000 F200.00 
G01 X53.5177 Y51.6221 
G01 X53.3940 Y51.9208 
G01 X53.1654 Y52.1494 
G01 X52.8667 Y52.2731 
G01 X52.5432 Y52.2731 
G01 X52.2445 Y52.1494 
G01 X52.0159 Y51.9208 
G01 X51.8922 Y51.6221 
G01 X51.8922 Y49.9778 
G01 X52.0159 Y49.6791 
G01 X52.2445 Y49.4505 
G01 X52.5432 Y49.3268 
G01 X52.8667 Y49.3268 
G01 X53.1654 Y49.4505 
G01 X53.3940 Y49.6791 
G01 X53.5177 Y49.9778 
G00 Z2.0000 
G00 X53.5177 Y34.7378 
G01 Z-2.5000 F200.00 
G01 X53.5177 Y36.3821 
G01 X53.3940 Y36.6808 
G01 X53.1654 Y36.9094 
G01 X52.8667 Y37.0331 
G01 X52.5432 Y37.0331 
G01 X52.2445 Y36.9094 
G01 X52.0159 Y36.6808 
G01 X51.8922 Y36.3821 
G01 X51.8922 Y34.7378 
G01 X52.0159 Y34.4391 
G01 X52.2445 Y34.2105 
G01 X52.5432 Y34.0868 
G01 X52.8667 Y34.0868 
G01 X53.1654 Y34.2105 
G01 X53.3940 Y34.4391 
G01 X53.5177 Y34.7378 
G00 Z2.0000 
G00 X56.0577 Y34.7378 
G01 Z-2.5000 F200.00 
G01 X56.0577 Y36.3821 
G01 X55.9340 Y36.6808 
G01 X55.7054 Y36.9094 
G01 X55.4067 Y37.0331 
G01 X55.0832 Y37.0331 
G01 X54.7845 Y36.9094 
G01 X54.5559 Y36.6808 
G01 X54.4322 Y36.3821 
G01 X54.4322 Y34.7378 
G01 X54.5559 Y34.4391 
G01 X54.7845 Y34.2105 
G01 X55.0832 Y34.0868 
G01 X55.4067 Y34.0868 
G01 X55.7054 Y34.2105 
G01 X55.9340 Y34.4391 
G01 X56.0577 Y34.7378 
G00 Z2.0000 
G00 X58.5977 Y34.7378 
G01 Z-2.5000 F200.00 
G01 X58.5977 Y36.3821 
G01 X58.4740 Y36.6808 
G01 X58.2454 Y36.9094 
G01 X57.9467 Y37.0331 
G01 X57.6232 Y37.0331 
G01 X57.3245 Y36.9094 
G01 X57.0959 Y36.6808 
G01 X56.9722 Y36.3821 
G01 X56.9722 Y34.7378 
G01 X57.0959 Y34.4391 
G01 X57.3245 Y34.2105 
G01 X57.6232 Y34.0868 
G01 X57.9467 Y34.0868 
G01 X58.2454 Y34.2105 
G01 X58.4740 Y34.4391 
G01 X58.5977 Y34.7378 
G00 Z2.0000 
G00 X61.1377 Y34.7378 
G01 Z-2.5000 F200.00 
G01 X61.1377 Y36.3821 
G01 X61.0140 Y36.6808 
G01 X60.7854 Y36.9094 
G01 X60.4867 Y37.0331 
G01 X60.1632 Y37.0331 
G01 X59.8645 Y36.9094 
G01 X59.6359 Y36.6808 
G01 X59.5122 Y36.3821 
G01 X59.5122 Y34.7378 
G01 X59.6359 Y34.4391 
G01 X59.8645 Y34.2105 
G01 X60.1632 Y34.0868 
G01 X60.4867 Y34.0868 
G01 X60.7854 Y34.2105 
G01 X61.0140 Y34.4391 
G01 X61.1377 Y34.7378 
G00 Z2.0000 
G00 X63.6777 Y34.7378 
G01 Z-2.5000 F200.00 
G01 X63.6777 Y36.3821 
G01 X63.5540 Y36.6808 
G01 X63.3254 Y36.9094 
G01 X63.0267 Y37.0331 
G01 X62.7032 Y37.0331 
G01 X62.4045 Y36.9094 
G01 X62.1759 Y36.6808 
G01 X62.0522 Y36.3821 
G01 X62.0522 Y34.7378 
G01 X62.1759 Y34.4391 
G01 X62.4045 Y34.2105 
G01 X62.7032 Y34.0868 
G01 X63.0267 Y34.0868 
G01 X63.3254 Y34.2105 
G01 X63.5540 Y34.4391 
G01 X63.6777 Y34.7378 
G00 Z2.0000 
G00 X66.2177 Y34.7378 
G01 Z-2.5000 F200.00 
G01 X66.2177 Y36.3821 
G01 X66.0940 Y36.6808 
G01 X65.8654 Y36.9094 
G01 X65.5667 Y37.0331 
G01 X65.2432 Y37.0331 
G01 X64.9445 Y36.9094 
G01 X64.7159 Y36.6808 
G01 X64.5922 Y36.3821 
G01 X64.5922 Y34.7378 
G01 X64.7159 Y34.4391 
G01 X64.9445 Y34.2105 
G01 X65.2432 Y34.0868 
G01 X65.5667 Y34.0868 
G01 X65.8654 Y34.2105 
G01 X66.0940 Y34.4391 
G01 X66.2177 Y34.7378 
G00 Z2.0000 
G00 X68.7577 Y34.7378 
G01 Z-2.5000 F200.00 
G01 X68.7577 Y36.3821 
G01 X68.6340 Y36.6808 
G01 X68.4054 Y36.9094 
G01 X68.1067 Y37.0331 
G01 X67.7832 Y37.0331 
G01 X67.4845 Y36.9094 
G01 X67.2559 Y36.6808 
G01 X67.1322 Y36.3821 
G01 X67.1322 Y34.7378 
G01 X67.2559 Y34.4391 
G01 X67.4845 Y34.2105 
G01 X67.7832 Y34.0868 
G01 X68.1067 Y34.0868 
G01 X68.4054 Y34.2105 
G01 X68.6340 Y34.4391 
G01 X68.7577 Y34.7378 
G00 Z2.0000 
G00 X71.2977 Y34.7378 
G01 Z-2.5000 F200.00 
G01 X71.2977 Y36.3821 
G01 X71.1740 Y36.6808 
G01 X70.9454 Y36.9094 
G01 X70.6467 Y37.0331 
G01 X70.3232 Y37.0331 
G01 X70.0245 Y36.9094 
G01 X69.7959 Y36.6808 
G01 X69.6722 Y36.3821 
G01 X69.6722 Y34.7378 
G01 X69.7959 Y34.4391 
G01 X70.0245 Y34.2105 
G01 X70.3232 Y34.0868 
G01 X70.6467 Y34.0868 
G01 X70.9454 Y34.2105 
G01 X71.1740 Y34.4391 
G01 X71.2977 Y34.7378 
G00 Z2.0000 
G00 X73.8377 Y34.7378 
G01 Z-2.5000 F200.00 
G01 X73.8377 Y36.3821 
G01 X73.7140 Y36.6808 
G01 X73.4854 Y36.9094 
G01 X73.1867 Y37.0331 
G01 X72.8632 Y37.0331 
G01 X72.5645 Y36.9094 
G01 X72.3359 Y36.6808 
G01 X72.2122 Y36.3821 
G01 X72.2122 Y34.7378 
G01 X72.3359 Y34.4391 
G01 X72.5645 Y34.2105 
G01 X72.8632 Y34.0868 
G01 X73.1867 Y34.0868 
G01 X73.4854 Y34.2105 
G01 X73.7140 Y34.4391 
G01 X73.8377 Y34.7378 
G00 Z2.0000 
G00 X76.3777 Y34.7378 
G01 Z-2.5000 F200.00 
G01 X76.3777 Y36.3821 
G01 X76.2540 Y36.6808 
G01 X76.0254 Y36.9094 
G01 X75.7267 Y37.0331 
G01 X75.4032 Y37.0331 
G01 X75.1045 Y36.9094 
G01 X74.8759 Y36.6808 
G01 X74.7522 Y36.3821 
G01 X74.7522 Y34.7378 
G01 X74.8759 Y34.4391 
G01 X75.1045 Y34.2105 
G01 X75.4032 Y34.0868 
G01 X75.7267 Y34.0868 
G01 X76.0254 Y34.2105 
G01 X76.2540 Y34.4391 
G01 X76.3777 Y34.7378 
G00 Z2.0000 
G00 X78.9177 Y34.7378 
G01 Z-2.5000 F200.00 
G01 X78.9177 Y36.3821 
G01 X78.7940 Y36.6808 
G01 X78.5654 Y36.9094 
G01 X78.2667 Y37.0331 
G01 X77.9432 Y37.0331 
G01 X77.6445 Y36.9094 
G01 X77.4159 Y36.6808 
G01 X77.2922 Y36.3821 
G01 X77.2922 Y34.7378 
G01 X77.4159 Y34.4391 
G01 X77.6445 Y34.2105 
G01 X77.9432 Y34.0868 
G01 X78.2667 Y34.0868 
G01 X78.5654 Y34.2105 
G01 X78.7940 Y34.4391 
G01 X78.9177 Y34.7378 
G00 Z2.0000 
G00 X81.4577 Y34.7378 
G01 Z-2.5000 F200.00 
G01 X81.4577 Y36.3821 
G01 X81.3340 Y36.6808 
G01 X81.1054 Y36.9094 
G01 X80.8067 Y37.0331 
G01 X80.4832 Y37.0331 
G01 X80.1845 Y36.9094 
G01 X79.9559 Y36.6808 
G01 X79.8322 Y36.3821 
G01 X79.8322 Y34.7378 
G01 X79.9559 Y34.4391 
G01 X80.1845 Y34.2105 
G01 X80.4832 Y34.0868 
G01 X80.8067 Y34.0868 
G01 X81.1054 Y34.2105 
G01 X81.3340 Y34.4391 
G01 X81.4577 Y34.7378 
G00 Z2.0000 
G00 X83.9977 Y34.7378 
G01 Z-2.5000 F200.00 
G01 X83.9977 Y36.3821 
G01 X83.8740 Y36.6808 
G01 X83.6454 Y36.9094 
G01 X83.3467 Y37.0331 
G01 X83.0232 Y37.0331 
G01 X82.7245 Y36.9094 
G01 X82.4959 Y36.6808 
G01 X82.3722 Y36.3821 
G01 X82.3722 Y34.7378 
G01 X82.4959 Y34.4391 
G01 X82.7245 Y34.2105 
G01 X83.0232 Y34.0868 
G01 X83.3467 Y34.0868 
G01 X83.6454 Y34.2105 
G01 X83.8740 Y34.4391 
G01 X83.9977 Y34.7378 
G00 Z2.0000 
G00 X86.5377 Y34.7378 
G01 Z-2.5000 F200.00 
G01 X86.5377 Y36.3821 
G01 X86.4140 Y36.6808 
G01 X86.1854 Y36.9094 
G01 X85.8867 Y37.0331 
G01 X85.5632 Y37.0331 
G01 X85.2645 Y36.9094 
G01 X85.0359 Y36.6808 
G01 X84.9122 Y36.3821 
G01 X84.9122 Y34.7378 
G01 X85.0359 Y34.4391 
G01 X85.2645 Y34.2105 
G01 X85.5632 Y34.0868 
G01 X85.8867 Y34.0868 
G01 X86.1854 Y34.2105 
G01 X86.4140 Y34.4391 
G01 X86.5377 Y34.7378 
G00 Z2.0000 
G00 X89.0777 Y34.7378 
G01 Z-2.5000 F200.00 
G01 X89.0777 Y36.3821 
G01 X88.9540 Y36.6808 
G01 X88.7254 Y36.9094 
G01 X88.4267 Y37.0331 
G01 X88.1032 Y37.0331 
G01 X87.8045 Y36.9094 
G01 X87.5759 Y36.6808 
G01 X87.4522 Y36.3821 
G01 X87.4522 Y34.7378 
G01 X87.5759 Y34.4391 
G01 X87.8045 Y34.2105 
G01 X88.1032 Y34.0868 
G01 X88.4267 Y34.0868 
G01 X88.7254 Y34.2105 
G01 X88.9540 Y34.4391 
G01 X89.0777 Y34.7378 
G00 Z2.0000 
G00 X91.6177 Y34.7378 
G01 Z-2.5000 F200.00 
G01 X91.6177 Y36.3821 
G01 X91.4940 Y36.6808 
G01 X91.2654 Y36.9094 
G01 X90.9667 Y37.0331 
G01 X90.6432 Y37.0331 
G01 X90.3445 Y36.9094 
G01 X90.1159 Y36.6808 
G01 X89.9922 Y36.3821 
G01 X89.9922 Y34.7378 
G01 X90.1159 Y34.4391 
G01 X90.3445 Y34.2105 
G01 X90.6432 Y34.0868 
G01 X90.9667 Y34.0868 
G01 X91.2654 Y34.2105 
G01 X91.4940 Y34.4391 
G01 X91.6177 Y34.7378 
G00 Z2.0000 
G00 X94.1577 Y34.7378 
G01 Z-2.5000 F200.00 
G01 X94.1577 Y36.3821 
G01 X94.0340 Y36.6808 
G01 X93.8054 Y36.9094 
G01 X93.5067 Y37.0331 
G01 X93.1832 Y37.0331 
G01 X92.8845 Y36.9094 
G01 X92.6559 Y36.6808 
G01 X92.5322 Y36.3821 
G01 X92.5322 Y34.7378 
G01 X92.6559 Y34.4391 
G01 X92.8845 Y34.2105 
G01 X93.1832 Y34.0868 
G01 X93.5067 Y34.0868 
G01 X93.8054 Y34.2105 
G01 X94.0340 Y34.4391 
G01 X94.1577 Y34.7378 
G00 Z2.0000 
G00 X96.6977 Y34.7378 
G01 Z-2.5000 F200.00 
G01 X96.6977 Y36.3821 
G01 X96.5740 Y36.6808 
G01 X96.3454 Y36.9094 
G01 X96.0467 Y37.0331 
G01 X95.7232 Y37.0331 
G01 X95.4245 Y36.9094 
G01 X95.1959 Y36.6808 
G01 X95.0722 Y36.3821 
G01 X95.0722 Y34.7378 
G01 X95.1959 Y34.4391 
G01 X95.4245 Y34.2105 
G01 X95.7232 Y34.0868 
G01 X96.0467 Y34.0868 
G01 X96.3454 Y34.2105 
G01 X96.5740 Y34.4391 
G01 X96.6977 Y34.7378 
G00 Z2.0000 
G00 X99.2377 Y34.7378 
G01 Z-2.5000 F200.00 
G01 X99.2377 Y36.3821 
G01 X99.1140 Y36.6808 
G01 X98.8854 Y36.9094 
G01 X98.5867 Y37.0331 
G01 X98.2632 Y37.0331 
G01 X97.9645 Y36.9094 
G01 X97.7359 Y36.6808 
G01 X97.6122 Y36.3821 
G01 X97.6122 Y34.7378 
G01 X97.7359 Y34.4391 
G01 X97.9645 Y34.2105 
G01 X98.2632 Y34.0868 
G01 X98.5867 Y34.0868 
G01 X98.8854 Y34.2105 
G01 X99.1140 Y34.4391 
G01 X99.2377 Y34.7378 
G00 Z2.0000 
G00 X101.7777 Y34.7378 
G01 Z-2.5000 F200.00 
G01 X101.7777 Y36.3821 
G01 X101.6540 Y36.6808 
G01 X101.4254 Y36.9094 
G01 X101.1267 Y37.0331 
G01 X100.8032 Y37.0331 
G01 X100.5045 Y36.9094 
G01 X100.2759 Y36.6808 
G01 X100.1522 Y36.3821 
G01 X100.1522 Y34.7378 
G01 X100.2759 Y34.4391 
G01 X100.5045 Y34.2105 
G01 X100.8032 Y34.0868 
G01 X101.1267 Y34.0868 
G01 X101.4254 Y34.2105 
G01 X101.6540 Y34.4391 
G01 X101.7777 Y34.7378 
G00 Z2.0000 
G00 X33.8327 Y12.3633 
G01 Z-2.5000 F200.00 
G01 X33.8327 Y13.0366 
G01 X33.3566 Y13.5127 
G01 X32.6833 Y13.5127 
G01 X32.2072 Y13.0366 
G01 X32.2072 Y12.3633 
G01 X32.6833 Y11.8872 
G01 X33.3566 Y11.8872 
G01 X33.8327 Y12.3633 
G00 Z2.0000 
G00 X31.2927 Y12.3633 
G01 Z-2.5000 F200.00 
G01 X31.2927 Y13.0366 
G01 X30.8166 Y13.5127 
G01 X30.1433 Y13.5127 
G01 X29.6672 Y13.0366 
G01 X29.6672 Y12.3633 
G01 X30.1433 Y11.8872 
G01 X30.8166 Y11.8872 
G01 X31.2927 Y12.3633 
G00 Z2.0000 
G00 X36.9823 Y6.0670 
G01 Z-2.5000 F200.00 
G01 X36.9823 Y6.6329 
G01 X36.7658 Y7.1557 
G01 X36.3657 Y7.5558 
G01 X35.8429 Y7.7723 
G01 X35.2770 Y7.7723 
G01 X34.7542 Y7.5558 
G01 X34.3541 Y7.1557 
G01 X34.1376 Y6.6329 
G01 X34.1376 Y6.0670 
G01 X34.3541 Y5.5442 
G01 X34.7542 Y5.1441 
G01 X35.2770 Y4.9276 
G01 X35.8429 Y4.9276 
G01 X36.3657 Y5.1441 
G01 X36.7658 Y5.5442 
G01 X36.9823 Y6.0670 
G00 Z2.0000 
G00 X31.9023 Y5.7608 
G01 Z-2.5000 F200.00 
G01 X31.9023 Y6.9391 
G01 X31.0691 Y7.7723 
G01 X29.8908 Y7.7723 
G01 X29.0576 Y6.9391 
G01 X29.0576 Y5.7608 
G01 X29.8908 Y4.9276 
G01 X31.0691 Y4.9276 
G01 X31.9023 Y5.7608 
G00 Z2.0000 
G00 X26.1873 Y33.3720 
G01 Z-2.5000 F200.00 
G01 X26.1873 Y33.9379 
G01 X25.9708 Y34.4607 
G01 X25.5707 Y34.8608 
G01 X25.0479 Y35.0773 
G01 X24.4820 Y35.0773 
G01 X23.9592 Y34.8608 
G01 X23.5591 Y34.4607 
G01 X23.3426 Y33.9379 
G01 X23.3426 Y33.3720 
G01 X23.5591 Y32.8492 
G01 X23.9592 Y32.4491 
G01 X24.4820 Y32.2326 
G01 X25.0479 Y32.2326 
G01 X25.5707 Y32.4491 
G01 X25.9708 Y32.8492 
G01 X26.1873 Y33.3720 
G00 Z2.0000 
G00 X31.2673 Y33.0658 
G01 Z-2.5000 F200.00 
G01 X31.2673 Y34.2441 
G01 X30.4341 Y35.0773 
G01 X29.2558 Y35.0773 
G01 X28.4226 Y34.2441 
G01 X28.4226 Y33.0658 
G01 X29.2558 Y32.2326 
G01 X30.4341 Y32.2326 
G01 X31.2673 Y33.0658 
G00 Z2.0000 
G00 X31.2927 Y27.6033 
G01 Z-2.5000 F200.00 
G01 X31.2927 Y28.2766 
G01 X30.8166 Y28.7527 
G01 X30.1433 Y28.7527 
G01 X29.6672 Y28.2766 
G01 X29.6672 Y27.6033 
G01 X30.1433 Y27.1272 
G01 X30.8166 Y27.1272 
G01 X31.2927 Y27.6033 
G00 Z2.0000 
G00 X26.2127 Y27.6033 
G01 Z-2.5000 F200.00 
G01 X26.2127 Y28.2766 
G01 X25.7366 Y28.7527 
G01 X25.0633 Y28.7527 
G01 X24.5872 Y28.2766 
G01 X24.5872 Y27.6033 
G01 X25.0633 Y27.1272 
G01 X25.7366 Y27.1272 
G01 X26.2127 Y27.6033 
G00 Z2.0000 
G00 X36.3727 Y25.0633 
G01 Z-2.5000 F200.00 
G01 X36.3727 Y25.7366 
G01 X35.8966 Y26.2127 
G01 X35.2233 Y26.2127 
G01 X34.7472 Y25.7366 
G01 X34.7472 Y25.0633 
G01 X35.2233 Y24.5872 
G01 X35.8966 Y24.5872 
G01 X36.3727 Y25.0633 
G00 Z2.0000 
G00 X36.3727 Y17.4433 
G01 Z-2.5000 F200.00 
G01 X36.3727 Y18.1166 
G01 X35.8966 Y18.5927 
G01 X35.2233 Y18.5927 
G01 X34.7472 Y18.1166 
G01 X34.7472 Y17.4433 
G01 X35.2233 Y16.9672 
G01 X35.8966 Y16.9672 
G01 X36.3727 Y17.4433 
G00 Z2.0000 
G00 X35.1027 Y35.2233 
G01 Z-2.5000 F200.00 
G01 X35.1027 Y35.8966 
G01 X34.6266 Y36.3727 
G01 X33.9533 Y36.3727 
G01 X33.4772 Y35.8966 
G01 X33.4772 Y35.2233 
G01 X33.9533 Y34.7472 
G01 X34.6266 Y34.7472 
G01 X35.1027 Y35.2233 
G00 Z2.0000 
G00 X35.1027 Y27.6033 
G01 Z-2.5000 F200.00 
G01 X35.1027 Y28.2766 
G01 X34.6266 Y28.7527 
G01 X33.9533 Y28.7527 
G01 X33.4772 Y28.2766 
G01 X33.4772 Y27.6033 
G01 X33.9533 Y27.1272 
G01 X34.6266 Y27.1272 
G01 X35.1027 Y27.6033 
G00 Z2.0000 
G00 X44.7293 Y37.0862 
G01 Z-2.5000 F200.00 
G01 X44.7293 Y37.8437 
G01 X44.1937 Y38.3793 
G01 X43.4362 Y38.3793 
G01 X42.9006 Y37.8437 
G01 X42.9006 Y37.0862 
G01 X43.4362 Y36.5506 
G01 X44.1937 Y36.5506 
G01 X44.7293 Y37.0862 
G00 Z2.0000 
G00 X39.6493 Y37.0862 
G01 Z-2.5000 F200.00 
G01 X39.6493 Y37.8437 
G01 X39.1137 Y38.3793 
G01 X38.3562 Y38.3793 
G01 X37.8206 Y37.8437 
G01 X37.8206 Y37.0862 
G01 X38.3562 Y36.5506 
G01 X39.1137 Y36.5506 
G01 X39.6493 Y37.0862 
G00 Z2.0000 
G00 X42.1893 Y26.9262 
G01 Z-2.5000 F200.00 
G01 X42.1893 Y27.6837 
G01 X41.6537 Y28.2193 
G01 X40.8962 Y28.2193 
G01 X40.3606 Y27.6837 
G01 X40.3606 Y26.9262 
G01 X40.8962 Y26.3906 
G01 X41.6537 Y26.3906 
G01 X42.1893 Y26.9262 
G00 Z2.0000 
G00 X26.3143 Y13.0260 
G01 Z-2.5000 F200.00 
G01 X26.3143 Y14.9139 
G01 X26.1751 Y15.2499 
G01 X25.9179 Y15.5071 
G01 X25.5819 Y15.6463 
G01 X25.2180 Y15.6463 
G01 X24.8820 Y15.5071 
G01 X24.6248 Y15.2499 
G01 X24.4856 Y14.9139 
G01 X24.4856 Y13.0260 
G01 X24.6248 Y12.6900 
G01 X24.8820 Y12.4328 
G01 X25.2180 Y12.2936 
G01 X25.5819 Y12.2936 
G01 X25.9179 Y12.4328 
G01 X26.1751 Y12.6900 
G01 X26.3143 Y13.0260 
G00 Z2.0000 
G00 X26.3143 Y2.8660 
G01 Z-2.5000 F200.00 
G01 X26.3143 Y4.7539 
G01 X26.1751 Y5.0899 
G01 X25.9179 Y5.3471 
G01 X25.5819 Y5.4863 
G01 X25.2180 Y5.4863 
G01 X24.8820 Y5.3471 
G01 X24.6248 Y5.0899 
G01 X24.4856 Y4.7539 
G01 X24.4856 Y2.8660 
G01 X24.6248 Y2.5300 
G01 X24.8820 Y2.2728 
G01 X25.2180 Y2.1336 
G01 X25.5819 Y2.1336 
G01 X25.9179 Y2.2728 
G01 X26.1751 Y2.5300 
G01 X26.3143 Y2.8660 
G00 Z2.0000 
G00 X26.2063 Y17.0628 
G01 Z-2.5000 F200.00 
G01 X26.2063 Y18.4971 
G01 X26.1171 Y18.5863 
G01 X24.6828 Y18.5863 
G01 X24.5936 Y18.4971 
G01 X24.5936 Y17.0628 
G01 X24.6828 Y16.9736 
G01 X26.1171 Y16.9736 
G01 X26.2063 Y17.0628 
G00 Z2.0000 
G00 X28.7463 Y17.0628 
G01 Z-2.5000 F200.00 
G01 X28.7463 Y18.4971 
G01 X28.6571 Y18.5863 
G01 X27.2228 Y18.5863 
G01 X27.1336 Y18.4971 
G01 X27.1336 Y17.0628 
G01 X27.2228 Y16.9736 
G01 X28.6571 Y16.9736 
G01 X28.7463 Y17.0628 
G00 Z2.0000 
G00 X31.2863 Y17.0628 
G01 Z-2.5000 F200.00 
G01 X31.2863 Y18.4971 
G01 X31.1971 Y18.5863 
G01 X29.7628 Y18.5863 
G01 X29.6736 Y18.4971 
G01 X29.6736 Y17.0628 
G01 X29.7628 Y16.9736 
G01 X31.1971 Y16.9736 
G01 X31.2863 Y17.0628 
G00 Z2.0000 
G00 X33.8263 Y17.0628 
G01 Z-2.5000 F200.00 
G01 X33.8263 Y18.4971 
G01 X33.7371 Y18.5863 
G01 X32.3028 Y18.5863 
G01 X32.2136 Y18.4971 
G01 X32.2136 Y17.0628 
G01 X32.3028 Y16.9736 
G01 X33.7371 Y16.9736 
G01 X33.8263 Y17.0628 
G00 Z2.0000 
G00 X33.8263 Y24.6828 
G01 Z-2.5000 F200.00 
G01 X33.8263 Y26.1171 
G01 X33.7371 Y26.2063 
G01 X32.3028 Y26.2063 
G01 X32.2136 Y26.1171 
G01 X32.2136 Y24.6828 
G01 X32.3028 Y24.5936 
G01 X33.7371 Y24.5936 
G01 X33.8263 Y24.6828 
G00 Z2.0000 
G00 X31.2863 Y24.6828 
G01 Z-2.5000 F200.00 
G01 X31.2863 Y26.1171 
G01 X31.1971 Y26.2063 
G01 X29.7628 Y26.2063 
G01 X29.6736 Y26.1171 
G01 X29.6736 Y24.6828 
G01 X29.7628 Y24.5936 
G01 X31.1971 Y24.5936 
G01 X31.2863 Y24.6828 
G00 Z2.0000 
G00 X28.7463 Y24.6828 
G01 Z-2.5000 F200.00 
G01 X28.7463 Y26.1171 
G01 X28.6571 Y26.2063 
G01 X27.2228 Y26.2063 
G01 X27.1336 Y26.1171 
G01 X27.1336 Y24.6828 
G01 X27.2228 Y24.5936 
G01 X28.6571 Y24.5936 
G01 X28.7463 Y24.6828 
G00 Z2.0000 
G00 X26.2063 Y24.6828 
G01 Z-2.5000 F200.00 
G01 X26.2063 Y26.1171 
G01 X26.1171 Y26.2063 
G01 X24.6828 Y26.2063 
G01 X24.5936 Y26.1171 
G01 X24.5936 Y24.6828 
G01 X24.6828 Y24.5936 
G01 X26.1171 Y24.5936 
G01 X26.2063 Y24.6828 
G00 Z2.0000 
G00 X28.7527 Y14.9033 
G01 Z-2.5000 F200.00 
G01 X28.7527 Y15.5766 
G01 X28.2766 Y16.0527 
G01 X27.6033 Y16.0527 
G01 X27.1272 Y15.5766 
G01 X27.1272 Y14.9033 
G01 X27.6033 Y14.4272 
G01 X28.2766 Y14.4272 
G01 X28.7527 Y14.9033 
G00 Z2.0000 
G00 X36.3727 Y14.9033 
G01 Z-2.5000 F200.00 
G01 X36.3727 Y15.5766 
G01 X35.8966 Y16.0527 
G01 X35.2233 Y16.0527 
G01 X34.7472 Y15.5766 
G01 X34.7472 Y14.9033 
G01 X35.2233 Y14.4272 
G01 X35.8966 Y14.4272 
G01 X36.3727 Y14.9033 
G00 Z2.0000 
G00 X109.3977 Y81.5783 
G01 Z-2.5000 F200.00 
G01 X109.3977 Y82.2516 
G01 X108.9216 Y82.7277 
G01 X108.2483 Y82.7277 
G01 X107.7722 Y82.2516 
G01 X107.7722 Y81.5783 
G01 X108.2483 Y81.1022 
G01 X108.9216 Y81.1022 
G01 X109.3977 Y81.5783 
G00 Z2.0000 
G00 X107.4927 Y80.3083 
G01 Z-2.5000 F200.00 
G01 X107.4927 Y80.9816 
G01 X107.0166 Y81.4577 
G01 X106.3433 Y81.4577 
G01 X105.8672 Y80.9816 
G01 X105.8672 Y80.3083 
G01 X106.3433 Y79.8322 
G01 X107.0166 Y79.8322 
G01 X107.4927 Y80.3083 
G00 Z2.0000 
G00 X109.3977 Y79.0383 
G01 Z-2.5000 F200.00 
G01 X109.3977 Y79.7116 
G01 X108.9216 Y80.1877 
G01 X108.2483 Y80.1877 
G01 X107.7722 Y79.7116 
G01 X107.7722 Y79.0383 
G01 X108.2483 Y78.5622 
G01 X108.9216 Y78.5622 
G01 X109.3977 Y79.0383 
G00 Z2.0000 
G00 X105.5877 Y70.1483 
G01 Z-2.5000 F200.00 
G01 X105.5877 Y70.8216 
G01 X105.1116 Y71.2977 
G01 X104.4383 Y71.2977 
G01 X103.9622 Y70.8216 
G01 X103.9622 Y70.1483 
G01 X104.4383 Y69.6722 
G01 X105.1116 Y69.6722 
G01 X105.5877 Y70.1483 
G00 Z2.0000 
G00 X105.5877 Y77.7683 
G01 Z-2.5000 F200.00 
G01 X105.5877 Y78.4416 
G01 X105.1116 Y78.9177 
G01 X104.4383 Y78.9177 
G01 X103.9622 Y78.4416 
G01 X103.9622 Y77.7683 
G01 X104.4383 Y77.2922 
G01 X105.1116 Y77.2922 
G01 X105.5877 Y77.7683 
G00 Z2.0000 
G00 X113.4936 Y19.7671 
G01 Z-2.5000 F200.00 
G01 X113.4936 Y18.3328 
G01 X113.5828 Y18.2436 
G01 X115.0171 Y18.2436 
G01 X115.1063 Y18.3328 
G01 X115.1063 Y19.7671 
G01 X115.0171 Y19.8563 
G01 X113.5828 Y19.8563 
G01 X113.4936 Y19.7671 
G00 Z2.0000 
G00 X75.3936 Y19.7671 
G01 Z-2.5000 F200.00 
G01 X75.3936 Y18.3328 
G01 X75.4828 Y18.2436 
G01 X76.9171 Y18.2436 
G01 X77.0063 Y18.3328 
G01 X77.0063 Y19.7671 
G01 X76.9171 Y19.8563 
G01 X75.4828 Y19.8563 
G01 X75.3936 Y19.7671 
G00 Z2.0000 
G00 X113.4936 Y4.5271 
G01 Z-2.5000 F200.00 
G01 X113.4936 Y3.0928 
G01 X113.5828 Y3.0036 
G01 X115.0171 Y3.0036 
G01 X115.1063 Y3.0928 
G01 X115.1063 Y4.5271 
G01 X115.0171 Y4.6163 
G01 X113.5828 Y4.6163 
G01 X113.4936 Y4.5271 
G00 Z2.0000 
G00 X75.3936 Y4.5271 
G01 Z-2.5000 F200.00 
G01 X75.3936 Y3.0928 
G01 X75.4828 Y3.0036 
G01 X76.9171 Y3.0036 
G01 X77.0063 Y3.0928 
G01 X77.0063 Y4.5271 
G01 X76.9171 Y4.6163 
G01 X75.4828 Y4.6163 
G01 X75.3936 Y4.5271 
G00 Z2.0000 
G00 X80.4736 Y19.7671 
G01 Z-2.5000 F200.00 
G01 X80.4736 Y18.3328 
G01 X80.5628 Y18.2436 
G01 X81.9971 Y18.2436 
G01 X82.0863 Y18.3328 
G01 X82.0863 Y19.7671 
G01 X81.9971 Y19.8563 
G01 X80.5628 Y19.8563 
G01 X80.4736 Y19.7671 
G00 Z2.0000 
G00 X47.2185 Y17.6081 
G01 Z-2.5000 F200.00 
G01 X47.2185 Y17.9518 
G01 X47.0870 Y18.2691 
G01 X46.8441 Y18.5120 
G01 X46.5268 Y18.6435 
G01 X46.1831 Y18.6435 
G01 X45.8658 Y18.5120 
G01 X45.6229 Y18.2691 
G01 X45.4914 Y17.9518 
G01 X45.4914 Y17.6081 
G01 X45.6229 Y17.2908 
G01 X45.8658 Y17.0479 
G01 X46.1831 Y16.9164 
G01 X46.5268 Y16.9164 
G01 X46.8441 Y17.0479 
G01 X47.0870 Y17.2908 
G01 X47.2185 Y17.6081 
G00 Z2.0000 
G00 X47.2185 Y19.9623 
G01 Z-2.5000 F200.00 
G01 X47.2185 Y20.6776 
G01 X46.7126 Y21.1835 
G01 X45.9973 Y21.1835 
G01 X45.4914 Y20.6776 
G01 X45.4914 Y19.9623 
G01 X45.9973 Y19.4564 
G01 X46.7126 Y19.4564 
G01 X47.2185 Y19.9623 
G00 Z2.0000 
G00 X49.7585 Y17.4223 
G01 Z-2.5000 F200.00 
G01 X49.7585 Y18.1376 
G01 X49.2526 Y18.6435 
G01 X48.5373 Y18.6435 
G01 X48.0314 Y18.1376 
G01 X48.0314 Y17.4223 
G01 X48.5373 Y16.9164 
G01 X49.2526 Y16.9164 
G01 X49.7585 Y17.4223 
G00 Z2.0000 
G00 X49.7585 Y19.9623 
G01 Z-2.5000 F200.00 
G01 X49.7585 Y20.6776 
G01 X49.2526 Y21.1835 
G01 X48.5373 Y21.1835 
G01 X48.0314 Y20.6776 
G01 X48.0314 Y19.9623 
G01 X48.5373 Y19.4564 
G01 X49.2526 Y19.4564 
G01 X49.7585 Y19.9623 
G00 Z2.0000 
G00 X52.2985 Y17.4223 
G01 Z-2.5000 F200.00 
G01 X52.2985 Y18.1376 
G01 X51.7926 Y18.6435 
G01 X51.0773 Y18.6435 
G01 X50.5714 Y18.1376 
G01 X50.5714 Y17.4223 
G01 X51.0773 Y16.9164 
G01 X51.7926 Y16.9164 
G01 X52.2985 Y17.4223 
G00 Z2.0000 
G00 X52.2985 Y19.9623 
G01 Z-2.5000 F200.00 
G01 X52.2985 Y20.6776 
G01 X51.7926 Y21.1835 
G01 X51.0773 Y21.1835 
G01 X50.5714 Y20.6776 
G01 X50.5714 Y19.9623 
G01 X51.0773 Y19.4564 
G01 X51.7926 Y19.4564 
G01 X52.2985 Y19.9623 
G00 Z2.0000 
G00 X54.8385 Y17.4223 
G01 Z-2.5000 F200.00 
G01 X54.8385 Y18.1376 
G01 X54.3326 Y18.6435 
G01 X53.6173 Y18.6435 
G01 X53.1114 Y18.1376 
G01 X53.1114 Y17.4223 
G01 X53.6173 Y16.9164 
G01 X54.3326 Y16.9164 
G01 X54.8385 Y17.4223 
G00 Z2.0000 
G00 X54.8385 Y19.9623 
G01 Z-2.5000 F200.00 
G01 X54.8385 Y20.6776 
G01 X54.3326 Y21.1835 
G01 X53.6173 Y21.1835 
G01 X53.1114 Y20.6776 
G01 X53.1114 Y19.9623 
G01 X53.6173 Y19.4564 
G01 X54.3326 Y19.4564 
G01 X54.8385 Y19.9623 
G00 Z2.0000 
G00 X57.3785 Y17.4223 
G01 Z-2.5000 F200.00 
G01 X57.3785 Y18.1376 
G01 X56.8726 Y18.6435 
G01 X56.1573 Y18.6435 
G01 X55.6514 Y18.1376 
G01 X55.6514 Y17.4223 
G01 X56.1573 Y16.9164 
G01 X56.8726 Y16.9164 
G01 X57.3785 Y17.4223 
G00 Z2.0000 
G00 X57.3785 Y19.9623 
G01 Z-2.5000 F200.00 
G01 X57.3785 Y20.6776 
G01 X56.8726 Y21.1835 
G01 X56.1573 Y21.1835 
G01 X55.6514 Y20.6776 
G01 X55.6514 Y19.9623 
G01 X56.1573 Y19.4564 
G01 X56.8726 Y19.4564 
G01 X57.3785 Y19.9623 
G00 Z2.0000 
G00 X59.9185 Y17.4223 
G01 Z-2.5000 F200.00 
G01 X59.9185 Y18.1376 
G01 X59.4126 Y18.6435 
G01 X58.6973 Y18.6435 
G01 X58.1914 Y18.1376 
G01 X58.1914 Y17.4223 
G01 X58.6973 Y16.9164 
G01 X59.4126 Y16.9164 
G01 X59.9185 Y17.4223 
G00 Z2.0000 
G00 X59.9185 Y19.9623 
G01 Z-2.5000 F200.00 
G01 X59.9185 Y20.6776 
G01 X59.4126 Y21.1835 
G01 X58.6973 Y21.1835 
G01 X58.1914 Y20.6776 
G01 X58.1914 Y19.9623 
G01 X58.6973 Y19.4564 
G01 X59.4126 Y19.4564 
G01 X59.9185 Y19.9623 
G00 Z2.0000 
G00 X62.4585 Y17.4223 
G01 Z-2.5000 F200.00 
G01 X62.4585 Y18.1376 
G01 X61.9526 Y18.6435 
G01 X61.2373 Y18.6435 
G01 X60.7314 Y18.1376 
G01 X60.7314 Y17.4223 
G01 X61.2373 Y16.9164 
G01 X61.9526 Y16.9164 
G01 X62.4585 Y17.4223 
G00 Z2.0000 
G00 X62.4585 Y19.9623 
G01 Z-2.5000 F200.00 
G01 X62.4585 Y20.6776 
G01 X61.9526 Y21.1835 
G01 X61.2373 Y21.1835 
G01 X60.7314 Y20.6776 
G01 X60.7314 Y19.9623 
G01 X61.2373 Y19.4564 
G01 X61.9526 Y19.4564 
G01 X62.4585 Y19.9623 
G00 Z2.0000 
G00 X64.9985 Y17.4223 
G01 Z-2.5000 F200.00 
G01 X64.9985 Y18.1376 
G01 X64.4926 Y18.6435 
G01 X63.7773 Y18.6435 
G01 X63.2714 Y18.1376 
G01 X63.2714 Y17.4223 
G01 X63.7773 Y16.9164 
G01 X64.4926 Y16.9164 
G01 X64.9985 Y17.4223 
G00 Z2.0000 
G00 X64.9985 Y19.9623 
G01 Z-2.5000 F200.00 
G01 X64.9985 Y20.6776 
G01 X64.4926 Y21.1835 
G01 X63.7773 Y21.1835 
G01 X63.2714 Y20.6776 
G01 X63.2714 Y19.9623 
G01 X63.7773 Y19.4564 
G01 X64.4926 Y19.4564 
G01 X64.9985 Y19.9623 
G00 Z2.0000 
G00 X67.5385 Y17.4223 
G01 Z-2.5000 F200.00 
G01 X67.5385 Y18.1376 
G01 X67.0326 Y18.6435 
G01 X66.3173 Y18.6435 
G01 X65.8114 Y18.1376 
G01 X65.8114 Y17.4223 
G01 X66.3173 Y16.9164 
G01 X67.0326 Y16.9164 
G01 X67.5385 Y17.4223 
G00 Z2.0000 
G00 X67.5385 Y19.9623 
G01 Z-2.5000 F200.00 
G01 X67.5385 Y20.6776 
G01 X67.0326 Y21.1835 
G01 X66.3173 Y21.1835 
G01 X65.8114 Y20.6776 
G01 X65.8114 Y19.9623 
G01 X66.3173 Y19.4564 
G01 X67.0326 Y19.4564 
G01 X67.5385 Y19.9623 
G00 Z2.0000 
G00 X70.0785 Y17.4223 
G01 Z-2.5000 F200.00 
G01 X70.0785 Y18.1376 
G01 X69.5726 Y18.6435 
G01 X68.8573 Y18.6435 
G01 X68.3514 Y18.1376 
G01 X68.3514 Y17.4223 
G01 X68.8573 Y16.9164 
G01 X69.5726 Y16.9164 
G01 X70.0785 Y17.4223 
G00 Z2.0000 
G00 X70.0785 Y19.9623 
G01 Z-2.5000 F200.00 
G01 X70.0785 Y20.6776 
G01 X69.5726 Y21.1835 
G01 X68.8573 Y21.1835 
G01 X68.3514 Y20.6776 
G01 X68.3514 Y19.9623 
G01 X68.8573 Y19.4564 
G01 X69.5726 Y19.4564 
G01 X70.0785 Y19.9623 
G00 Z2.0000 
G00 X61.1377 Y12.9983 
G01 Z-2.5000 F200.00 
G01 X61.1377 Y13.6716 
G01 X60.6616 Y14.1477 
G01 X59.9883 Y14.1477 
G01 X59.5122 Y13.6716 
G01 X59.5122 Y12.9983 
G01 X59.9883 Y12.5222 
G01 X60.6616 Y12.5222 
G01 X61.1377 Y12.9983 
G00 Z2.0000 
G00 X53.5177 Y12.9983 
G01 Z-2.5000 F200.00 
G01 X53.5177 Y13.6716 
G01 X53.0416 Y14.1477 
G01 X52.3683 Y14.1477 
G01 X51.8922 Y13.6716 
G01 X51.8922 Y12.9983 
G01 X52.3683 Y12.5222 
G01 X53.0416 Y12.5222 
G01 X53.5177 Y12.9983 
G00 Z2.0000 
G00 X56.6927 Y26.3333 
G01 Z-2.5000 F200.00 
G01 X56.6927 Y27.0066 
G01 X56.2166 Y27.4827 
G01 X55.5433 Y27.4827 
G01 X55.0672 Y27.0066 
G01 X55.0672 Y26.3333 
G01 X55.5433 Y25.8572 
G01 X56.2166 Y25.8572 
G01 X56.6927 Y26.3333 
G00 Z2.0000 
G00 X56.6927 Y23.7933 
G01 Z-2.5000 F200.00 
G01 X56.6927 Y24.4666 
G01 X56.2166 Y24.9427 
G01 X55.5433 Y24.9427 
G01 X55.0672 Y24.4666 
G01 X55.0672 Y23.7933 
G01 X55.5433 Y23.3172 
G01 X56.2166 Y23.3172 
G01 X56.6927 Y23.7933 
G00 Z2.0000 
G00 X70.9675 Y5.7670 
G01 Z-2.5000 F200.00 
G01 X70.9675 Y8.2029 
G01 X70.7935 Y8.6230 
G01 X70.4720 Y8.9445 
G01 X70.0519 Y9.1185 
G01 X69.5972 Y9.1185 
G01 X69.1771 Y8.9445 
G01 X68.8556 Y8.6230 
G01 X68.6816 Y8.2029 
G01 X68.6816 Y5.7670 
G01 X68.8556 Y5.3469 
G01 X69.1771 Y5.0254 
G01 X69.5972 Y4.8514 
G01 X70.0519 Y4.8514 
G01 X70.4720 Y5.0254 
G01 X70.7935 Y5.3469 
G01 X70.9675 Y5.7670 
G00 Z2.0000 
G00 X65.9637 Y5.7670 
G01 Z-2.5000 F200.00 
G01 X65.9637 Y8.2029 
G01 X65.7897 Y8.6230 
G01 X65.4682 Y8.9445 
G01 X65.0481 Y9.1185 
G01 X64.5934 Y9.1185 
G01 X64.1733 Y8.9445 
G01 X63.8518 Y8.6230 
G01 X63.6778 Y8.2029 
G01 X63.6778 Y5.7670 
G01 X63.8518 Y5.3469 
G01 X64.1733 Y5.0254 
G01 X64.5934 Y4.8514 
G01 X65.0481 Y4.8514 
G01 X65.4682 Y5.0254 
G01 X65.7897 Y5.3469 
G01 X65.9637 Y5.7670 
G00 Z2.0000 
G00 X103.1047 Y86.6394 
G01 Z-2.5000 F200.00 
G01 X105.1752 Y86.6394 
G01 X105.5393 Y86.7902 
G01 X105.8179 Y87.0688 
G01 X105.9687 Y87.4329 
G01 X105.9687 Y87.8270 
G01 X105.8179 Y88.1911 
G01 X105.5393 Y88.4697 
G01 X105.1752 Y88.6205 
G01 X103.1047 Y88.6205 
G01 X102.7406 Y88.4697 
G01 X102.4620 Y88.1911 
G01 X102.3112 Y87.8270 
G01 X102.3112 Y87.4329 
G01 X102.4620 Y87.0688 
G01 X102.7406 Y86.7902 
G01 X103.1047 Y86.6394 
G00 Z2.0000 
G00 X103.1047 Y89.1794 
G01 Z-2.5000 F200.00 
G01 X105.1752 Y89.1794 
G01 X105.5393 Y89.3302 
G01 X105.8179 Y89.6088 
G01 X105.9687 Y89.9729 
G01 X105.9687 Y90.3670 
G01 X105.8179 Y90.7311 
G01 X105.5393 Y91.0097 
G01 X105.1752 Y91.1605 
G01 X103.1047 Y91.1605 
G01 X102.7406 Y91.0097 
G01 X102.4620 Y90.7311 
G01 X102.3112 Y90.3670 
G01 X102.3112 Y89.9729 
G01 X102.4620 Y89.6088 
G01 X102.7406 Y89.3302 
G01 X103.1047 Y89.1794 
G00 Z2.0000 
G00 X103.1047 Y91.7194 
G01 Z-2.5000 F200.00 
G01 X105.1752 Y91.7194 
G01 X105.5393 Y91.8702 
G01 X105.8179 Y92.1488 
G01 X105.9687 Y92.5129 
G01 X105.9687 Y92.9070 
G01 X105.8179 Y93.2711 
G01 X105.5393 Y93.5497 
G01 X105.1752 Y93.7005 
G01 X103.1047 Y93.7005 
G01 X102.7406 Y93.5497 
G01 X102.4620 Y93.2711 
G01 X102.3112 Y92.9070 
G01 X102.3112 Y92.5129 
G01 X102.4620 Y92.1488 
G01 X102.7406 Y91.8702 
G01 X103.1047 Y91.7194 
G00 Z2.0000 
G00 X110.8074 Y84.6955 
G01 Z-2.5000 F200.00 
G01 X110.8074 Y85.4844 
G01 X110.2494 Y86.0424 
G01 X109.4605 Y86.0424 
G01 X108.9025 Y85.4844 
G01 X108.9025 Y84.6955 
G01 X109.4605 Y84.1375 
G01 X110.2494 Y84.1375 
G01 X110.8074 Y84.6955 
G00 Z2.0000 
G00 X110.8074 Y87.2355 
G01 Z-2.5000 F200.00 
G01 X110.8074 Y88.0244 
G01 X110.2494 Y88.5824 
G01 X109.4605 Y88.5824 
G01 X108.9025 Y88.0244 
G01 X108.9025 Y87.2355 
G01 X109.4605 Y86.6775 
G01 X110.2494 Y86.6775 
G01 X110.8074 Y87.2355 
G00 Z2.0000 
G00 X110.8074 Y92.3155 
G01 Z-2.5000 F200.00 
G01 X110.8074 Y93.1044 
G01 X110.2494 Y93.6624 
G01 X109.4605 Y93.6624 
G01 X108.9025 Y93.1044 
G01 X108.9025 Y92.3155 
G01 X109.4605 Y91.7575 
G01 X110.2494 Y91.7575 
G01 X110.8074 Y92.3155 
G00 Z2.0000 
G00 X110.8074 Y89.7755 
G01 Z-2.5000 F200.00 
G01 X110.8074 Y90.5644 
G01 X110.2494 Y91.1224 
G01 X109.4605 Y91.1224 
G01 X108.9025 Y90.5644 
G01 X108.9025 Y89.7755 
G01 X109.4605 Y89.2175 
G01 X110.2494 Y89.2175 
G01 X110.8074 Y89.7755 
G00 Z2.0000 
G00 X103.0985 Y65.8681 
G01 Z-2.5000 F200.00 
G01 X103.0985 Y66.2118 
G01 X102.9670 Y66.5291 
G01 X102.7241 Y66.7720 
G01 X102.4068 Y66.9035 
G01 X102.0631 Y66.9035 
G01 X101.7458 Y66.7720 
G01 X101.5029 Y66.5291 
G01 X101.3714 Y66.2118 
G01 X101.3714 Y65.8681 
G01 X101.5029 Y65.5508 
G01 X101.7458 Y65.3079 
G01 X102.0631 Y65.1764 
G01 X102.4068 Y65.1764 
G01 X102.7241 Y65.3079 
G01 X102.9670 Y65.5508 
G01 X103.0985 Y65.8681 
G00 Z2.0000 
G00 X103.0985 Y63.1423 
G01 Z-2.5000 F200.00 
G01 X103.0985 Y63.8576 
G01 X102.5926 Y64.3635 
G01 X101.8773 Y64.3635 
G01 X101.3714 Y63.8576 
G01 X101.3714 Y63.1423 
G01 X101.8773 Y62.6364 
G01 X102.5926 Y62.6364 
G01 X103.0985 Y63.1423 
G00 Z2.0000 
G00 X100.5585 Y65.6823 
G01 Z-2.5000 F200.00 
G01 X100.5585 Y66.3976 
G01 X100.0526 Y66.9035 
G01 X99.3373 Y66.9035 
G01 X98.8314 Y66.3976 
G01 X98.8314 Y65.6823 
G01 X99.3373 Y65.1764 
G01 X100.0526 Y65.1764 
G01 X100.5585 Y65.6823 
G00 Z2.0000 
G00 X100.5585 Y63.1423 
G01 Z-2.5000 F200.00 
G01 X100.5585 Y63.8576 
G01 X100.0526 Y64.3635 
G01 X99.3373 Y64.3635 
G01 X98.8314 Y63.8576 
G01 X98.8314 Y63.1423 
G01 X99.3373 Y62.6364 
G01 X100.0526 Y62.6364 
G01 X100.5585 Y63.1423 
G00 Z2.0000 
G00 X98.0185 Y65.6823 
G01 Z-2.5000 F200.00 
G01 X98.0185 Y66.3976 
G01 X97.5126 Y66.9035 
G01 X96.7973 Y66.9035 
G01 X96.2914 Y66.3976 
G01 X96.2914 Y65.6823 
G01 X96.7973 Y65.1764 
G01 X97.5126 Y65.1764 
G01 X98.0185 Y65.6823 
G00 Z2.0000 
G00 X98.0185 Y63.1423 
G01 Z-2.5000 F200.00 
G01 X98.0185 Y63.8576 
G01 X97.5126 Y64.3635 
G01 X96.7973 Y64.3635 
G01 X96.2914 Y63.8576 
G01 X96.2914 Y63.1423 
G01 X96.7973 Y62.6364 
G01 X97.5126 Y62.6364 
G01 X98.0185 Y63.1423 
G00 Z2.0000 
G00 X95.4785 Y65.6823 
G01 Z-2.5000 F200.00 
G01 X95.4785 Y66.3976 
G01 X94.9726 Y66.9035 
G01 X94.2573 Y66.9035 
G01 X93.7514 Y66.3976 
G01 X93.7514 Y65.6823 
G01 X94.2573 Y65.1764 
G01 X94.9726 Y65.1764 
G01 X95.4785 Y65.6823 
G00 Z2.0000 
G00 X95.4785 Y63.1423 
G01 Z-2.5000 F200.00 
G01 X95.4785 Y63.8576 
G01 X94.9726 Y64.3635 
G01 X94.2573 Y64.3635 
G01 X93.7514 Y63.8576 
G01 X93.7514 Y63.1423 
G01 X94.2573 Y62.6364 
G01 X94.9726 Y62.6364 
G01 X95.4785 Y63.1423 
G00 Z2.0000 
G00 X92.9385 Y65.6823 
G01 Z-2.5000 F200.00 
G01 X92.9385 Y66.3976 
G01 X92.4326 Y66.9035 
G01 X91.7173 Y66.9035 
G01 X91.2114 Y66.3976 
G01 X91.2114 Y65.6823 
G01 X91.7173 Y65.1764 
G01 X92.4326 Y65.1764 
G01 X92.9385 Y65.6823 
G00 Z2.0000 
G00 X92.9385 Y63.1423 
G01 Z-2.5000 F200.00 
G01 X92.9385 Y63.8576 
G01 X92.4326 Y64.3635 
G01 X91.7173 Y64.3635 
G01 X91.2114 Y63.8576 
G01 X91.2114 Y63.1423 
G01 X91.7173 Y62.6364 
G01 X92.4326 Y62.6364 
G01 X92.9385 Y63.1423 
G00 Z2.0000 
G00 X97.3835 Y29.6731 
G01 Z-2.5000 F200.00 
G01 X97.3835 Y30.0168 
G01 X97.2520 Y30.3341 
G01 X97.0091 Y30.5770 
G01 X96.6918 Y30.7085 
G01 X96.3481 Y30.7085 
G01 X96.0308 Y30.5770 
G01 X95.7879 Y30.3341 
G01 X95.6564 Y30.0168 
G01 X95.6564 Y29.6731 
G01 X95.7879 Y29.3558 
G01 X96.0308 Y29.1129 
G01 X96.3481 Y28.9814 
G01 X96.6918 Y28.9814 
G01 X97.0091 Y29.1129 
G01 X97.2520 Y29.3558 
G01 X97.3835 Y29.6731 
G00 Z2.0000 
G00 X97.3835 Y26.9473 
G01 Z-2.5000 F200.00 
G01 X97.3835 Y27.6626 
G01 X96.8776 Y28.1685 
G01 X96.1623 Y28.1685 
G01 X95.6564 Y27.6626 
G01 X95.6564 Y26.9473 
G01 X96.1623 Y26.4414 
G01 X96.8776 Y26.4414 
G01 X97.3835 Y26.9473 
G00 Z2.0000 
G00 X94.8435 Y29.4873 
G01 Z-2.5000 F200.00 
G01 X94.8435 Y30.2026 
G01 X94.3376 Y30.7085 
G01 X93.6223 Y30.7085 
G01 X93.1164 Y30.2026 
G01 X93.1164 Y29.4873 
G01 X93.6223 Y28.9814 
G01 X94.3376 Y28.9814 
G01 X94.8435 Y29.4873 
G00 Z2.0000 
G00 X94.8435 Y26.9473 
G01 Z-2.5000 F200.00 
G01 X94.8435 Y27.6626 
G01 X94.3376 Y28.1685 
G01 X93.6223 Y28.1685 
G01 X93.1164 Y27.6626 
G01 X93.1164 Y26.9473 
G01 X93.6223 Y26.4414 
G01 X94.3376 Y26.4414 
G01 X94.8435 Y26.9473 
G00 Z2.0000 
G00 X92.3035 Y29.4873 
G01 Z-2.5000 F200.00 
G01 X92.3035 Y30.2026 
G01 X91.7976 Y30.7085 
G01 X91.0823 Y30.7085 
G01 X90.5764 Y30.2026 
G01 X90.5764 Y29.4873 
G01 X91.0823 Y28.9814 
G01 X91.7976 Y28.9814 
G01 X92.3035 Y29.4873 
G00 Z2.0000 
G00 X92.3035 Y26.9473 
G01 Z-2.5000 F200.00 
G01 X92.3035 Y27.6626 
G01 X91.7976 Y28.1685 
G01 X91.0823 Y28.1685 
G01 X90.5764 Y27.6626 
G01 X90.5764 Y26.9473 
G01 X91.0823 Y26.4414 
G01 X91.7976 Y26.4414 
G01 X92.3035 Y26.9473 
G00 Z2.0000 
G00 X89.7635 Y29.4873 
G01 Z-2.5000 F200.00 
G01 X89.7635 Y30.2026 
G01 X89.2576 Y30.7085 
G01 X88.5423 Y30.7085 
G01 X88.0364 Y30.2026 
G01 X88.0364 Y29.4873 
G01 X88.5423 Y28.9814 
G01 X89.2576 Y28.9814 
G01 X89.7635 Y29.4873 
G00 Z2.0000 
G00 X89.7635 Y26.9473 
G01 Z-2.5000 F200.00 
G01 X89.7635 Y27.6626 
G01 X89.2576 Y28.1685 
G01 X88.5423 Y28.1685 
G01 X88.0364 Y27.6626 
G01 X88.0364 Y26.9473 
G01 X88.5423 Y26.4414 
G01 X89.2576 Y26.4414 
G01 X89.7635 Y26.9473 
G00 Z2.0000 
G00 X87.2235 Y29.4873 
G01 Z-2.5000 F200.00 
G01 X87.2235 Y30.2026 
G01 X86.7176 Y30.7085 
G01 X86.0023 Y30.7085 
G01 X85.4964 Y30.2026 
G01 X85.4964 Y29.4873 
G01 X86.0023 Y28.9814 
G01 X86.7176 Y28.9814 
G01 X87.2235 Y29.4873 
G00 Z2.0000 
G00 X87.2235 Y26.9473 
G01 Z-2.5000 F200.00 
G01 X87.2235 Y27.6626 
G01 X86.7176 Y28.1685 
G01 X86.0023 Y28.1685 
G01 X85.4964 Y27.6626 
G01 X85.4964 Y26.9473 
G01 X86.0023 Y26.4414 
G01 X86.7176 Y26.4414 
G01 X87.2235 Y26.9473 
G00 Z2.0000 
G00 X68.8593 Y54.9360 
G01 Z-2.5000 F200.00 
G01 X68.8593 Y56.8239 
G01 X68.7201 Y57.1599 
G01 X68.4629 Y57.4171 
G01 X68.1269 Y57.5563 
G01 X67.7630 Y57.5563 
G01 X67.4270 Y57.4171 
G01 X67.1698 Y57.1599 
G01 X67.0306 Y56.8239 
G01 X67.0306 Y54.9360 
G01 X67.1698 Y54.6000 
G01 X67.4270 Y54.3428 
G01 X67.7630 Y54.2036 
G01 X68.1269 Y54.2036 
G01 X68.4629 Y54.3428 
G01 X68.7201 Y54.6000 
G01 X68.8593 Y54.9360 
G00 Z2.0000 
G00 X66.3193 Y54.9360 
G01 Z-2.5000 F200.00 
G01 X66.3193 Y56.8239 
G01 X66.1801 Y57.1599 
G01 X65.9229 Y57.4171 
G01 X65.5869 Y57.5563 
G01 X65.2230 Y57.5563 
G01 X64.8870 Y57.4171 
G01 X64.6298 Y57.1599 
G01 X64.4906 Y56.8239 
G01 X64.4906 Y54.9360 
G01 X64.6298 Y54.6000 
G01 X64.8870 Y54.3428 
G01 X65.2230 Y54.2036 
G01 X65.5869 Y54.2036 
G01 X65.9229 Y54.3428 
G01 X66.1801 Y54.6000 
G01 X66.3193 Y54.9360 
G00 Z2.0000 
G00 X63.7793 Y54.9360 
G01 Z-2.5000 F200.00 
G01 X63.7793 Y56.8239 
G01 X63.6401 Y57.1599 
G01 X63.3829 Y57.4171 
G01 X63.0469 Y57.5563 
G01 X62.6830 Y57.5563 
G01 X62.3470 Y57.4171 
G01 X62.0898 Y57.1599 
G01 X61.9506 Y56.8239 
G01 X61.9506 Y54.9360 
G01 X62.0898 Y54.6000 
G01 X62.3470 Y54.3428 
G01 X62.6830 Y54.2036 
G01 X63.0469 Y54.2036 
G01 X63.3829 Y54.3428 
G01 X63.6401 Y54.6000 
G01 X63.7793 Y54.9360 
G00 Z2.0000 
G00 X34.2379 Y91.9225 
G01 Z-2.5000 F200.00 
G01 X31.8020 Y91.9225 
G01 X31.3819 Y91.7485 
G01 X31.0604 Y91.4270 
G01 X30.8864 Y91.0069 
G01 X30.8864 Y90.5522 
G01 X31.0604 Y90.1321 
G01 X31.3819 Y89.8106 
G01 X31.8020 Y89.6366 
G01 X34.2379 Y89.6366 
G01 X34.6580 Y89.8106 
G01 X34.9795 Y90.1321 
G01 X35.1535 Y90.5522 
G01 X35.1535 Y91.0069 
G01 X34.9795 Y91.4270 
G01 X34.6580 Y91.7485 
G01 X34.2379 Y91.9225 
G00 Z2.0000 
G00 X34.2379 Y86.9187 
G01 Z-2.5000 F200.00 
G01 X31.8020 Y86.9187 
G01 X31.3819 Y86.7447 
G01 X31.0604 Y86.4232 
G01 X30.8864 Y86.0031 
G01 X30.8864 Y85.5484 
G01 X31.0604 Y85.1283 
G01 X31.3819 Y84.8068 
G01 X31.8020 Y84.6328 
G01 X34.2379 Y84.6328 
G01 X34.6580 Y84.8068 
G01 X34.9795 Y85.1283 
G01 X35.1535 Y85.5484 
G01 X35.1535 Y86.0031 
G01 X34.9795 Y86.4232 
G01 X34.6580 Y86.7447 
G01 X34.2379 Y86.9187 
G00 Z2.0000 
G00 X34.2379 Y81.7625 
G01 Z-2.5000 F200.00 
G01 X31.8020 Y81.7625 
G01 X31.3819 Y81.5885 
G01 X31.0604 Y81.2670 
G01 X30.8864 Y80.8469 
G01 X30.8864 Y80.3922 
G01 X31.0604 Y79.9721 
G01 X31.3819 Y79.6506 
G01 X31.8020 Y79.4766 
G01 X34.2379 Y79.4766 
G01 X34.6580 Y79.6506 
G01 X34.9795 Y79.9721 
G01 X35.1535 Y80.3922 
G01 X35.1535 Y80.8469 
G01 X34.9795 Y81.2670 
G01 X34.6580 Y81.5885 
G01 X34.2379 Y81.7625 
G00 Z2.0000 
G00 X34.2379 Y76.7587 
G01 Z-2.5000 F200.00 
G01 X31.8020 Y76.7587 
G01 X31.3819 Y76.5847 
G01 X31.0604 Y76.2632 
G01 X30.8864 Y75.8431 
G01 X30.8864 Y75.3884 
G01 X31.0604 Y74.9683 
G01 X31.3819 Y74.6468 
G01 X31.8020 Y74.4728 
G01 X34.2379 Y74.4728 
G01 X34.6580 Y74.6468 
G01 X34.9795 Y74.9683 
G01 X35.1535 Y75.3884 
G01 X35.1535 Y75.8431 
G01 X34.9795 Y76.2632 
G01 X34.6580 Y76.5847 
G01 X34.2379 Y76.7587 
G00 Z2.0000 
G00 X48.9274 Y29.0210 
G01 Z-2.5000 F200.00 
G01 X48.7060 Y29.2424 
G01 X48.4166 Y29.3623 
G01 X48.1033 Y29.3623 
G01 X47.8139 Y29.2424 
G01 X47.5925 Y29.0210 
G01 X47.4726 Y28.7316 
G01 X47.4726 Y28.4183 
G01 X47.5925 Y28.1289 
G01 X47.8139 Y27.9075 
G01 X48.1033 Y27.7876 
G01 X48.4166 Y27.7876 
G01 X48.7060 Y27.9075 
G01 X48.9274 Y28.1289 
G01 X48.9648 Y28.2194 
G01 X55.1750 Y28.2194 
G01 X55.2125 Y28.1289 
G01 X55.4339 Y27.9075 
G01 X55.7233 Y27.7876 
G01 X56.0366 Y27.7876 
G01 X56.3260 Y27.9075 
G01 X56.5474 Y28.1289 
G01 X56.6673 Y28.4183 
G01 X56.6673 Y28.7316 
G01 X56.5474 Y29.0210 
G01 X56.3260 Y29.2424 
G01 X56.0366 Y29.3623 
G01 X55.7233 Y29.3623 
G01 X55.4339 Y29.2424 
G01 X55.2125 Y29.0210 
G01 X55.1750 Y28.9305 
G01 X48.9648 Y28.9305 
G01 X48.9274 Y29.0210 
G00 Z2.0000 
G00 X7.3403 Y92.2603 
G01 Z-2.5000 F200.00 
G01 X7.3403 Y93.1596 
G01 X6.9962 Y93.9904 
G01 X6.3604 Y94.6262 
G01 X5.5296 Y94.9703 
G01 X4.6303 Y94.9703 
G01 X3.7995 Y94.6262 
G01 X3.1637 Y93.9904 
G01 X2.8196 Y93.1596 
G01 X2.8196 Y92.2603 
G01 X3.1637 Y91.4295 
G01 X3.7995 Y90.7937 
G01 X4.6303 Y90.4496 
G01 X5.5296 Y90.4496 
G01 X6.3604 Y90.7937 
G01 X6.9962 Y91.4295 
G01 X7.3403 Y92.2603 
G00 Z2.0000 
G00 X7.3403 Y7.1703 
G01 Z-2.5000 F200.00 
G01 X7.3403 Y8.0696 
G01 X6.9962 Y8.9004 
G01 X6.3604 Y9.5362 
G01 X5.5296 Y9.8803 
G01 X4.6303 Y9.8803 
G01 X3.7995 Y9.5362 
G01 X3.1637 Y8.9004 
G01 X2.8196 Y8.0696 
G01 X2.8196 Y7.1703 
G01 X3.1637 Y6.3395 
G01 X3.7995 Y5.7037 
G01 X4.6303 Y5.3596 
G01 X5.5296 Y5.3596 
G01 X6.3604 Y5.7037 
G01 X6.9962 Y6.3395 
G01 X7.3403 Y7.1703 
G00 Z2.0000 
G00 X157.2003 Y7.1703 
G01 Z-2.5000 F200.00 
G01 X157.2003 Y8.0696 
G01 X156.8562 Y8.9004 
G01 X156.2204 Y9.5362 
G01 X155.3896 Y9.8803 
G01 X154.4903 Y9.8803 
G01 X153.6595 Y9.5362 
G01 X153.0237 Y8.9004 
G01 X152.6796 Y8.0696 
G01 X152.6796 Y7.1703 
G01 X153.0237 Y6.3395 
G01 X153.6595 Y5.7037 
G01 X154.4903 Y5.3596 
G01 X155.3896 Y5.3596 
G01 X156.2204 Y5.7037 
G01 X156.8562 Y6.3395 
G01 X157.2003 Y7.1703 
G00 Z2.0000 
G00 X157.2003 Y92.2603 
G01 Z-2.5000 F200.00 
G01 X157.2003 Y93.1596 
G01 X156.8562 Y93.9904 
G01 X156.2204 Y94.6262 
G01 X155.3896 Y94.9703 
G01 X154.4903 Y94.9703 
G01 X153.6595 Y94.6262 
G01 X153.0237 Y93.9904 
G01 X152.6796 Y93.1596 
G01 X152.6796 Y92.2603 
G01 X153.0237 Y91.4295 
G01 X153.6595 Y90.7937 
G01 X154.4903 Y90.4496 
G01 X155.3896 Y90.4496 
G01 X156.2204 Y90.7937 
G01 X156.8562 Y91.4295 
G01 X157.2003 Y92.2603 
G00 Z2.0000 
G00 X80.7973 Y23.9733 
G01 Z-2.5000 F200.00 
G01 X80.7973 Y24.2866 
G01 X80.6774 Y24.5760 
G01 X80.4560 Y24.7974 
G01 X80.1666 Y24.9173 
G01 X79.8533 Y24.9173 
G01 X79.5639 Y24.7974 
G01 X79.3425 Y24.5760 
G01 X79.3050 Y24.4855 
G01 X75.6349 Y24.4855 
G01 X75.5974 Y24.5760 
G01 X75.3760 Y24.7974 
G01 X75.0866 Y24.9173 
G01 X74.7733 Y24.9173 
G01 X74.4839 Y24.7974 
G01 X74.2625 Y24.5760 
G01 X74.1426 Y24.2866 
G01 X74.1426 Y23.9733 
G01 X74.2625 Y23.6839 
G01 X74.4839 Y23.4625 
G01 X74.7733 Y23.3426 
G01 X75.0866 Y23.3426 
G01 X75.3760 Y23.4625 
G01 X75.5974 Y23.6839 
G01 X75.6349 Y23.7744 
G01 X79.3050 Y23.7744 
G01 X79.3425 Y23.6839 
G01 X79.5639 Y23.4625 
G01 X79.8533 Y23.3426 
G01 X80.1666 Y23.3426 
G01 X80.4560 Y23.4625 
G01 X80.6774 Y23.6839 
G01 X80.7973 Y23.9733 
G00 Z2.0000 
G00 X41.4273 Y18.8933 
G01 Z-2.5000 F200.00 
G01 X41.4273 Y19.2066 
G01 X41.3074 Y19.4960 
G01 X41.0860 Y19.7174 
G01 X40.7966 Y19.8373 
G01 X40.4833 Y19.8373 
G01 X40.1939 Y19.7174 
G01 X39.9725 Y19.4960 
G01 X39.8526 Y19.2066 
G01 X39.8526 Y18.8933 
G01 X39.9725 Y18.6039 
G01 X40.0812 Y18.4952 
G01 X40.0812 Y13.2547 
G01 X39.9725 Y13.1460 
G01 X39.8526 Y12.8566 
G01 X39.8526 Y12.5433 
G01 X39.9725 Y12.2539 
G01 X40.1939 Y12.0325 
G01 X40.4833 Y11.9126 
G01 X40.7966 Y11.9126 
G01 X41.0860 Y12.0325 
G01 X41.3074 Y12.2539 
G01 X41.4273 Y12.5433 
G01 X41.4273 Y12.8566 
G01 X41.3074 Y13.1460 
G01 X41.1987 Y13.2547 
G01 X41.1987 Y18.4952 
G01 X41.3074 Y18.6039 
G01 X41.4273 Y18.8933 
G00 Z2.0000 
G00 X107.6427 Y80.2462 
G01 Z-2.5000 F200.00 
G01 X107.6427 Y81.0437 
G01 X107.0787 Y81.6077 
G01 X106.2812 Y81.6077 
G01 X105.7172 Y81.0437 
G01 X105.7172 Y80.2462 
G01 X106.2812 Y79.6822 
G01 X107.0787 Y79.6822 
G01 X107.6427 Y80.2462 
G00 Z2.0000 
G00 X84.1477 Y49.9480 
G01 Z-2.5000 F200.00 
G01 X84.1477 Y51.6519 
G01 X84.0011 Y52.0057 
G01 X83.7303 Y52.2765 
G01 X83.3765 Y52.4231 
G01 X82.9934 Y52.4231 
G01 X82.6396 Y52.2765 
G01 X82.3688 Y52.0057 
G01 X82.2222 Y51.6519 
G01 X82.2222 Y49.9480 
G01 X82.3688 Y49.5942 
G01 X82.6396 Y49.3234 
G01 X82.9934 Y49.1768 
G01 X83.3765 Y49.1768 
G01 X83.7303 Y49.3234 
G01 X84.0011 Y49.5942 
G01 X84.1477 Y49.9480 
G00 Z2.0000 
G00 X86.6877 Y49.9480 
G01 Z-2.5000 F200.00 
G01 X86.6877 Y51.6519 
G01 X86.5411 Y52.0057 
G01 X86.2703 Y52.2765 
G01 X85.9165 Y52.4231 
G01 X85.5334 Y52.4231 
G01 X85.1796 Y52.2765 
G01 X84.9088 Y52.0057 
G01 X84.7622 Y51.6519 
G01 X84.7622 Y49.9480 
G01 X84.9088 Y49.5942 
G01 X85.1796 Y49.3234 
G01 X85.5334 Y49.1768 
G01 X85.9165 Y49.1768 
G01 X86.2703 Y49.3234 
G01 X86.5411 Y49.5942 
G01 X86.6877 Y49.9480 
G00 Z2.0000 
G00 X89.2277 Y49.9480 
G01 Z-2.5000 F200.00 
G01 X89.2277 Y51.6519 
G01 X89.0811 Y52.0057 
G01 X88.8103 Y52.2765 
G01 X88.4565 Y52.4231 
G01 X88.0734 Y52.4231 
G01 X87.7196 Y52.2765 
G01 X87.4488 Y52.0057 
G01 X87.3022 Y51.6519 
G01 X87.3022 Y49.9480 
G01 X87.4488 Y49.5942 
G01 X87.7196 Y49.3234 
G01 X88.0734 Y49.1768 
G01 X88.4565 Y49.1768 
G01 X88.8103 Y49.3234 
G01 X89.0811 Y49.5942 
G01 X89.2277 Y49.9480 
G00 Z2.0000 
G00 X91.7677 Y49.9480 
G01 Z-2.5000 F200.00 
G01 X91.7677 Y51.6519 
G01 X91.6211 Y52.0057 
G01 X91.3503 Y52.2765 
G01 X90.9965 Y52.4231 
G01 X90.6134 Y52.4231 
G01 X90.2596 Y52.2765 
G01 X89.9888 Y52.0057 
G01 X89.8422 Y51.6519 
G01 X89.8422 Y49.9480 
G01 X89.9888 Y49.5942 
G01 X90.2596 Y49.3234 
G01 X90.6134 Y49.1768 
G01 X90.9965 Y49.1768 
G01 X91.3503 Y49.3234 
G01 X91.6211 Y49.5942 
G01 X91.7677 Y49.9480 
G00 Z2.0000 
G00 X94.3077 Y49.9480 
G01 Z-2.5000 F200.00 
G01 X94.3077 Y51.6519 
G01 X94.1611 Y52.0057 
G01 X93.8903 Y52.2765 
G01 X93.5365 Y52.4231 
G01 X93.1534 Y52.4231 
G01 X92.7996 Y52.2765 
G01 X92.5288 Y52.0057 
G01 X92.3822 Y51.6519 
G01 X92.3822 Y49.9480 
G01 X92.5288 Y49.5942 
G01 X92.7996 Y49.3234 
G01 X93.1534 Y49.1768 
G01 X93.5365 Y49.1768 
G01 X93.8903 Y49.3234 
G01 X94.1611 Y49.5942 
G01 X94.3077 Y49.9480 
G00 Z2.0000 
G00 X96.8477 Y49.9480 
G01 Z-2.5000 F200.00 
G01 X96.8477 Y51.6519 
G01 X96.7011 Y52.0057 
G01 X96.4303 Y52.2765 
G01 X96.0765 Y52.4231 
G01 X95.6934 Y52.4231 
G01 X95.3396 Y52.2765 
G01 X95.0688 Y52.0057 
G01 X94.9222 Y51.6519 
G01 X94.9222 Y49.9480 
G01 X95.0688 Y49.5942 
G01 X95.3396 Y49.3234 
G01 X95.6934 Y49.1768 
G01 X96.0765 Y49.1768 
G01 X96.4303 Y49.3234 
G01 X96.7011 Y49.5942 
G01 X96.8477 Y49.9480 
G00 Z2.0000 
G00 X99.3877 Y49.9480 
G01 Z-2.5000 F200.00 
G01 X99.3877 Y51.6519 
G01 X99.2411 Y52.0057 
G01 X98.9703 Y52.2765 
G01 X98.6165 Y52.4231 
G01 X98.2334 Y52.4231 
G01 X97.8796 Y52.2765 
G01 X97.6088 Y52.0057 
G01 X97.4622 Y51.6519 
G01 X97.4622 Y49.9480 
G01 X97.6088 Y49.5942 
G01 X97.8796 Y49.3234 
G01 X98.2334 Y49.1768 
G01 X98.6165 Y49.1768 
G01 X98.9703 Y49.3234 
G01 X99.2411 Y49.5942 
G01 X99.3877 Y49.9480 
G00 Z2.0000 
G00 X101.9277 Y49.9480 
G01 Z-2.5000 F200.00 
G01 X101.9277 Y51.6519 
G01 X101.7811 Y52.0057 
G01 X101.5103 Y52.2765 
G01 X101.1565 Y52.4231 
G01 X100.7734 Y52.4231 
G01 X100.4196 Y52.2765 
G01 X100.1488 Y52.0057 
G01 X100.0022 Y51.6519 
G01 X100.0022 Y49.9480 
G01 X100.1488 Y49.5942 
G01 X100.4196 Y49.3234 
G01 X100.7734 Y49.1768 
G01 X101.1565 Y49.1768 
G01 X101.5103 Y49.3234 
G01 X101.7811 Y49.5942 
G01 X101.9277 Y49.9480 
G00 Z2.0000 
G00 X72.0841 Y81.7013 
G01 Z-2.5000 F200.00 
G01 X70.1558 Y81.7013 
G01 X69.7676 Y81.5405 
G01 X69.4704 Y81.2433 
G01 X69.3096 Y80.8551 
G01 X69.3096 Y80.4348 
G01 X69.4704 Y80.0466 
G01 X69.7676 Y79.7494 
G01 X70.1558 Y79.5886 
G01 X72.0841 Y79.5886 
G01 X72.4723 Y79.7494 
G01 X72.7695 Y80.0466 
G01 X72.9303 Y80.4348 
G01 X72.9303 Y80.8551 
G01 X72.7695 Y81.2433 
G01 X72.4723 Y81.5405 
G01 X72.0841 Y81.7013 
G00 Z2.0000 
G00 X61.9241 Y81.7013 
G01 Z-2.5000 F200.00 
G01 X59.9958 Y81.7013 
G01 X59.6076 Y81.5405 
G01 X59.3104 Y81.2433 
G01 X59.1496 Y80.8551 
G01 X59.1496 Y80.4348 
G01 X59.3104 Y80.0466 
G01 X59.6076 Y79.7494 
G01 X59.9958 Y79.5886 
G01 X61.9241 Y79.5886 
G01 X62.3123 Y79.7494 
G01 X62.6095 Y80.0466 
G01 X62.7703 Y80.4348 
G01 X62.7703 Y80.8551 
G01 X62.6095 Y81.2433 
G01 X62.3123 Y81.5405 
G01 X61.9241 Y81.7013 
G00 Z2.0000 
G00 X40.9458 Y89.7486 
G01 Z-2.5000 F200.00 
G01 X42.8741 Y89.7486 
G01 X43.2623 Y89.9094 
G01 X43.5595 Y90.2066 
G01 X43.7203 Y90.5948 
G01 X43.7203 Y91.0151 
G01 X43.5595 Y91.4033 
G01 X43.2623 Y91.7005 
G01 X42.8741 Y91.8613 
G01 X40.9458 Y91.8613 
G01 X40.5576 Y91.7005 
G01 X40.2604 Y91.4033 
G01 X40.0996 Y91.0151 
G01 X40.0996 Y90.5948 
G01 X40.2604 Y90.2066 
G01 X40.5576 Y89.9094 
G01 X40.9458 Y89.7486 
G00 Z2.0000 
G00 X51.1058 Y89.7486 
G01 Z-2.5000 F200.00 
G01 X53.0341 Y89.7486 
G01 X53.4223 Y89.9094 
G01 X53.7195 Y90.2066 
G01 X53.8803 Y90.5948 
G01 X53.8803 Y91.0151 
G01 X53.7195 Y91.4033 
G01 X53.4223 Y91.7005 
G01 X53.0341 Y91.8613 
G01 X51.1058 Y91.8613 
G01 X50.7176 Y91.7005 
G01 X50.4204 Y91.4033 
G01 X50.2596 Y91.0151 
G01 X50.2596 Y90.5948 
G01 X50.4204 Y90.2066 
G01 X50.7176 Y89.9094 
G01 X51.1058 Y89.7486 
G00 Z2.0000 
G00 X40.9458 Y87.2086 
G01 Z-2.5000 F200.00 
G01 X42.8741 Y87.2086 
G01 X43.2623 Y87.3694 
G01 X43.5595 Y87.6666 
G01 X43.7203 Y88.0548 
G01 X43.7203 Y88.4751 
G01 X43.5595 Y88.8633 
G01 X43.2623 Y89.1605 
G01 X42.8741 Y89.3213 
G01 X40.9458 Y89.3213 
G01 X40.5576 Y89.1605 
G01 X40.2604 Y88.8633 
G01 X40.0996 Y88.4751 
G01 X40.0996 Y88.0548 
G01 X40.2604 Y87.6666 
G01 X40.5576 Y87.3694 
G01 X40.9458 Y87.2086 
G00 Z2.0000 
G00 X51.1058 Y87.2086 
G01 Z-2.5000 F200.00 
G01 X53.0341 Y87.2086 
G01 X53.4223 Y87.3694 
G01 X53.7195 Y87.6666 
G01 X53.8803 Y88.0548 
G01 X53.8803 Y88.4751 
G01 X53.7195 Y88.8633 
G01 X53.4223 Y89.1605 
G01 X53.0341 Y89.3213 
G01 X51.1058 Y89.3213 
G01 X50.7176 Y89.1605 
G01 X50.4204 Y88.8633 
G01 X50.2596 Y88.4751 
G01 X50.2596 Y88.0548 
G01 X50.4204 Y87.6666 
G01 X50.7176 Y87.3694 
G01 X51.1058 Y87.2086 
G00 Z2.0000 
G00 X73.3527 Y67.5462 
G01 Z-2.5000 F200.00 
G01 X73.3527 Y68.3437 
G01 X72.7887 Y68.9077 
G01 X71.9912 Y68.9077 
G01 X71.4272 Y68.3437 
G01 X71.4272 Y67.5462 
G01 X71.9912 Y66.9822 
G01 X72.7887 Y66.9822 
G01 X73.3527 Y67.5462 
G00 Z2.0000 
G00 X73.3527 Y77.7062 
G01 Z-2.5000 F200.00 
G01 X73.3527 Y78.5037 
G01 X72.7887 Y79.0677 
G01 X71.9912 Y79.0677 
G01 X71.4272 Y78.5037 
G01 X71.4272 Y77.7062 
G01 X71.9912 Y77.1422 
G01 X72.7887 Y77.1422 
G01 X73.3527 Y77.7062 
G00 Z2.0000 
G00 X63.3973 Y87.2157 
G01 Z-2.5000 F200.00 
G01 X63.3973 Y89.3142 
G01 X63.2257 Y89.7286 
G01 X62.9086 Y90.0457 
G01 X62.4942 Y90.2173 
G01 X62.0457 Y90.2173 
G01 X61.6313 Y90.0457 
G01 X61.3142 Y89.7286 
G01 X61.1426 Y89.3142 
G01 X61.1426 Y87.2157 
G01 X61.3142 Y86.8013 
G01 X61.6313 Y86.4842 
G01 X62.0457 Y86.3126 
G01 X62.4942 Y86.3126 
G01 X62.9086 Y86.4842 
G01 X63.2257 Y86.8013 
G01 X63.3973 Y87.2157 
G00 Z2.0000 
G00 X68.3973 Y87.2157 
G01 Z-2.5000 F200.00 
G01 X68.3973 Y89.3142 
G01 X68.2257 Y89.7286 
G01 X67.9086 Y90.0457 
G01 X67.4942 Y90.2173 
G01 X67.0457 Y90.2173 
G01 X66.6313 Y90.0457 
G01 X66.3142 Y89.7286 
G01 X66.1426 Y89.3142 
G01 X66.1426 Y87.2157 
G01 X66.3142 Y86.8013 
G01 X66.6313 Y86.4842 
G01 X67.0457 Y86.3126 
G01 X67.4942 Y86.3126 
G01 X67.9086 Y86.4842 
G01 X68.2257 Y86.8013 
G01 X68.3973 Y87.2157 
G00 Z2.0000 
G00 X58.7477 Y65.6412 
G01 Z-2.5000 F200.00 
G01 X58.7477 Y66.4387 
G01 X58.1837 Y67.0027 
G01 X57.3862 Y67.0027 
G01 X56.8222 Y66.4387 
G01 X56.8222 Y65.6412 
G01 X57.3862 Y65.0772 
G01 X58.1837 Y65.0772 
G01 X58.7477 Y65.6412 
G00 Z2.0000 
G00 X63.8277 Y65.6412 
G01 Z-2.5000 F200.00 
G01 X63.8277 Y66.4387 
G01 X63.2637 Y67.0027 
G01 X62.4662 Y67.0027 
G01 X61.9022 Y66.4387 
G01 X61.9022 Y65.6412 
G01 X62.4662 Y65.0772 
G01 X63.2637 Y65.0772 
G01 X63.8277 Y65.6412 
G00 Z2.0000 
G00 X69.5441 Y79.1613 
G01 Z-2.5000 F200.00 
G01 X67.6158 Y79.1613 
G01 X67.2276 Y79.0005 
G01 X66.9304 Y78.7033 
G01 X66.7696 Y78.3151 
G01 X66.7696 Y77.8948 
G01 X66.9304 Y77.5066 
G01 X67.2276 Y77.2094 
G01 X67.6158 Y77.0486 
G01 X69.5441 Y77.0486 
G01 X69.9323 Y77.2094 
G01 X70.2295 Y77.5066 
G01 X70.3903 Y77.8948 
G01 X70.3903 Y78.3151 
G01 X70.2295 Y78.7033 
G01 X69.9323 Y79.0005 
G01 X69.5441 Y79.1613 
G00 Z2.0000 
G00 X61.9241 Y79.1613 
G01 Z-2.5000 F200.00 
G01 X59.9958 Y79.1613 
G01 X59.6076 Y79.0005 
G01 X59.3104 Y78.7033 
G01 X59.1496 Y78.3151 
G01 X59.1496 Y77.8948 
G01 X59.3104 Y77.5066 
G01 X59.6076 Y77.2094 
G01 X59.9958 Y77.0486 
G01 X61.9241 Y77.0486 
G01 X62.3123 Y77.2094 
G01 X62.6095 Y77.5066 
G01 X62.7703 Y77.8948 
G01 X62.7703 Y78.3151 
G01 X62.6095 Y78.7033 
G01 X62.3123 Y79.0005 
G01 X61.9241 Y79.1613 
G00 Z2.0000 
G00 X70.8127 Y72.6262 
G01 Z-2.5000 F200.00 
G01 X70.8127 Y73.4237 
G01 X70.2487 Y73.9877 
G01 X69.4512 Y73.9877 
G01 X68.8872 Y73.4237 
G01 X68.8872 Y72.6262 
G01 X69.4512 Y72.0622 
G01 X70.2487 Y72.0622 
G01 X70.8127 Y72.6262 
G00 Z2.0000 
G00 X60.6527 Y72.6262 
G01 Z-2.5000 F200.00 
G01 X60.6527 Y73.4237 
G01 X60.0887 Y73.9877 
G01 X59.2912 Y73.9877 
G01 X58.7272 Y73.4237 
G01 X58.7272 Y72.6262 
G01 X59.2912 Y72.0622 
G01 X60.0887 Y72.0622 
G01 X60.6527 Y72.6262 
G00 Z2.0000 
G00 X58.0542 Y76.5713 
G01 Z-2.5000 F200.00 
G01 X56.2457 Y76.5713 
G01 X55.8759 Y76.4181 
G01 X55.5928 Y76.1350 
G01 X55.4396 Y75.7652 
G01 X55.4396 Y75.3647 
G01 X55.5928 Y74.9949 
G01 X55.8759 Y74.7118 
G01 X56.2457 Y74.5586 
G01 X58.0542 Y74.5586 
G01 X58.4240 Y74.7118 
G01 X58.7071 Y74.9949 
G01 X58.7632 Y75.1303 
G01 X59.2912 Y74.6022 
G01 X60.0887 Y74.6022 
G01 X60.6527 Y75.1662 
G01 X60.6527 Y75.9637 
G01 X60.0887 Y76.5277 
G01 X59.2912 Y76.5277 
G01 X58.7632 Y75.9996 
G01 X58.7071 Y76.1350 
G01 X58.4240 Y76.4181 
G01 X58.0542 Y76.5713 
G00 Z2.0000 
G00 X58.0542 Y81.6513 
G01 Z-2.5000 F200.00 
G01 X56.2457 Y81.6513 
G01 X55.8759 Y81.4981 
G01 X55.5928 Y81.2150 
G01 X55.4396 Y80.8452 
G01 X55.4396 Y80.4447 
G01 X55.5928 Y80.0749 
G01 X55.8759 Y79.7918 
G01 X56.2457 Y79.6386 
G01 X58.0542 Y79.6386 
G01 X58.4240 Y79.7918 
G01 X58.7071 Y80.0749 
G01 X58.8603 Y80.4447 
G01 X58.8603 Y80.8452 
G01 X58.7071 Y81.2150 
G01 X58.4240 Y81.4981 
G01 X58.0542 Y81.6513 
G00 Z2.0000 
G00 X58.0542 Y79.1113 
G01 Z-2.5000 F200.00 
G01 X56.2457 Y79.1113 
G01 X55.8759 Y78.9581 
G01 X55.5928 Y78.6750 
G01 X55.4396 Y78.3052 
G01 X55.4396 Y77.9047 
G01 X55.5928 Y77.5349 
G01 X55.8759 Y77.2518 
G01 X56.2457 Y77.0986 
G01 X58.0542 Y77.0986 
G01 X58.4240 Y77.2518 
G01 X58.7071 Y77.5349 
G01 X58.8603 Y77.9047 
G01 X58.8603 Y78.3052 
G01 X58.7071 Y78.6750 
G01 X58.4240 Y78.9581 
G01 X58.0542 Y79.1113 
G00 Z2.0000 
G00 X56.8863 Y69.4331 
G01 Z-2.5000 F200.00 
G01 X56.8863 Y70.2668 
G01 X56.2968 Y70.8563 
G01 X55.4631 Y70.8563 
G01 X54.8736 Y70.2668 
G01 X54.8736 Y69.4331 
G01 X55.4631 Y68.8436 
G01 X56.2968 Y68.8436 
G01 X56.8863 Y69.4331 
G00 Z2.0000 
G00 X56.8863 Y71.9731 
G01 Z-2.5000 F200.00 
G01 X56.8863 Y72.8068 
G01 X56.2968 Y73.3963 
G01 X55.4631 Y73.3963 
G01 X54.8736 Y72.8068 
G01 X54.8736 Y71.9731 
G01 X55.4631 Y71.3836 
G01 X56.2968 Y71.3836 
G01 X56.8863 Y71.9731 
G00 Z2.0000 
G00 X60.6527 Y68.8162 
G01 Z-2.5000 F200.00 
G01 X60.6527 Y69.6137 
G01 X60.0887 Y70.1777 
G01 X59.2912 Y70.1777 
G01 X58.7272 Y69.6137 
G01 X58.7272 Y68.8162 
G01 X59.2912 Y68.2522 
G01 X60.0887 Y68.2522 
G01 X60.6527 Y68.8162 
G00 Z2.0000 
G00 X70.8127 Y68.8162 
G01 Z-2.5000 F200.00 
G01 X70.8127 Y69.6137 
G01 X70.2487 Y70.1777 
G01 X69.4512 Y70.1777 
G01 X68.8872 Y69.6137 
G01 X68.8872 Y68.8162 
G01 X69.4512 Y68.2522 
G01 X70.2487 Y68.2522 
G01 X70.8127 Y68.8162 
G00 Z2.0000 
G00 X54.3027 Y80.2462 
G01 Z-2.5000 F200.00 
G01 X54.3027 Y81.0437 
G01 X53.7387 Y81.6077 
G01 X52.9412 Y81.6077 
G01 X52.3772 Y81.0437 
G01 X52.3772 Y80.2462 
G01 X52.9412 Y79.6822 
G01 X53.7387 Y79.6822 
G01 X54.3027 Y80.2462 
G00 Z2.0000 
G00 X44.1427 Y80.2462 
G01 Z-2.5000 F200.00 
G01 X44.1427 Y81.0437 
G01 X43.5787 Y81.6077 
G01 X42.7812 Y81.6077 
G01 X42.2172 Y81.0437 
G01 X42.2172 Y80.2462 
G01 X42.7812 Y79.6822 
G01 X43.5787 Y79.6822 
G01 X44.1427 Y80.2462 
G00 Z2.0000 
G00 X58.4690 Y85.8073 
G01 Z-2.5000 F200.00 
G01 X55.8309 Y85.8073 
G01 X55.3339 Y85.6014 
G01 X54.9535 Y85.2210 
G01 X54.7476 Y84.7240 
G01 X54.7476 Y84.1859 
G01 X54.9535 Y83.6889 
G01 X55.3339 Y83.3085 
G01 X55.8309 Y83.1026 
G01 X58.4690 Y83.1026 
G01 X58.9660 Y83.3085 
G01 X59.3464 Y83.6889 
G01 X59.5523 Y84.1859 
G01 X59.5523 Y84.7240 
G01 X59.3464 Y85.2210 
G01 X58.9660 Y85.6014 
G01 X58.4690 Y85.8073 
G00 Z2.0000 
G00 X43.2290 Y85.8073 
G01 Z-2.5000 F200.00 
G01 X40.5909 Y85.8073 
G01 X40.0939 Y85.6014 
G01 X39.7135 Y85.2210 
G01 X39.5076 Y84.7240 
G01 X39.5076 Y84.1859 
G01 X39.7135 Y83.6889 
G01 X40.0939 Y83.3085 
G01 X40.5909 Y83.1026 
G01 X43.2290 Y83.1026 
G01 X43.7260 Y83.3085 
G01 X44.1064 Y83.6889 
G01 X44.3123 Y84.1859 
G01 X44.3123 Y84.7240 
G01 X44.1064 Y85.2210 
G01 X43.7260 Y85.6014 
G01 X43.2290 Y85.8073 
G00 Z2.0000 
G00 X45.4127 Y51.0362 
G01 Z-2.5000 F200.00 
G01 X45.4127 Y51.8337 
G01 X44.8487 Y52.3977 
G01 X44.0512 Y52.3977 
G01 X43.4872 Y51.8337 
G01 X43.4872 Y51.0362 
G01 X44.0512 Y50.4722 
G01 X44.8487 Y50.4722 
G01 X45.4127 Y51.0362 
G00 Z2.0000 
G00 X45.4127 Y61.1962 
G01 Z-2.5000 F200.00 
G01 X45.4127 Y61.9937 
G01 X44.8487 Y62.5577 
G01 X44.0512 Y62.5577 
G01 X43.4872 Y61.9937 
G01 X43.4872 Y61.1962 
G01 X44.0512 Y60.6322 
G01 X44.8487 Y60.6322 
G01 X45.4127 Y61.1962 
G00 Z2.0000 
G00 X42.8727 Y51.0362 
G01 Z-2.5000 F200.00 
G01 X42.8727 Y51.8337 
G01 X42.3087 Y52.3977 
G01 X41.5112 Y52.3977 
G01 X40.9472 Y51.8337 
G01 X40.9472 Y51.0362 
G01 X41.5112 Y50.4722 
G01 X42.3087 Y50.4722 
G01 X42.8727 Y51.0362 
G00 Z2.0000 
G00 X42.8727 Y61.1962 
G01 Z-2.5000 F200.00 
G01 X42.8727 Y61.9937 
G01 X42.3087 Y62.5577 
G01 X41.5112 Y62.5577 
G01 X40.9472 Y61.9937 
G01 X40.9472 Y61.1962 
G01 X41.5112 Y60.6322 
G01 X42.3087 Y60.6322 
G01 X42.8727 Y61.1962 
G00 Z2.0000 
G00 X45.5524 Y43.5956 
G01 Z-2.5000 F200.00 
G01 X45.5524 Y44.0343 
G01 X45.3846 Y44.4395 
G01 X45.0745 Y44.7496 
G01 X44.6693 Y44.9174 
G01 X44.2306 Y44.9174 
G01 X43.8254 Y44.7496 
G01 X43.5153 Y44.4395 
G01 X43.3475 Y44.0343 
G01 X43.3475 Y43.5956 
G01 X43.5153 Y43.1904 
G01 X43.8254 Y42.8803 
G01 X44.2306 Y42.7125 
G01 X44.6693 Y42.7125 
G01 X45.0745 Y42.8803 
G01 X45.3846 Y43.1904 
G01 X45.5524 Y43.5956 
G00 Z2.0000 
G00 X43.0124 Y43.3583 
G01 Z-2.5000 F200.00 
G01 X43.0124 Y44.2716 
G01 X42.3666 Y44.9174 
G01 X41.4533 Y44.9174 
G01 X40.8075 Y44.2716 
G01 X40.8075 Y43.3583 
G01 X41.4533 Y42.7125 
G01 X42.3666 Y42.7125 
G01 X43.0124 Y43.3583 
G00 Z2.0000 
G00 X45.4127 Y48.4962 
G01 Z-2.5000 F200.00 
G01 X45.4127 Y49.2937 
G01 X44.8487 Y49.8577 
G01 X44.0512 Y49.8577 
G01 X43.4872 Y49.2937 
G01 X43.4872 Y48.4962 
G01 X44.0512 Y47.9322 
G01 X44.8487 Y47.9322 
G01 X45.4127 Y48.4962 
G00 Z2.0000 
G00 X35.2527 Y48.4962 
G01 Z-2.5000 F200.00 
G01 X35.2527 Y49.2937 
G01 X34.6887 Y49.8577 
G01 X33.8912 Y49.8577 
G01 X33.3272 Y49.2937 
G01 X33.3272 Y48.4962 
G01 X33.8912 Y47.9322 
G01 X34.6887 Y47.9322 
G01 X35.2527 Y48.4962 
G00 Z2.0000 
G00 X40.3327 Y45.9562 
G01 Z-2.5000 F200.00 
G01 X40.3327 Y46.7537 
G01 X39.7687 Y47.3177 
G01 X38.9712 Y47.3177 
G01 X38.4072 Y46.7537 
G01 X38.4072 Y45.9562 
G01 X38.9712 Y45.3922 
G01 X39.7687 Y45.3922 
G01 X40.3327 Y45.9562 
G00 Z2.0000 
G00 X37.7927 Y45.9562 
G01 Z-2.5000 F200.00 
G01 X37.7927 Y46.7537 
G01 X37.2287 Y47.3177 
G01 X36.4312 Y47.3177 
G01 X35.8672 Y46.7537 
G01 X35.8672 Y45.9562 
G01 X36.4312 Y45.3922 
G01 X37.2287 Y45.3922 
G01 X37.7927 Y45.9562 
G00 Z2.0000 
G00 X32.8063 Y37.7708 
G01 Z-2.5000 F200.00 
G01 X32.8063 Y39.6991 
G01 X32.6455 Y40.0873 
G01 X32.3483 Y40.3845 
G01 X31.9601 Y40.5453 
G01 X31.5398 Y40.5453 
G01 X31.1516 Y40.3845 
G01 X30.8544 Y40.0873 
G01 X30.6936 Y39.6991 
G01 X30.6936 Y37.7708 
G01 X30.8544 Y37.3826 
G01 X31.1516 Y37.0854 
G01 X31.5398 Y36.9246 
G01 X31.9601 Y36.9246 
G01 X32.3483 Y37.0854 
G01 X32.6455 Y37.3826 
G01 X32.8063 Y37.7708 
G00 Z2.0000 
G00 X32.8063 Y47.9308 
G01 Z-2.5000 F200.00 
G01 X32.8063 Y49.8591 
G01 X32.6455 Y50.2473 
G01 X32.3483 Y50.5445 
G01 X31.9601 Y50.7053 
G01 X31.5398 Y50.7053 
G01 X31.1516 Y50.5445 
G01 X30.8544 Y50.2473 
G01 X30.6936 Y49.8591 
G01 X30.6936 Y47.9308 
G01 X30.8544 Y47.5426 
G01 X31.1516 Y47.2454 
G01 X31.5398 Y47.0846 
G01 X31.9601 Y47.0846 
G01 X32.3483 Y47.2454 
G01 X32.6455 Y47.5426 
G01 X32.8063 Y47.9308 
G00 Z2.0000 
G00 X82.9213 Y78.9581 
G01 Z-2.5000 F200.00 
G01 X82.9213 Y79.7918 
G01 X82.3318 Y80.3813 
G01 X81.4981 Y80.3813 
G01 X80.9086 Y79.7918 
G01 X80.9086 Y78.9581 
G01 X81.4981 Y78.3686 
G01 X82.3318 Y78.3686 
G01 X82.9213 Y78.9581 
G00 Z2.0000 
G00 X79.7027 Y92.9462 
G01 Z-2.5000 F200.00 
G01 X79.7027 Y93.7437 
G01 X79.1387 Y94.3077 
G01 X78.3412 Y94.3077 
G01 X77.7772 Y93.7437 
G01 X77.7772 Y92.9462 
G01 X78.3412 Y92.3822 
G01 X79.1387 Y92.3822 
G01 X79.7027 Y92.9462 
G00 Z2.0000 
G00 X79.7027 Y82.7862 
G01 Z-2.5000 F200.00 
G01 X79.7027 Y83.5837 
G01 X79.1387 Y84.1477 
G01 X78.3412 Y84.1477 
G01 X77.7772 Y83.5837 
G01 X77.7772 Y82.7862 
G01 X78.3412 Y82.2222 
G01 X79.1387 Y82.2222 
G01 X79.7027 Y82.7862 
G00 Z2.0000 
G00 X77.1627 Y92.9462 
G01 Z-2.5000 F200.00 
G01 X77.1627 Y93.7437 
G01 X76.5987 Y94.3077 
G01 X75.8012 Y94.3077 
G01 X75.2372 Y93.7437 
G01 X75.2372 Y92.9462 
G01 X75.8012 Y92.3822 
G01 X76.5987 Y92.3822 
G01 X77.1627 Y92.9462 
G00 Z2.0000 
G00 X77.1627 Y87.8662 
G01 Z-2.5000 F200.00 
G01 X77.1627 Y88.6637 
G01 X76.5987 Y89.2277 
G01 X75.8012 Y89.2277 
G01 X75.2372 Y88.6637 
G01 X75.2372 Y87.8662 
G01 X75.8012 Y87.3022 
G01 X76.5987 Y87.3022 
G01 X77.1627 Y87.8662 
G00 Z2.0000 
G00 X73.9891 Y65.1913 
G01 Z-2.5000 F200.00 
G01 X72.0608 Y65.1913 
G01 X71.6726 Y65.0305 
G01 X71.3754 Y64.7333 
G01 X71.2146 Y64.3451 
G01 X71.2146 Y63.9248 
G01 X71.3754 Y63.5366 
G01 X71.6726 Y63.2394 
G01 X72.0608 Y63.0786 
G01 X73.9891 Y63.0786 
G01 X74.3773 Y63.2394 
G01 X74.6745 Y63.5366 
G01 X74.8353 Y63.9248 
G01 X74.8353 Y64.3451 
G01 X74.6745 Y64.7333 
G01 X74.3773 Y65.0305 
G01 X73.9891 Y65.1913 
G00 Z2.0000 
G00 X73.9891 Y60.1113 
G01 Z-2.5000 F200.00 
G01 X72.0608 Y60.1113 
G01 X71.6726 Y59.9505 
G01 X71.3754 Y59.6533 
G01 X71.2146 Y59.2651 
G01 X71.2146 Y58.8448 
G01 X71.3754 Y58.4566 
G01 X71.6726 Y58.1594 
G01 X72.0608 Y57.9986 
G01 X73.9891 Y57.9986 
G01 X74.3773 Y58.1594 
G01 X74.6745 Y58.4566 
G01 X74.8353 Y58.8448 
G01 X74.8353 Y59.2651 
G01 X74.6745 Y59.6533 
G01 X74.3773 Y59.9505 
G01 X73.9891 Y60.1113 
G00 Z2.0000 
G00 X77.7977 Y59.2912 
G01 Z-2.5000 F200.00 
G01 X77.7977 Y60.0887 
G01 X77.2337 Y60.6527 
G01 X76.4362 Y60.6527 
G01 X75.8722 Y60.0887 
G01 X75.8722 Y59.2912 
G01 X76.4362 Y58.7272 
G01 X77.2337 Y58.7272 
G01 X77.7977 Y59.2912 
G00 Z2.0000 
G00 X77.7977 Y56.7512 
G01 Z-2.5000 F200.00 
G01 X77.7977 Y57.5487 
G01 X77.2337 Y58.1127 
G01 X76.4362 Y58.1127 
G01 X75.8722 Y57.5487 
G01 X75.8722 Y56.7512 
G01 X76.4362 Y56.1872 
G01 X77.2337 Y56.1872 
G01 X77.7977 Y56.7512 
G00 Z2.0000 
G00 X77.7977 Y61.8312 
G01 Z-2.5000 F200.00 
G01 X77.7977 Y62.6287 
G01 X77.2337 Y63.1927 
G01 X76.4362 Y63.1927 
G01 X75.8722 Y62.6287 
G01 X75.8722 Y61.8312 
G01 X76.4362 Y61.2672 
G01 X77.2337 Y61.2672 
G01 X77.7977 Y61.8312 
G00 Z2.0000 
G00 X77.7977 Y64.3712 
G01 Z-2.5000 F200.00 
G01 X77.7977 Y65.1687 
G01 X77.2337 Y65.7327 
G01 X76.4362 Y65.7327 
G01 X75.8722 Y65.1687 
G01 X75.8722 Y64.3712 
G01 X76.4362 Y63.8072 
G01 X77.2337 Y63.8072 
G01 X77.7977 Y64.3712 
G00 Z2.0000 
G00 X81.6077 Y58.0212 
G01 Z-2.5000 F200.00 
G01 X81.6077 Y58.8187 
G01 X81.0437 Y59.3827 
G01 X80.2462 Y59.3827 
G01 X79.6822 Y58.8187 
G01 X79.6822 Y58.0212 
G01 X80.2462 Y57.4572 
G01 X81.0437 Y57.4572 
G01 X81.6077 Y58.0212 
G00 Z2.0000 
G00 X81.6077 Y52.9412 
G01 Z-2.5000 F200.00 
G01 X81.6077 Y53.7387 
G01 X81.0437 Y54.3027 
G01 X80.2462 Y54.3027 
G01 X79.6822 Y53.7387 
G01 X79.6822 Y52.9412 
G01 X80.2462 Y52.3772 
G01 X80.3428 Y52.3772 
G01 X80.0996 Y52.2765 
G01 X79.8288 Y52.0057 
G01 X79.6822 Y51.6519 
G01 X79.6822 Y49.9480 
G01 X79.8288 Y49.5942 
G01 X80.0996 Y49.3234 
G01 X80.4534 Y49.1768 
G01 X80.8365 Y49.1768 
G01 X81.1903 Y49.3234 
G01 X81.4611 Y49.5942 
G01 X81.6077 Y49.9480 
G01 X81.6077 Y51.6519 
G01 X81.4611 Y52.0057 
G01 X81.1903 Y52.2765 
G01 X80.9471 Y52.3772 
G01 X81.0437 Y52.3772 
G01 X81.6077 Y52.9412 
G00 Z2.0000 
G00 X77.1627 Y75.1662 
G01 Z-2.5000 F200.00 
G01 X77.1627 Y75.9637 
G01 X76.5987 Y76.5277 
G01 X75.8012 Y76.5277 
G01 X75.2372 Y75.9637 
G01 X75.2372 Y75.1662 
G01 X75.8012 Y74.6022 
G01 X76.5987 Y74.6022 
G01 X77.1627 Y75.1662 
G00 Z2.0000 
G00 X77.1627 Y85.3262 
G01 Z-2.5000 F200.00 
G01 X77.1627 Y86.1237 
G01 X76.5987 Y86.6877 
G01 X75.8012 Y86.6877 
G01 X75.2372 Y86.1237 
G01 X75.2372 Y85.3262 
G01 X75.8012 Y84.7622 
G01 X76.5987 Y84.7622 
G01 X77.1627 Y85.3262 
G00 Z2.0000 
G00 X81.0163 Y77.6881 
G01 Z-2.5000 F200.00 
G01 X81.0163 Y78.5218 
G01 X80.4268 Y79.1113 
G01 X79.5931 Y79.1113 
G01 X79.0036 Y78.5218 
G01 X79.0036 Y77.6881 
G01 X79.5931 Y77.0986 
G01 X80.4268 Y77.0986 
G01 X81.0163 Y77.6881 
G00 Z2.0000 
G00 X81.0163 Y80.2281 
G01 Z-2.5000 F200.00 
G01 X81.0163 Y81.0618 
G01 X80.4268 Y81.6513 
G01 X79.5931 Y81.6513 
G01 X79.0036 Y81.0618 
G01 X79.0036 Y80.2281 
G01 X79.5931 Y79.6386 
G01 X80.4268 Y79.6386 
G01 X81.0163 Y80.2281 
G00 Z2.0000 
G00 X73.3527 Y92.9462 
G01 Z-2.5000 F200.00 
G01 X73.3527 Y93.7437 
G01 X72.7887 Y94.3077 
G01 X71.9912 Y94.3077 
G01 X71.4272 Y93.7437 
G01 X71.4272 Y92.9462 
G01 X71.9912 Y92.3822 
G01 X72.7887 Y92.3822 
G01 X73.3527 Y92.9462 
G00 Z2.0000 
G00 X73.3527 Y82.7862 
G01 Z-2.5000 F200.00 
G01 X73.3527 Y83.5837 
G01 X72.7887 Y84.1477 
G01 X71.9912 Y84.1477 
G01 X71.4272 Y83.5837 
G01 X71.4272 Y82.7862 
G01 X71.9912 Y82.2222 
G01 X72.7887 Y82.2222 
G01 X73.3527 Y82.7862 
G00 Z2.0000 
G00 X84.1477 Y56.1162 
G01 Z-2.5000 F200.00 
G01 X84.1477 Y56.9137 
G01 X83.5837 Y57.4777 
G01 X82.7862 Y57.4777 
G01 X82.2222 Y56.9137 
G01 X82.2222 Y56.1162 
G01 X82.7862 Y55.5522 
G01 X83.5837 Y55.5522 
G01 X84.1477 Y56.1162 
G00 Z2.0000 
G00 X84.1477 Y53.5762 
G01 Z-2.5000 F200.00 
G01 X84.1477 Y54.3737 
G01 X83.5837 Y54.9377 
G01 X82.7862 Y54.9377 
G01 X82.2222 Y54.3737 
G01 X82.2222 Y53.5762 
G01 X82.7862 Y53.0122 
G01 X83.5837 Y53.0122 
G01 X84.1477 Y53.5762 
G00 Z2.0000 
G00 X109.0063 Y47.8224 
G01 Z-2.5000 F200.00 
G01 X109.0063 Y48.6975 
G01 X108.3875 Y49.3163 
G01 X107.5124 Y49.3163 
G01 X106.8936 Y48.6975 
G01 X106.8936 Y47.8224 
G01 X107.5124 Y47.2036 
G01 X108.3875 Y47.2036 
G01 X109.0063 Y47.8224 
G00 Z2.0000 
G00 X111.5463 Y47.8224 
G01 Z-2.5000 F200.00 
G01 X111.5463 Y48.6975 
G01 X110.9275 Y49.3163 
G01 X110.0524 Y49.3163 
G01 X109.4336 Y48.6975 
G01 X109.4336 Y47.8224 
G01 X110.0524 Y47.2036 
G01 X110.9275 Y47.2036 
G01 X111.5463 Y47.8224 
G00 Z2.0000 
G00 X109.0063 Y45.2824 
G01 Z-2.5000 F200.00 
G01 X109.0063 Y46.1575 
G01 X108.3875 Y46.7763 
G01 X107.5124 Y46.7763 
G01 X106.8936 Y46.1575 
G01 X106.8936 Y45.2824 
G01 X107.5124 Y44.6636 
G01 X108.3875 Y44.6636 
G01 X109.0063 Y45.2824 
G00 Z2.0000 
G00 X111.5463 Y45.2824 
G01 Z-2.5000 F200.00 
G01 X111.5463 Y46.1575 
G01 X110.9275 Y46.7763 
G01 X110.0524 Y46.7763 
G01 X109.4336 Y46.1575 
G01 X109.4336 Y45.2824 
G01 X110.0524 Y44.6636 
G01 X110.9275 Y44.6636 
G01 X111.5463 Y45.2824 
G00 Z2.0000 
G00 X109.0063 Y42.7424 
G01 Z-2.5000 F200.00 
G01 X109.0063 Y43.6175 
G01 X108.3875 Y44.2363 
G01 X107.5124 Y44.2363 
G01 X106.8936 Y43.6175 
G01 X106.8936 Y42.7424 
G01 X107.5124 Y42.1236 
G01 X108.3875 Y42.1236 
G01 X109.0063 Y42.7424 
G00 Z2.0000 
G00 X111.5463 Y42.7424 
G01 Z-2.5000 F200.00 
G01 X111.5463 Y43.6175 
G01 X110.9275 Y44.2363 
G01 X110.0524 Y44.2363 
G01 X109.4336 Y43.6175 
G01 X109.4336 Y42.7424 
G01 X110.0524 Y42.1236 
G01 X110.9275 Y42.1236 
G01 X111.5463 Y42.7424 
G00 Z2.0000 
G00 X81.6077 Y31.3512 
G01 Z-2.5000 F200.00 
G01 X81.6077 Y32.1487 
G01 X81.0437 Y32.7127 
G01 X80.2462 Y32.7127 
G01 X79.6822 Y32.1487 
G01 X79.6822 Y31.3512 
G01 X80.2462 Y30.7872 
G01 X81.0437 Y30.7872 
G01 X81.6077 Y31.3512 
G00 Z2.0000 
G00 X81.6077 Y26.2712 
G01 Z-2.5000 F200.00 
G01 X81.6077 Y27.0687 
G01 X81.0437 Y27.6327 
G01 X80.2462 Y27.6327 
G01 X79.6822 Y27.0687 
G01 X79.6822 Y26.2712 
G01 X80.2462 Y25.7072 
G01 X81.0437 Y25.7072 
G01 X81.6077 Y26.2712 
G00 Z2.0000 
G00 X77.7977 Y31.3512 
G01 Z-2.5000 F200.00 
G01 X77.7977 Y32.1487 
G01 X77.2337 Y32.7127 
G01 X76.4362 Y32.7127 
G01 X75.8722 Y32.1487 
G01 X75.8722 Y31.3512 
G01 X76.4362 Y30.7872 
G01 X77.2337 Y30.7872 
G01 X77.7977 Y31.3512 
G00 Z2.0000 
G00 X77.7977 Y26.2712 
G01 Z-2.5000 F200.00 
G01 X77.7977 Y27.0687 
G01 X77.2337 Y27.6327 
G01 X76.4362 Y27.6327 
G01 X75.8722 Y27.0687 
G01 X75.8722 Y26.2712 
G01 X76.4362 Y25.7072 
G01 X77.2337 Y25.7072 
G01 X77.7977 Y26.2712 
G00 Z2.0000 
G00 X30.7436 Y53.6092 
G01 Z-2.5000 F200.00 
G01 X30.7436 Y51.8007 
G01 X30.8968 Y51.4309 
G01 X31.1799 Y51.1478 
G01 X31.5497 Y50.9946 
G01 X31.9502 Y50.9946 
G01 X32.3200 Y51.1478 
