( This gcode generated by /opt/eagle-5.6.0/ulp/pcb-gcode.ulp )
( Copyright 2005 by John Johnson. See readme.txt for licensing terms. )

( This file generated from the board /usr/data1/freebus/freebus-svn/freebus/trunk/hardware/Eagle Layouts/app_avr_glcd/glcd_240x128/glcd_240x128.brd )
( This file generated 05.03.10 21:20 )

( Settings from pcb-machine.h )
( tool size = 0.3000 )
( z high = 5.0000	z up = 2.0000	z down = -2.5000 )
( drill depth = -5.0000 )
( spindle on time = 1.0000 )
( milling depth = 5.0000 )
( tool change at X40.0000, Y-26.0000, Z5.0000 )
( feed rate = 200.0000	feed rate z = 40.0000 )

( Settings from pcb-defaults.h )
( Default isolate = 0.0025 )
( isolate max = 0.5588 )
( isolate step = 0.1500 )
( Generated: top outlines, top drill, bottom outlines, bottom drill,  )
( Unit of measure: mm )


G21

G90
G00 Z5.0000 
G00 X0 Y0
M03
G04 P1.000000
G00 Z2.0000 
G00 X-80.3509 Y20.1157 
G01 Z-2.5000 F200.00 
G01 X-80.5293 Y20.1895 
G01 X-82.0305 Y20.1895 
G01 X-82.2089 Y20.1157 
G01 X-82.3457 Y19.9789 
G01 X-82.4195 Y19.8005 
G01 X-82.4195 Y18.2993 
G01 X-82.3457 Y18.1209 
G01 X-82.2089 Y17.9841 
G01 X-82.0305 Y17.9103 
G01 X-80.5293 Y17.9103 
G01 X-80.3509 Y17.9841 
G01 X-80.2141 Y18.1209 
G01 X-80.1403 Y18.2993 
G01 X-80.1403 Y19.8004 
G01 X-80.2141 Y19.9789 
G01 X-80.3509 Y20.1157 
G00 Z2.0000 
G00 X-80.4736 Y19.7671 
G01 Z-2.5000 F200.00 
G01 X-80.4736 Y18.3328 
G01 X-80.5628 Y18.2436 
G01 X-81.9971 Y18.2436 
G01 X-82.0863 Y18.3328 
G01 X-82.0863 Y19.7671 
G01 X-81.9971 Y19.8563 
G01 X-80.5628 Y19.8563 
G01 X-80.4736 Y19.7671 
G00 Z2.0000 
G00 X-75.0603 Y18.2666 
G01 Z-2.5000 F200.00 
G01 X-75.0603 Y18.3083 
G01 X-75.0718 Y18.3486 
G01 X-75.0603 Y18.3693 
G01 X-75.0603 Y19.8006 
G01 X-75.1341 Y19.9789 
G01 X-75.2709 Y20.1157 
G01 X-75.4493 Y20.1895 
G01 X-76.9504 Y20.1895 
G01 X-77.1289 Y20.1157 
G01 X-77.2657 Y19.9789 
G01 X-77.3395 Y19.8005 
G01 X-77.3395 Y18.2993 
G01 X-77.2657 Y18.1209 
G01 X-77.1289 Y17.9841 
G01 X-76.9505 Y17.9103 
G01 X-76.9384 Y17.9103 
G01 X-76.8981 Y17.9218 
G01 X-76.8775 Y17.9103 
G01 X-76.8538 Y17.9103 
G01 X-76.8243 Y17.8807 
G01 X-76.7878 Y17.8605 
G01 X-76.7813 Y17.8378 
G01 X-76.7646 Y17.8211 
G01 X-76.7646 Y17.7793 
G01 X-74.5570 Y10.0528 
G01 X-74.5448 Y10.0428 
G01 X-74.5403 Y9.9943 
G01 X-74.5267 Y9.9468 
G01 X-74.5345 Y9.9329 
G01 X-74.5314 Y9.8996 
G01 X-74.5207 Y9.8794 
G01 X-74.5050 Y9.8707 
G01 X-74.4921 Y9.8253 
G01 X-74.4700 Y9.7837 
G01 X-74.4753 Y9.7666 
G01 X-74.4689 Y9.7442 
G01 X-74.4480 Y9.7179 
G01 X-74.4327 Y9.7132 
G01 X-74.4098 Y9.6698 
G01 X-74.3793 Y9.6315 
G01 X-74.3811 Y9.6157 
G01 X-74.3654 Y9.5859 
G01 X-74.3475 Y9.5711 
G01 X-74.3297 Y9.5691 
G01 X-74.3004 Y9.5321 
G01 X-74.2641 Y9.5021 
G01 X-74.2624 Y9.4843 
G01 X-74.2482 Y9.4663 
G01 X-74.2187 Y9.4499 
G01 X-74.2029 Y9.4514 
G01 X-74.1654 Y9.4203 
G01 X-74.1223 Y9.3964 
G01 X-74.1179 Y9.3810 
G01 X-71.3982 Y7.1296 
G01 X-71.3899 Y7.1296 
G01 X-71.3503 Y7.0899 
G01 X-71.3073 Y7.0544 
G01 X-71.3066 Y7.0462 
G01 X-71.3007 Y7.0404 
G01 X-71.3007 Y6.9841 
G01 X-71.2955 Y6.9287 
G01 X-71.3007 Y6.9225 
G01 X-71.3007 Y5.7007 
G01 X-71.0760 Y5.1580 
G01 X-70.9245 Y5.0066 
G01 X-70.9244 Y5.0066 
G01 X-70.8375 Y4.9196 
G01 X-70.8352 Y4.9174 
G01 X-70.8352 Y4.7912 
G01 X-70.8352 Y4.7911 
G01 X-70.9231 Y4.7032 
G01 X-70.9244 Y4.7019 
G01 X-71.0506 Y4.7019 
G01 X-75.0972 Y4.7019 
G01 X-75.1864 Y4.7911 
G01 X-75.2709 Y4.8757 
G01 X-75.4493 Y4.9495 
G01 X-76.9505 Y4.9495 
G01 X-77.1289 Y4.8757 
G01 X-77.2657 Y4.7389 
G01 X-77.3395 Y4.5605 
G01 X-77.3395 Y3.0593 
G01 X-77.2657 Y2.8809 
G01 X-77.1289 Y2.7441 
G01 X-76.9505 Y2.6703 
G01 X-75.4493 Y2.6703 
G01 X-75.2709 Y2.7441 
G01 X-75.0972 Y2.9179 
G01 X-74.9709 Y2.9179 
G01 X-68.1788 Y2.9179 
G01 X-68.1488 Y2.9304 
G01 X-68.1181 Y2.9179 
G01 X-68.0850 Y2.9179 
G01 X-68.0840 Y2.9168 
G01 X-68.0066 Y2.9174 
G01 X-68.0061 Y2.9179 
G01 X-67.9442 Y2.9179 
G01 X-67.8810 Y2.9184 
G01 X-67.8805 Y2.9179 
G01 X-67.7980 Y2.9179 
G01 X-67.7963 Y2.9196 
G01 X-67.7641 Y2.9196 
G01 X-67.7347 Y2.9321 
G01 X-67.7324 Y2.9312 
G01 X-67.6565 Y2.9633 
G01 X-67.6562 Y2.9641 
G01 X-67.5938 Y2.9899 
G01 X-67.5410 Y3.0123 
G01 X-67.5403 Y3.0120 
G01 X-67.4672 Y3.0423 
G01 X-67.4660 Y3.0452 
G01 X-67.4374 Y3.0567 
G01 X-67.4160 Y3.0789 
G01 X-67.4127 Y3.0789 
G01 X-67.3509 Y3.1417 
G01 X-67.3509 Y3.1425 
G01 X-67.3065 Y3.1869 
G01 X-67.2629 Y3.2312 
G01 X-67.2622 Y3.2312 
G01 X-67.2108 Y3.2826 
G01 X-67.2108 Y3.2842 
G01 X-67.1875 Y3.3078 
G01 X-67.1750 Y3.3385 
G01 X-67.1450 Y3.3510 
G01 X-65.8340 Y4.6833 
G01 X-65.8212 Y4.7143 
G01 X-65.7914 Y4.7266 
G01 X-65.7689 Y4.7495 
G01 X-65.7354 Y4.7497 
G01 X-65.7045 Y4.7625 
G01 X-65.6749 Y4.7502 
G01 X-65.6426 Y4.7505 
G01 X-65.6187 Y4.7269 
G01 X-65.1143 Y4.5181 
G01 X-64.5271 Y4.5181 
G01 X-63.9845 Y4.7427 
G01 X-63.5691 Y5.1581 
G01 X-63.3445 Y5.7007 
G01 X-63.3445 Y8.2691 
G01 X-63.5691 Y8.8117 
G01 X-63.9845 Y9.2271 
G01 X-64.5271 Y9.4517 
G01 X-65.1143 Y9.4517 
G01 X-65.6569 Y9.2271 
G01 X-66.0723 Y8.8117 
G01 X-66.2969 Y8.2691 
G01 X-66.2969 Y6.8199 
G01 X-66.2964 Y6.7569 
G01 X-66.2969 Y6.7564 
G01 X-66.2969 Y6.7557 
G01 X-66.3397 Y6.7130 
G01 X-68.2301 Y4.7919 
G01 X-68.2301 Y4.7911 
G01 X-68.2749 Y4.7464 
G01 X-68.3181 Y4.7024 
G01 X-68.3189 Y4.7024 
G01 X-68.3193 Y4.7019 
G01 X-68.3811 Y4.7019 
G01 X-68.4444 Y4.7014 
G01 X-68.4449 Y4.7019 
G01 X-68.7246 Y4.7019 
G01 X-68.8138 Y4.7911 
G01 X-68.8138 Y4.9174 
G01 X-68.7246 Y5.0066 
G01 X-68.7245 Y5.0066 
G01 X-68.5729 Y5.1580 
G01 X-68.3483 Y5.7007 
G01 X-68.3483 Y8.2691 
G01 X-68.5729 Y8.8117 
G01 X-68.9883 Y9.2271 
G01 X-69.5309 Y9.4517 
G01 X-70.1180 Y9.4517 
G01 X-70.6608 Y9.2270 
G01 X-70.7720 Y9.1157 
G01 X-70.8076 Y9.0726 
G01 X-70.8158 Y9.0718 
G01 X-70.8216 Y9.0660 
G01 X-70.8779 Y9.0660 
G01 X-70.9333 Y9.0608 
G01 X-70.9395 Y9.0660 
G01 X-70.9478 Y9.0660 
G01 X-70.9875 Y9.1057 
G01 X-72.8309 Y10.6316 
G01 X-72.8738 Y10.6554 
G01 X-72.8781 Y10.6707 
G01 X-72.8904 Y10.6808 
G01 X-72.8950 Y10.7296 
G01 X-75.0436 Y18.2500 
G01 X-75.0603 Y18.2666 
G00 Z2.0000 
G00 X-65.9637 Y8.2029 
G01 Z-2.5000 F200.00 
G01 X-65.7897 Y8.6230 
G01 X-65.4682 Y8.9445 
G01 X-65.0481 Y9.1185 
G01 X-64.5934 Y9.1185 
G01 X-64.1733 Y8.9445 
G01 X-63.8518 Y8.6230 
G01 X-63.6778 Y8.2029 
G01 X-63.6778 Y5.7670 
G01 X-63.8518 Y5.3469 
G01 X-64.1733 Y5.0254 
G01 X-64.5934 Y4.8514 
G01 X-65.0481 Y4.8514 
G01 X-65.4682 Y5.0254 
G01 X-65.7186 Y5.2759 
G01 X-67.3862 Y3.5812 
G01 X-67.3862 Y3.5785 
G01 X-67.5493 Y3.4155 
G01 X-67.7090 Y3.2531 
G01 X-67.7117 Y3.2531 
G01 X-67.7135 Y3.2512 
G01 X-67.9468 Y3.2512 
G01 X-68.1719 Y3.2494 
G01 X-68.1737 Y3.2512 
G01 X-75.3936 Y3.2512 
G01 X-75.3936 Y3.0928 
G01 X-75.4828 Y3.0036 
G01 X-76.9171 Y3.0036 
G01 X-77.0063 Y3.0928 
G01 X-77.0063 Y4.5271 
G01 X-76.9171 Y4.6163 
G01 X-75.4828 Y4.6163 
G01 X-75.3936 Y4.5271 
G01 X-75.3936 Y4.3687 
G01 X-68.1790 Y4.3687 
G01 X-65.9637 Y6.6200 
G01 X-65.9637 Y8.2029 
G00 Z2.0000 
G00 X-70.9675 Y5.7670 
G01 Z-2.5000 F200.00 
G01 X-70.9675 Y7.2058 
G01 X-73.9764 Y9.6966 
G01 X-74.1336 Y9.7839 
G01 X-74.1496 Y9.8400 
G01 X-74.1945 Y9.8771 
G01 X-74.2113 Y10.0561 
G01 X-76.5507 Y18.2436 
G01 X-76.9171 Y18.2436 
G01 X-77.0063 Y18.3328 
G01 X-77.0063 Y19.7671 
G01 X-76.9171 Y19.8563 
G01 X-75.4828 Y19.8563 
G01 X-75.3936 Y19.7671 
G01 X-75.3936 Y18.3328 
G01 X-75.4095 Y18.3170 
G01 X-73.1703 Y10.4798 
G01 X-70.8276 Y8.5406 
G01 X-70.7935 Y8.6230 
G01 X-70.4720 Y8.9445 
G01 X-70.0519 Y9.1185 
G01 X-69.5972 Y9.1185 
G01 X-69.1771 Y8.9445 
G01 X-68.8556 Y8.6230 
G01 X-68.6816 Y8.2029 
G01 X-68.6816 Y5.7670 
G01 X-68.8556 Y5.3469 
G01 X-69.1771 Y5.0254 
G01 X-69.5972 Y4.8514 
G01 X-70.0519 Y4.8514 
G01 X-70.4720 Y5.0254 
G01 X-70.7935 Y5.3469 
G01 X-70.9675 Y5.7670 
G00 Z2.0000 
G00 X-63.0123 Y86.3287 
G01 Z-2.5000 F200.00 
G01 X-62.5306 Y86.1293 
G01 X-62.0092 Y86.1293 
G01 X-61.5275 Y86.3287 
G01 X-61.1587 Y86.6975 
G01 X-60.9593 Y87.1792 
G01 X-60.9593 Y87.2837 
G01 X-60.8701 Y87.3729 
G01 X-60.7438 Y87.3729 
G01 X-53.6849 Y87.3729 
G01 X-53.5957 Y87.2837 
G01 X-53.5260 Y87.2139 
G01 X-53.0705 Y87.0253 
G01 X-51.0693 Y87.0253 
G01 X-50.6138 Y87.2139 
G01 X-50.2649 Y87.5628 
G01 X-50.0763 Y88.0183 
G01 X-50.0763 Y88.5115 
G01 X-50.2649 Y88.9670 
G01 X-50.6138 Y89.3159 
G01 X-50.7748 Y89.3825 
G01 X-50.8613 Y89.4182 
G01 X-50.9089 Y89.5336 
G01 X-50.9095 Y89.5348 
G01 X-50.9082 Y89.5380 
G01 X-50.8613 Y89.6515 
G01 X-50.6138 Y89.7539 
G01 X-50.4549 Y89.9129 
G01 X-50.3286 Y89.9129 
G01 X-49.0372 Y89.9129 
G01 X-49.0009 Y89.9250 
G01 X-48.9768 Y89.9129 
G01 X-48.9495 Y89.9129 
G01 X-48.9223 Y89.8857 
G01 X-48.8881 Y89.8686 
G01 X-48.8796 Y89.8429 
G01 X-48.8603 Y89.8237 
G01 X-48.8603 Y89.7851 
G01 X-46.6312 Y83.0978 
G01 X-46.6119 Y83.0786 
G01 X-46.6119 Y83.0401 
G01 X-46.5998 Y83.0037 
G01 X-46.6056 Y82.9922 
G01 X-46.5800 Y82.9303 
G01 X-46.5742 Y82.9275 
G01 X-46.5558 Y82.8720 
G01 X-46.5340 Y82.8196 
G01 X-46.5364 Y82.8138 
G01 X-46.5152 Y82.7501 
G01 X-46.5032 Y82.7452 
G01 X-46.4887 Y82.7099 
G01 X-46.4634 Y82.6809 
G01 X-46.4644 Y82.6678 
G01 X-46.4175 Y82.6210 
G01 X-46.4111 Y82.6206 
G01 X-46.3729 Y82.5764 
G01 X-46.3326 Y82.5363 
G01 X-46.3326 Y82.5300 
G01 X-46.2883 Y82.4788 
G01 X-46.2752 Y82.4788 
G01 X-46.2480 Y82.4516 
G01 X-46.2138 Y82.4345 
G01 X-46.2053 Y82.4088 
G01 X-44.3259 Y80.5295 
G01 X-44.3259 Y80.4032 
G01 X-44.3259 Y80.1703 
G01 X-43.6545 Y79.4989 
G01 X-42.7053 Y79.4989 
G01 X-42.0339 Y80.1703 
G01 X-42.0339 Y81.1195 
G01 X-42.7053 Y81.7909 
G01 X-43.0645 Y81.7909 
G01 X-43.1537 Y81.8801 
G01 X-44.8974 Y83.6238 
G01 X-44.9316 Y83.6409 
G01 X-44.9401 Y83.6666 
G01 X-44.9594 Y83.6858 
G01 X-44.9594 Y83.7243 
G01 X-47.3486 Y90.8920 
G01 X-47.3679 Y90.9112 
G01 X-47.3679 Y90.9497 
G01 X-47.3800 Y90.9861 
G01 X-47.3742 Y90.9976 
G01 X-47.3998 Y91.0595 
G01 X-47.4056 Y91.0623 
G01 X-47.4240 Y91.1178 
G01 X-47.4458 Y91.1702 
G01 X-47.4434 Y91.1760 
G01 X-47.4646 Y91.2397 
G01 X-47.4766 Y91.2446 
G01 X-47.4911 Y91.2799 
G01 X-47.5164 Y91.3089 
G01 X-47.5155 Y91.3219 
G01 X-47.5623 Y91.3688 
G01 X-47.5685 Y91.3692 
G01 X-47.6058 Y91.4122 
G01 X-47.6471 Y91.4535 
G01 X-47.6471 Y91.4599 
G01 X-47.6915 Y91.5110 
G01 X-47.7046 Y91.5110 
G01 X-47.7318 Y91.5382 
G01 X-47.7660 Y91.5553 
G01 X-47.7700 Y91.5675 
G01 X-47.8318 Y91.5931 
G01 X-47.8376 Y91.5911 
G01 X-47.8882 Y91.6164 
G01 X-47.9426 Y91.6389 
G01 X-47.9450 Y91.6448 
G01 X-48.0048 Y91.6747 
G01 X-48.0169 Y91.6697 
G01 X-48.0520 Y91.6843 
G01 X-48.0905 Y91.6870 
G01 X-48.0990 Y91.6969 
G01 X-48.1663 Y91.6969 
G01 X-48.1710 Y91.6928 
G01 X-48.2285 Y91.6969 
G01 X-48.2863 Y91.6969 
G01 X-48.2907 Y91.7014 
G01 X-48.3571 Y91.7061 
G01 X-48.3662 Y91.6969 
G01 X-48.4047 Y91.6969 
G01 X-48.4409 Y91.6848 
G01 X-48.4651 Y91.6969 
G01 X-50.4549 Y91.6969 
G01 X-50.5441 Y91.7861 
G01 X-50.6138 Y91.8559 
G01 X-51.0693 Y92.0445 
G01 X-53.0653 Y92.0445 
G01 X-53.0980 Y92.0263 
G01 X-53.1074 Y92.0290 
G01 X-53.1162 Y92.0253 
G01 X-53.1631 Y92.0445 
G01 X-53.1640 Y92.0445 
G01 X-53.1645 Y92.0451 
G01 X-53.1663 Y92.0459 
G01 X-60.6067 Y94.1717 
G01 X-60.6159 Y94.1679 
G01 X-60.6657 Y94.1886 
G01 X-60.7184 Y94.2036 
G01 X-60.7232 Y94.2125 
G01 X-60.7776 Y94.2350 
G01 X-60.7947 Y94.2254 
G01 X-60.8351 Y94.2369 
G01 X-60.8767 Y94.2369 
G01 X-60.8905 Y94.2508 
G01 X-60.9497 Y94.2440 
G01 X-60.9567 Y94.2369 
G01 X-61.0112 Y94.2369 
G01 X-61.0652 Y94.2307 
G01 X-61.0730 Y94.2369 
G01 X-71.6614 Y94.2369 
G01 X-71.7506 Y94.3261 
G01 X-71.7506 Y94.3262 
G01 X-71.9153 Y94.4909 
G01 X-72.8645 Y94.4909 
G01 X-73.0292 Y94.3262 
G01 X-73.0292 Y94.3261 
G01 X-73.1135 Y94.2419 
G01 X-73.1184 Y94.2369 
G01 X-73.2447 Y94.2369 
G01 X-75.4714 Y94.2369 
G01 X-75.5606 Y94.3261 
G01 X-75.5606 Y94.3262 
G01 X-75.7253 Y94.4909 
G01 X-76.6745 Y94.4909 
G01 X-77.3459 Y93.8195 
G01 X-77.3459 Y92.8703 
G01 X-76.6745 Y92.1989 
G01 X-75.7253 Y92.1989 
G01 X-75.5606 Y92.3636 
G01 X-75.5606 Y92.3637 
G01 X-75.4763 Y92.4479 
G01 X-75.4714 Y92.4529 
G01 X-75.3451 Y92.4529 
G01 X-73.1184 Y92.4529 
G01 X-73.0292 Y92.3637 
G01 X-73.0292 Y92.3636 
G01 X-72.8645 Y92.1989 
G01 X-71.9153 Y92.1989 
G01 X-71.7506 Y92.3636 
G01 X-71.7506 Y92.3637 
G01 X-71.6663 Y92.4479 
G01 X-71.6614 Y92.4529 
G01 X-71.5351 Y92.4529 
G01 X-61.1457 Y92.4529 
G01 X-61.1251 Y92.4644 
G01 X-61.0848 Y92.4529 
G01 X-61.0431 Y92.4529 
G01 X-61.0265 Y92.4362 
G01 X-54.1328 Y90.4666 
G01 X-54.1236 Y90.4704 
G01 X-54.0737 Y90.4497 
G01 X-54.0211 Y90.4347 
G01 X-54.0163 Y90.4259 
G01 X-54.0070 Y90.4221 
G01 X-53.9863 Y90.3720 
G01 X-53.9598 Y90.3244 
G01 X-53.9626 Y90.3147 
G01 X-53.8749 Y90.1028 
G01 X-53.5260 Y89.7539 
G01 X-53.2785 Y89.6515 
G01 X-53.2303 Y89.5349 
G01 X-53.2785 Y89.4182 
G01 X-53.3698 Y89.3805 
G01 X-53.5260 Y89.3159 
G01 X-53.6849 Y89.1569 
G01 X-53.8112 Y89.1569 
G01 X-60.8701 Y89.1569 
G01 X-60.9593 Y89.2461 
G01 X-60.9593 Y89.3506 
G01 X-61.1587 Y89.8323 
G01 X-61.5275 Y90.2011 
G01 X-62.0092 Y90.4005 
G01 X-62.5306 Y90.4005 
G01 X-63.0123 Y90.2011 
G01 X-63.3811 Y89.8323 
G01 X-63.5805 Y89.3506 
G01 X-63.5805 Y87.1793 
G01 X-63.3811 Y86.6975 
G01 X-63.0123 Y86.3287 
G00 Z2.0000 
G00 X-51.1356 Y87.3586 
G01 Z-2.5000 F200.00 
G01 X-53.0043 Y87.3586 
G01 X-53.3374 Y87.4966 
G01 X-53.5470 Y87.7062 
G01 X-61.2926 Y87.7062 
G01 X-61.2926 Y87.2455 
G01 X-61.4414 Y86.8863 
G01 X-61.7163 Y86.6114 
G01 X-62.0755 Y86.4626 
G01 X-62.4644 Y86.4626 
G01 X-62.8236 Y86.6114 
G01 X-63.0985 Y86.8863 
G01 X-63.2473 Y87.2455 
G01 X-63.2473 Y89.2844 
G01 X-63.0985 Y89.6436 
G01 X-62.8236 Y89.9185 
G01 X-62.4644 Y90.0673 
G01 X-62.0755 Y90.0673 
G01 X-61.7163 Y89.9185 
G01 X-61.4414 Y89.6436 
G01 X-61.2926 Y89.2844 
G01 X-61.2926 Y88.8237 
G01 X-53.5470 Y88.8237 
G01 X-53.3374 Y89.0333 
G01 X-53.0043 Y89.1713 
G01 X-51.1356 Y89.1713 
G01 X-50.8025 Y89.0333 
G01 X-50.5476 Y88.7784 
G01 X-50.4096 Y88.4453 
G01 X-50.4096 Y88.0846 
G01 X-50.5476 Y87.7515 
G01 X-50.8025 Y87.4966 
G01 X-51.1356 Y87.3586 
G00 Z2.0000 
G00 X-72.7266 Y94.1577 
G01 Z-2.5000 F200.00 
G01 X-72.0533 Y94.1577 
G01 X-71.7993 Y93.9037 
G01 X-61.1047 Y93.9037 
G01 X-61.0290 Y93.9458 
G01 X-60.8816 Y93.9037 
G01 X-60.7285 Y93.9037 
G01 X-60.6673 Y93.8424 
G01 X-53.0876 Y91.6767 
G01 X-53.0043 Y91.7113 
G01 X-51.1356 Y91.7113 
G01 X-50.8025 Y91.5733 
G01 X-50.5929 Y91.3637 
G01 X-48.3505 Y91.3637 
G01 X-48.2170 Y91.4082 
G01 X-48.1281 Y91.3637 
G01 X-48.0285 Y91.3637 
G01 X-47.9290 Y91.2641 
G01 X-47.8031 Y91.2012 
G01 X-47.7717 Y91.1068 
G01 X-47.7012 Y91.0364 
G01 X-47.7012 Y90.8955 
G01 X-45.2317 Y83.4868 
G01 X-43.2026 Y81.4577 
G01 X-42.8433 Y81.4577 
G01 X-42.3672 Y80.9816 
G01 X-42.3672 Y80.3083 
G01 X-42.8433 Y79.8322 
G01 X-43.5166 Y79.8322 
G01 X-43.9927 Y80.3083 
G01 X-43.9927 Y80.6676 
G01 X-46.0509 Y82.7258 
G01 X-46.1768 Y82.7887 
G01 X-46.2082 Y82.8831 
G01 X-46.2787 Y82.9535 
G01 X-46.2787 Y83.0944 
G01 X-48.6626 Y90.2462 
G01 X-50.5929 Y90.2462 
G01 X-50.8025 Y90.0366 
G01 X-51.1356 Y89.8986 
G01 X-53.0043 Y89.8986 
G01 X-53.3374 Y90.0366 
G01 X-53.5923 Y90.2915 
G01 X-53.7303 Y90.6246 
G01 X-53.7303 Y90.6982 
G01 X-61.0381 Y92.7862 
G01 X-71.7993 Y92.7862 
G01 X-72.0533 Y92.5322 
G01 X-72.7266 Y92.5322 
G01 X-72.9806 Y92.7862 
G01 X-75.6093 Y92.7862 
G01 X-75.8633 Y92.5322 
G01 X-76.5366 Y92.5322 
G01 X-77.0127 Y93.0083 
G01 X-77.0127 Y93.6816 
G01 X-76.5366 Y94.1577 
G01 X-75.8633 Y94.1577 
G01 X-75.6093 Y93.9037 
G01 X-72.9806 Y93.9037 
G01 X-72.7266 Y94.1577 
G00 Z2.0000 
G00 X-8.8926 Y57.3829 
G01 Z-2.5000 F200.00 
G01 X-8.8137 Y57.4618 
G01 X-8.8137 Y57.7198 
G01 X-8.8925 Y57.7987 
G01 X-8.9795 Y57.7987 
G01 X-8.9795 Y57.4697 
G01 X-9.0664 Y57.3829 
G01 X-8.8926 Y57.3829 
G00 Z2.0000 
G00 X-9.7294 Y57.7198 
G01 Z-2.5000 F200.00 
G01 X-9.7294 Y57.4618 
G01 X-9.6505 Y57.3829 
G01 X-9.4767 Y57.3829 
G01 X-9.5636 Y57.4697 
G01 X-9.5636 Y57.8858 
G01 X-9.7294 Y57.7198 
G00 Z2.0000 
G00 X-9.6426 Y54.5245 
G01 Z-2.5000 F200.00 
G01 X-9.6506 Y54.5245 
G01 X-9.7294 Y54.4456 
G01 X-9.7294 Y54.1087 
G01 X-9.5636 Y54.1087 
G01 X-9.5636 Y54.4456 
G01 X-9.6426 Y54.5245 
G00 Z2.0000 
G00 X-8.8925 Y54.5245 
G01 Z-2.5000 F200.00 
G01 X-8.9005 Y54.5245 
G01 X-8.9795 Y54.4456 
G01 X-8.9795 Y54.1087 
G01 X-8.8137 Y54.1087 
G01 X-8.8137 Y54.4456 
G01 X-8.8925 Y54.5245 
G00 Z2.0000 
G00 X-8.8137 Y62.2942 
G01 Z-2.5000 F200.00 
G01 X-8.8137 Y62.6311 
G01 X-8.8925 Y62.7100 
G01 X-9.6506 Y62.7100 
G01 X-9.7294 Y62.6311 
G01 X-9.7294 Y62.2942 
G01 X-8.8137 Y62.2942 
G00 Z2.0000 
G00 X-10.6467 Y57.2163 
G01 Z-2.5000 F200.00 
G01 X-10.5516 Y56.9865 
G01 X-10.2784 Y56.7134 
G01 X-10.1257 Y56.5606 
G01 X-9.8959 Y56.4655 
G01 X-8.9862 Y56.4655 
G01 X-8.8970 Y56.3763 
G01 X-8.8970 Y56.2500 
G01 X-8.8970 Y55.5310 
G01 X-8.9862 Y55.4418 
G01 X-9.1125 Y55.4418 
G01 X-9.1460 Y55.4418 
G01 X-9.1550 Y55.4381 
G01 X-9.1550 Y55.4380 
G01 X-9.2277 Y55.4080 
G01 X-9.2715 Y55.3898 
G01 X-9.2716 Y55.3898 
G01 X-9.2717 Y55.3898 
G01 X-9.3118 Y55.4065 
G01 X-9.3881 Y55.4380 
G01 X-9.3881 Y55.4381 
G01 X-9.3970 Y55.4418 
G01 X-9.7394 Y55.4418 
G01 X-9.8961 Y55.4418 
G01 X-9.9247 Y55.4300 
G01 X-9.9247 Y55.4298 
G01 X-10.1257 Y55.3467 
G01 X-10.2784 Y55.1939 
G01 X-10.2784 Y55.1937 
G01 X-10.3676 Y55.1045 
G01 X-10.3987 Y55.0734 
G01 X-10.3988 Y55.0734 
G01 X-10.5283 Y54.9439 
G01 X-10.5283 Y54.9437 
G01 X-10.5516 Y54.9205 
G01 X-10.5553 Y54.9114 
G01 X-10.5855 Y54.8380 
G01 X-10.5858 Y54.8379 
G01 X-10.6467 Y54.6910 
G01 X-10.6467 Y54.6579 
G01 X-10.6467 Y54.3485 
G01 X-10.6467 Y53.6922 
G01 X-10.6146 Y53.6145 
G01 X-10.6145 Y53.6145 
G01 X-10.5691 Y53.5045 
G01 X-10.5663 Y53.4980 
G01 X-10.6145 Y53.3813 
G01 X-10.6147 Y53.3813 
G01 X-10.6467 Y53.3039 
G01 X-10.6467 Y52.0551 
G01 X-10.5516 Y51.8253 
G01 X-10.3756 Y51.6493 
G01 X-10.1458 Y51.5542 
G01 X-9.9298 Y51.5542 
G01 X-9.3631 Y51.5542 
G01 X-9.0536 Y51.5542 
G01 X-8.3972 Y51.5542 
G01 X-8.1674 Y51.6493 
G01 X-7.9914 Y51.8253 
G01 X-7.8963 Y52.0551 
G01 X-7.8963 Y52.3039 
G01 X-7.9914 Y52.5337 
G01 X-8.1674 Y52.7097 
G01 X-8.3972 Y52.8048 
G01 X-8.5147 Y52.8048 
G01 X-8.5448 Y52.7923 
G01 X-8.5751 Y52.8048 
G01 X-8.6080 Y52.8048 
G01 X-8.6312 Y52.8280 
G01 X-8.6614 Y52.8405 
G01 X-8.6739 Y52.8708 
G01 X-8.6972 Y52.8940 
G01 X-8.6972 Y52.9270 
G01 X-8.7078 Y52.9525 
G01 X-8.7311 Y52.9758 
G01 X-8.7311 Y53.0088 
G01 X-8.7436 Y53.0389 
G01 X-8.7311 Y53.0692 
G01 X-8.7311 Y53.1021 
G01 X-8.7079 Y53.1253 
G01 X-8.6954 Y53.1555 
G01 X-8.6651 Y53.1680 
G01 X-8.6419 Y53.1913 
G01 X-8.6089 Y53.1913 
G01 X-8.5788 Y53.2038 
G01 X-8.5485 Y53.1913 
G01 X-8.3972 Y53.1913 
G01 X-8.1674 Y53.2864 
G01 X-7.9914 Y53.4624 
G01 X-7.8963 Y53.6922 
G01 X-7.8963 Y54.6910 
G01 X-7.9200 Y54.7482 
G01 X-7.9433 Y54.7715 
G01 X-7.9433 Y54.8045 
G01 X-7.9558 Y54.8346 
G01 X-7.9433 Y54.8649 
G01 X-7.9433 Y54.8978 
G01 X-7.9201 Y54.9210 
G01 X-7.9076 Y54.9512 
G01 X-7.8773 Y54.9637 
G01 X-7.7415 Y55.0995 
G01 X-7.6464 Y55.3293 
G01 X-7.6464 Y56.5780 
G01 X-7.7415 Y56.8079 
G01 X-7.8773 Y56.9435 
G01 X-7.9076 Y56.9560 
G01 X-7.9201 Y56.9863 
G01 X-7.9433 Y57.0094 
G01 X-7.9433 Y57.0423 
G01 X-7.9558 Y57.0726 
G01 X-7.9433 Y57.1027 
G01 X-7.9433 Y57.1356 
G01 X-7.9200 Y57.1588 
G01 X-7.8963 Y57.2162 
G01 X-7.8963 Y57.7490 
G01 X-7.8963 Y57.9652 
G01 X-7.9572 Y58.1121 
G01 X-7.9575 Y58.1122 
G01 X-7.9874 Y58.1849 
G01 X-7.9911 Y58.1939 
G01 X-8.0167 Y58.2186 
G01 X-8.0167 Y58.2201 
G01 X-8.0178 Y58.2211 
G01 X-8.0178 Y58.2587 
G01 X-8.0271 Y58.2814 
G01 X-8.0259 Y58.2842 
G01 X-8.0272 Y58.2874 
G01 X-8.0182 Y58.3091 
G01 X-8.0188 Y58.3449 
G01 X-8.0178 Y58.3459 
G01 X-8.0178 Y58.3474 
G01 X-7.9914 Y58.3737 
G01 X-7.8963 Y58.6035 
G01 X-7.8963 Y59.8522 
G01 X-7.9909 Y60.0808 
G01 X-8.0167 Y60.1057 
G01 X-8.0167 Y60.1086 
G01 X-8.0188 Y60.1107 
G01 X-8.0182 Y60.1467 
G01 X-8.0272 Y60.1683 
G01 X-8.0259 Y60.1713 
G01 X-8.0272 Y60.1744 
G01 X-8.0182 Y60.1961 
G01 X-8.0188 Y60.2320 
G01 X-8.0167 Y60.2341 
G01 X-8.0167 Y60.2370 
G01 X-7.9909 Y60.2619 
G01 X-7.8963 Y60.4905 
G01 X-7.8963 Y61.0232 
G01 X-7.8963 Y61.2393 
G01 X-7.9571 Y61.3862 
G01 X-7.9572 Y61.3862 
G01 X-7.9910 Y61.4680 
G01 X-8.0167 Y61.4928 
G01 X-8.0167 Y61.4943 
G01 X-8.0178 Y61.4953 
G01 X-8.0178 Y61.5327 
G01 X-8.0271 Y61.5552 
G01 X-8.0258 Y61.5583 
G01 X-8.0272 Y61.5616 
G01 X-8.0182 Y61.5833 
G01 X-8.0188 Y61.6191 
G01 X-8.0178 Y61.6201 
G01 X-8.0178 Y61.6216 
G01 X-7.9914 Y61.6479 
G01 X-7.8963 Y61.8777 
G01 X-7.8963 Y62.6603 
G01 X-7.8963 Y62.8764 
G01 X-7.9571 Y63.0233 
G01 X-7.9572 Y63.0233 
G01 X-7.9914 Y63.1062 
G01 X-8.1753 Y63.2900 
G01 X-8.1754 Y63.2900 
G01 X-8.2339 Y63.3486 
G01 X-8.2645 Y63.3790 
G01 X-8.2645 Y63.3791 
G01 X-8.2646 Y63.3792 
G01 X-8.2646 Y63.3794 
G01 X-8.4173 Y63.5322 
G01 X-8.6183 Y63.6153 
G01 X-8.6183 Y63.6155 
G01 X-8.6469 Y63.6273 
G01 X-8.6799 Y63.6273 
G01 X-9.6801 Y63.6273 
G01 X-9.8961 Y63.6273 
G01 X-9.9315 Y63.6126 
G01 X-9.9315 Y63.6125 
G01 X-10.0219 Y63.5751 
G01 X-10.0479 Y63.5643 
G01 X-10.0480 Y63.5644 
G01 X-10.1257 Y63.5322 
G01 X-10.1490 Y63.5088 
G01 X-10.1526 Y63.5052 
G01 X-10.2784 Y63.3794 
G01 X-10.2784 Y63.3792 
G01 X-10.3676 Y63.2900 
G01 X-10.3677 Y63.2900 
G01 X-10.4205 Y63.2371 
G01 X-10.4205 Y63.2370 
G01 X-10.4853 Y63.1724 
G01 X-10.5097 Y63.1479 
G01 X-10.5098 Y63.1479 
G01 X-10.5283 Y63.1294 
G01 X-10.5283 Y63.1293 
G01 X-10.5517 Y63.1060 
G01 X-10.5850 Y63.0253 
G01 X-10.5850 Y63.0252 
G01 X-10.6055 Y62.9759 
G01 X-10.6332 Y62.9088 
G01 X-10.6333 Y62.9088 
G01 X-10.6467 Y62.8765 
G01 X-10.6467 Y62.8434 
G01 X-10.6467 Y62.5340 
G01 X-10.6467 Y62.0937 
G01 X-10.6467 Y61.8777 
G01 X-10.5516 Y61.6479 
G01 X-10.5252 Y61.6216 
G01 X-10.5252 Y61.6201 
G01 X-10.5242 Y61.6191 
G01 X-10.5248 Y61.5833 
G01 X-10.5158 Y61.5616 
G01 X-10.5172 Y61.5583 
G01 X-10.5159 Y61.5554 
G01 X-10.5252 Y61.5329 
G01 X-10.5252 Y61.4953 
G01 X-10.5263 Y61.4943 
G01 X-10.5263 Y61.4928 
G01 X-10.5521 Y61.4679 
G01 X-10.5586 Y61.4521 
G01 X-10.5830 Y61.3930 
G01 X-10.5831 Y61.3930 
G01 X-10.6467 Y61.2393 
G01 X-10.6467 Y60.7065 
G01 X-10.6467 Y60.4905 
G01 X-10.5516 Y60.2607 
G01 X-10.2784 Y59.9876 
G01 X-10.1257 Y59.8348 
G01 X-9.8959 Y59.7397 
G01 X-9.2361 Y59.7397 
G01 X-9.1469 Y59.6505 
G01 X-9.1469 Y59.5242 
G01 X-9.1469 Y59.4424 
G01 X-9.2361 Y59.3532 
G01 X-9.3624 Y59.3532 
G01 X-10.1458 Y59.3532 
G01 X-10.3756 Y59.2581 
G01 X-10.5516 Y59.0821 
G01 X-10.6467 Y58.8523 
G01 X-10.6467 Y58.6035 
G01 X-10.5516 Y58.3737 
G01 X-10.5252 Y58.3474 
G01 X-10.5252 Y58.3459 
G01 X-10.5242 Y58.3449 
G01 X-10.5248 Y58.3091 
G01 X-10.5158 Y58.2874 
G01 X-10.5172 Y58.2841 
G01 X-10.5159 Y58.2812 
G01 X-10.5252 Y58.2587 
G01 X-10.5252 Y58.2211 
G01 X-10.5263 Y58.2201 
G01 X-10.5263 Y58.2186 
G01 X-10.5520 Y58.1938 
G01 X-10.6467 Y57.9651 
G01 X-10.6467 Y57.4323 
G01 X-10.6467 Y57.2163 
G00 Z2.0000 
G00 X-10.1425 Y61.7101 
G01 Z-2.5000 F200.00 
G01 X-10.3135 Y61.8811 
G01 X-10.3135 Y62.1232 
G01 X-10.3135 Y62.6310 
G01 X-10.3135 Y62.8730 
G01 X-10.3135 Y62.8731 
G01 X-10.2100 Y62.9765 
G01 X-10.0636 Y63.1230 
G01 X-10.0636 Y63.1231 
G01 X-9.8956 Y63.2910 
G01 X-9.8926 Y63.2941 
G01 X-9.6506 Y63.2941 
G01 X-8.6505 Y63.2941 
G01 X-8.4795 Y63.1231 
G01 X-8.4795 Y63.1230 
G01 X-8.4007 Y63.0441 
G01 X-8.4006 Y63.0441 
G01 X-8.2296 Y62.8731 
G01 X-8.2296 Y62.8730 
G01 X-8.2296 Y62.6310 
G01 X-8.2296 Y61.8811 
G01 X-8.4006 Y61.7101 
G01 X-8.6427 Y61.7101 
G01 X-10.1425 Y61.7101 
G00 Z2.0000 
G00 X-9.8926 Y61.6570 
G01 Z-2.5000 F200.00 
G01 X-9.6506 Y61.6570 
G01 X-9.4795 Y61.4860 
G01 X-9.4795 Y61.2440 
G01 X-9.7294 Y60.9940 
G01 X-9.7294 Y60.7360 
G01 X-9.6505 Y60.6571 
G01 X-8.8926 Y60.6571 
G01 X-8.8137 Y60.7360 
G01 X-8.8137 Y60.9940 
G01 X-9.0636 Y61.2440 
G01 X-9.0636 Y61.4860 
G01 X-8.8925 Y61.6570 
G01 X-8.6505 Y61.6570 
G01 X-8.4007 Y61.4070 
G01 X-8.4006 Y61.4070 
G01 X-8.2296 Y61.2360 
G01 X-8.2296 Y61.2359 
G01 X-8.2296 Y60.9939 
G01 X-8.2296 Y60.4939 
G01 X-8.4006 Y60.3229 
G01 X-8.6505 Y60.0730 
G01 X-8.8926 Y60.0730 
G01 X-9.8926 Y60.0730 
G01 X-10.0636 Y60.2440 
G01 X-10.3135 Y60.4939 
G01 X-10.3135 Y60.7360 
G01 X-10.3135 Y61.2360 
G01 X-10.1425 Y61.4070 
G01 X-10.1424 Y61.4070 
G01 X-9.8926 Y61.6570 
G00 Z2.0000 
G00 X-9.9004 Y53.5246 
G01 Z-2.5000 F200.00 
G01 X-10.1425 Y53.5246 
G01 X-10.3135 Y53.6956 
G01 X-10.3135 Y54.4455 
G01 X-10.3135 Y54.6875 
G01 X-10.3135 Y54.6876 
G01 X-10.1425 Y54.8586 
G01 X-10.1424 Y54.8586 
G01 X-10.0636 Y54.9375 
G01 X-10.0636 Y54.9376 
G01 X-9.8926 Y55.1086 
G01 X-9.6426 Y55.1086 
G01 X-9.4005 Y55.1086 
G01 X-9.2716 Y54.9796 
G01 X-9.1426 Y55.1086 
G01 X-8.8925 Y55.1086 
G01 X-8.6505 Y55.1086 
G01 X-8.6475 Y55.1055 
G01 X-8.4795 Y54.9376 
G01 X-8.4795 Y54.9375 
G01 X-8.4007 Y54.8586 
G01 X-8.4006 Y54.8586 
G01 X-8.2296 Y54.6876 
G01 X-8.2296 Y53.6956 
G01 X-8.4006 Y53.5246 
G01 X-8.6427 Y53.5246 
G01 X-9.1505 Y53.5246 
G01 X-9.3926 Y53.5246 
G01 X-9.9004 Y53.5246 
G00 Z2.0000 
G00 X-8.4006 Y52.4716 
G01 Z-2.5000 F200.00 
G01 X-8.2296 Y52.3006 
G01 X-8.2296 Y52.0585 
G01 X-8.4006 Y51.8875 
G01 X-9.1505 Y51.8875 
G01 X-9.3926 Y51.8875 
G01 X-9.9004 Y51.8875 
G01 X-10.1425 Y51.8875 
G01 X-10.3135 Y52.0585 
G01 X-10.3135 Y53.3005 
G01 X-10.1425 Y53.4715 
G01 X-9.9004 Y53.4715 
G01 X-9.7294 Y53.3005 
G01 X-9.7294 Y52.4716 
G01 X-9.5636 Y52.4716 
G01 X-9.5636 Y52.8005 
G01 X-9.3926 Y52.9715 
G01 X-9.1505 Y52.9715 
G01 X-8.9795 Y52.8005 
G01 X-8.9795 Y52.4716 
G01 X-8.4006 Y52.4716 
G00 Z2.0000 
G00 X-7.9797 Y56.5747 
G01 Z-2.5000 F200.00 
G01 X-7.9797 Y55.3327 
G01 X-8.1507 Y55.1617 
G01 X-8.3928 Y55.1617 
G01 X-8.5638 Y55.3327 
G01 X-8.5638 Y56.5747 
G01 X-8.3928 Y56.7457 
G01 X-8.1507 Y56.7457 
G01 X-7.9797 Y56.5747 
G00 Z2.0000 
G00 X-9.8926 Y58.3828 
G01 Z-2.5000 F200.00 
G01 X-9.6506 Y58.3828 
G01 X-9.5216 Y58.2538 
G01 X-9.3926 Y58.3828 
G01 X-9.1505 Y58.3828 
G01 X-8.6505 Y58.3828 
G01 X-8.4795 Y58.2118 
G01 X-8.4795 Y58.2117 
G01 X-8.4007 Y58.1328 
G01 X-8.4006 Y58.1328 
G01 X-8.2296 Y57.9618 
G01 X-8.2296 Y57.9617 
G01 X-8.2296 Y57.7197 
G01 X-8.2296 Y57.2197 
G01 X-8.4006 Y57.0487 
G01 X-8.6505 Y56.7988 
G01 X-8.8926 Y56.7988 
G01 X-9.8926 Y56.7988 
G01 X-10.0636 Y56.9698 
G01 X-10.3135 Y57.2197 
G01 X-10.3135 Y57.4618 
G01 X-10.3135 Y57.9618 
G01 X-10.1425 Y58.1328 
G01 X-10.1424 Y58.1328 
G01 X-9.8926 Y58.3828 
G00 Z2.0000 
G00 X-10.1425 Y58.4359 
G01 Z-2.5000 F200.00 
G01 X-10.3135 Y58.6069 
G01 X-10.3135 Y58.8490 
G01 X-10.1425 Y59.0200 
G01 X-8.8137 Y59.0200 
G01 X-8.8137 Y59.8489 
G01 X-8.6427 Y60.0199 
G01 X-8.4006 Y60.0199 
G01 X-8.2296 Y59.8489 
G01 X-8.2296 Y58.6069 
G01 X-8.4006 Y58.4359 
G01 X-8.6427 Y58.4359 
G01 X-10.1425 Y58.4359 
G00 Z2.0000 
G00 X-45.5894 Y43.2170 
G01 Z-2.5000 F200.00 
G01 X-45.5914 Y43.2110 
G01 X-45.5890 Y43.2053 
G01 X-45.6112 Y43.1517 
G01 X-47.1716 Y38.4707 
G01 X-47.1692 Y38.4649 
G01 X-47.1912 Y38.4119 
G01 X-47.2095 Y38.3569 
G01 X-47.2152 Y38.3541 
G01 X-47.2407 Y38.2926 
G01 X-47.2348 Y38.2809 
G01 X-47.2469 Y38.2447 
G01 X-47.2469 Y38.2062 
G01 X-47.2561 Y38.1971 
G01 X-47.2514 Y38.1307 
G01 X-47.2469 Y38.1263 
G01 X-47.2469 Y38.0685 
G01 X-47.2428 Y38.0110 
G01 X-47.2469 Y38.0063 
G01 X-47.2469 Y24.3408 
G01 X-47.2346 Y24.3154 
G01 X-47.2469 Y24.2800 
G01 X-47.2469 Y24.2427 
G01 X-47.2547 Y24.2350 
G01 X-47.2506 Y24.1660 
G01 X-47.2469 Y24.1623 
G01 X-47.2469 Y24.1030 
G01 X-47.2435 Y24.0451 
G01 X-47.2469 Y24.0413 
G01 X-47.2469 Y23.9720 
G01 X-47.2385 Y23.9646 
G01 X-47.2365 Y23.9275 
G01 X-47.2222 Y23.8935 
G01 X-47.2265 Y23.8830 
G01 X-47.1959 Y23.8198 
G01 X-47.1910 Y23.8178 
G01 X-47.1687 Y23.7637 
G01 X-47.1430 Y23.7110 
G01 X-47.1448 Y23.7060 
G01 X-47.1187 Y23.6428 
G01 X-47.1082 Y23.6392 
G01 X-47.0921 Y23.6058 
G01 X-47.0657 Y23.5796 
G01 X-47.0657 Y23.5683 
G01 X-47.0129 Y23.5214 
G01 X-47.0077 Y23.5214 
G01 X-46.9668 Y23.4804 
G01 X-46.9225 Y23.4411 
G01 X-46.9222 Y23.4358 
G01 X-46.8741 Y23.3876 
G01 X-46.8632 Y23.3883 
G01 X-46.8355 Y23.3636 
G01 X-46.8010 Y23.3495 
G01 X-46.7901 Y23.3232 
G01 X-41.8228 Y18.9078 
G01 X-41.7880 Y18.8935 
G01 X-41.7772 Y18.8673 
G01 X-41.7563 Y18.8488 
G01 X-41.7541 Y18.8116 
G01 X-41.5900 Y18.4152 
G01 X-41.2746 Y18.0998 
G01 X-40.8628 Y17.9293 
G01 X-40.4170 Y17.9293 
G01 X-40.0052 Y18.0998 
G01 X-39.6898 Y18.4152 
G01 X-39.5193 Y18.8270 
G01 X-39.5193 Y19.2728 
G01 X-39.6898 Y19.6846 
G01 X-40.0052 Y20.0000 
G01 X-40.4170 Y20.1705 
G01 X-40.4962 Y20.1705 
G01 X-40.5541 Y20.1671 
G01 X-40.5579 Y20.1705 
G01 X-40.5632 Y20.1705 
G01 X-40.6054 Y20.2127 
G01 X-45.3684 Y24.4465 
G01 X-45.3737 Y24.4465 
G01 X-45.4157 Y24.4885 
G01 X-45.4589 Y24.5269 
G01 X-45.4592 Y24.5320 
G01 X-45.4629 Y24.5357 
G01 X-45.4629 Y24.5950 
G01 X-45.4663 Y24.6529 
G01 X-45.4629 Y24.6567 
G01 X-45.4629 Y37.8945 
G01 X-45.4750 Y37.9187 
G01 X-45.4629 Y37.9551 
G01 X-45.4629 Y37.9936 
G01 X-45.4436 Y38.0128 
G01 X-43.9372 Y42.5323 
G01 X-43.9396 Y42.5382 
G01 X-43.9175 Y42.5915 
G01 X-43.8993 Y42.6461 
G01 X-43.8937 Y42.6489 
G01 X-43.8913 Y42.6547 
G01 X-43.8381 Y42.6767 
G01 X-43.7865 Y42.7025 
G01 X-43.7805 Y42.7005 
G01 X-43.7216 Y42.7248 
G01 X-43.3598 Y43.0866 
G01 X-43.1642 Y43.5592 
G01 X-43.1642 Y44.0706 
G01 X-43.3598 Y44.5433 
G01 X-43.4686 Y44.6519 
G01 X-43.4687 Y44.6519 
G01 X-43.5559 Y44.7392 
G01 X-43.5579 Y44.7411 
G01 X-43.5579 Y44.8673 
G01 X-43.5579 Y48.1664 
G01 X-43.4687 Y48.2556 
G01 X-43.4686 Y48.2556 
G01 X-43.3039 Y48.4203 
G01 X-43.3039 Y49.3695 
G01 X-43.4686 Y49.5342 
G01 X-43.4687 Y49.5342 
G01 X-43.5529 Y49.6185 
G01 X-43.5579 Y49.6234 
G01 X-43.5579 Y49.7497 
G01 X-43.5579 Y50.7063 
G01 X-43.4687 Y50.7955 
G01 X-43.3039 Y50.9603 
G01 X-43.3039 Y51.9096 
G01 X-43.9752 Y52.5809 
G01 X-44.9245 Y52.5809 
G01 X-45.5959 Y51.9095 
G01 X-45.5959 Y50.9603 
G01 X-45.3419 Y50.7063 
G01 X-45.3419 Y50.5800 
G01 X-45.3419 Y49.6234 
G01 X-45.4311 Y49.5342 
G01 X-45.4312 Y49.5342 
G01 X-45.5959 Y49.3695 
G01 X-45.5959 Y48.4203 
G01 X-45.4312 Y48.2556 
G01 X-45.4311 Y48.2556 
G01 X-45.3469 Y48.1713 
G01 X-45.3419 Y48.1664 
G01 X-45.3419 Y48.0401 
G01 X-45.3419 Y44.7411 
G01 X-45.4311 Y44.6519 
G01 X-45.4312 Y44.6519 
G01 X-45.5399 Y44.5433 
G01 X-45.7356 Y44.0706 
G01 X-45.7356 Y43.5590 
G01 X-45.6154 Y43.2689 
G01 X-45.5894 Y43.2170 
G00 Z2.0000 
G00 X-45.4024 Y43.6255 
G01 Z-2.5000 F200.00 
G01 X-45.4024 Y44.0044 
G01 X-45.2574 Y44.3545 
G01 X-45.0087 Y44.6032 
G01 X-45.0087 Y48.3043 
G01 X-45.2627 Y48.5583 
G01 X-45.2627 Y49.2316 
G01 X-45.0087 Y49.4856 
G01 X-45.0087 Y50.8443 
G01 X-45.2627 Y51.0983 
G01 X-45.2627 Y51.7716 
G01 X-44.7866 Y52.2477 
G01 X-44.1133 Y52.2477 
G01 X-43.6372 Y51.7716 
G01 X-43.6372 Y51.0983 
G01 X-43.8912 Y50.8443 
G01 X-43.8912 Y49.4856 
G01 X-43.6372 Y49.2316 
G01 X-43.6372 Y48.5583 
G01 X-43.8912 Y48.3043 
G01 X-43.8912 Y44.6032 
G01 X-43.6425 Y44.3545 
G01 X-43.4975 Y44.0044 
G01 X-43.4975 Y43.6255 
G01 X-43.6425 Y43.2754 
G01 X-43.9104 Y43.0075 
G01 X-44.1654 Y42.9019 
G01 X-45.7962 Y38.0094 
G01 X-45.7962 Y24.3808 
G01 X-40.6848 Y19.8373 
G01 X-40.4833 Y19.8373 
G01 X-40.1939 Y19.7174 
G01 X-39.9725 Y19.4960 
G01 X-39.8526 Y19.2066 
G01 X-39.8526 Y18.8933 
G01 X-39.9725 Y18.6039 
G01 X-40.1939 Y18.3825 
G01 X-40.4833 Y18.2626 
G01 X-40.7966 Y18.2626 
G01 X-41.0860 Y18.3825 
G01 X-41.3074 Y18.6039 
G01 X-41.4273 Y18.8933 
G01 X-41.4273 Y19.0023 
G01 X-46.5673 Y23.5712 
G01 X-46.5864 Y23.5712 
G01 X-46.7388 Y23.7237 
G01 X-46.8991 Y23.8661 
G01 X-46.9002 Y23.8851 
G01 X-46.9137 Y23.8985 
G01 X-46.9137 Y24.1141 
G01 X-46.9263 Y24.3282 
G01 X-46.9137 Y24.3423 
G01 X-46.9137 Y37.9681 
G01 X-46.9582 Y38.0570 
G01 X-46.9137 Y38.1905 
G01 X-46.9137 Y38.3314 
G01 X-46.8433 Y38.4018 
G01 X-45.2284 Y43.2464 
G01 X-45.2574 Y43.2754 
G01 X-45.4024 Y43.6255 
G00 Z2.0000 
G00 X-91.5751 Y88.3122 
G01 Z-2.5000 F200.00 
G01 X-91.0116 Y87.7487 
G01 X-90.3215 Y87.3504 
G01 X-89.5522 Y87.1443 
G01 X-88.7556 Y87.1443 
G01 X-87.9863 Y87.3504 
G01 X-87.2962 Y87.7487 
G01 X-86.7326 Y88.3122 
G01 X-86.3344 Y89.0023 
G01 X-86.1283 Y89.7716 
G01 X-86.1283 Y90.5682 
G01 X-86.3344 Y91.3375 
G01 X-86.7326 Y92.0276 
G01 X-87.2962 Y92.5912 
G01 X-87.9863 Y92.9894 
G01 X-88.7556 Y93.1955 
G01 X-89.5522 Y93.1955 
G01 X-90.3215 Y92.9894 
G01 X-91.0116 Y92.5912 
G01 X-91.5752 Y92.0276 
G01 X-91.9734 Y91.3375 
G01 X-92.1795 Y90.5682 
G01 X-92.1795 Y89.7717 
G01 X-91.9734 Y89.0023 
G01 X-91.5751 Y88.3122 
G00 Z2.0000 
G00 X-12.0675 Y54.8918 
G01 Z-2.5000 F200.00 
G01 X-12.0755 Y54.8918 
G01 X-12.1545 Y54.8129 
G01 X-12.1545 Y54.4760 
G01 X-11.9887 Y54.4760 
G01 X-11.9887 Y54.8129 
G01 X-12.0675 Y54.8918 
G00 Z2.0000 
G00 X-12.8176 Y54.8918 
G01 Z-2.5000 F200.00 
G01 X-12.8256 Y54.8918 
G01 X-12.9044 Y54.8129 
G01 X-12.9044 Y54.4760 
G01 X-12.7386 Y54.4760 
G01 X-12.7386 Y54.8129 
G01 X-12.8176 Y54.8918 
G00 Z2.0000 
G00 X-12.9044 Y59.7242 
G01 Z-2.5000 F200.00 
G01 X-12.9044 Y59.4662 
G01 X-12.8255 Y59.3873 
G01 X-12.6517 Y59.3873 
G01 X-12.7386 Y59.4741 
G01 X-12.7386 Y59.8902 
G01 X-12.9044 Y59.7242 
G00 Z2.0000 
G00 X-12.0676 Y59.3873 
G01 Z-2.5000 F200.00 
G01 X-11.9887 Y59.4662 
G01 X-11.9887 Y59.7242 
G01 X-12.0675 Y59.8031 
G01 X-12.1545 Y59.8031 
G01 X-12.1545 Y59.4741 
G01 X-12.2414 Y59.3873 
G01 X-12.0676 Y59.3873 
G00 Z2.0000 
G00 X-8.8925 Y69.6952 
G01 Z-2.5000 F200.00 
G01 X-9.0665 Y69.6952 
G01 X-8.8137 Y69.4424 
G01 X-8.8137 Y69.6163 
G01 X-8.8925 Y69.6952 
G00 Z2.0000 
G00 X-9.7294 Y69.3583 
G01 Z-2.5000 F200.00 
G01 X-9.6505 Y69.2794 
G01 X-9.4766 Y69.2794 
G01 X-9.7294 Y69.5322 
G01 X-9.7294 Y69.3583 
G00 Z2.0000 
G00 X-102.1793 Y91.9601 
G01 Z-2.5000 F200.00 
G01 X-101.9779 Y92.4466 
G01 X-101.9779 Y92.9732 
G01 X-102.1793 Y93.4596 
G01 X-102.5519 Y93.8323 
G01 X-103.0384 Y94.0337 
G01 X-105.2414 Y94.0337 
G01 X-105.7279 Y93.8323 
G01 X-105.9582 Y93.6019 
G01 X-106.0845 Y93.6019 
G01 X-108.9287 Y93.6019 
G01 X-109.0179 Y93.6911 
G01 X-109.3224 Y93.9956 
G01 X-110.3874 Y93.9956 
G01 X-111.1305 Y93.2526 
G01 X-111.1281 Y93.2468 
G01 X-111.1406 Y93.2168 
G01 X-111.1406 Y93.1840 
G01 X-111.1640 Y93.1607 
G01 X-111.1766 Y93.1303 
G01 X-111.2067 Y93.1179 
G01 X-111.2298 Y93.0948 
G01 X-111.2629 Y93.0948 
G01 X-120.7704 Y89.1801 
G01 X-120.7935 Y89.1569 
G01 X-120.8266 Y89.1569 
G01 X-120.8570 Y89.1444 
G01 X-120.8572 Y89.1445 
G01 X-120.9039 Y89.1252 
G01 X-120.9040 Y89.1248 
G01 X-120.9824 Y89.0926 
G01 X-121.0202 Y89.0769 
G01 X-121.0204 Y89.0770 
G01 X-121.1295 Y89.0322 
G01 X-121.1325 Y89.0260 
G01 X-121.1542 Y89.0188 
G01 X-121.1695 Y89.0017 
G01 X-121.1748 Y89.0015 
G01 X-121.2104 Y88.9658 
G01 X-121.2104 Y88.9655 
G01 X-121.2582 Y88.9180 
G01 X-121.2995 Y88.8766 
G01 X-121.2998 Y88.8766 
G01 X-121.3822 Y88.7946 
G01 X-121.3822 Y88.7940 
G01 X-121.4056 Y88.7707 
G01 X-121.4182 Y88.7403 
G01 X-121.4186 Y88.7402 
G01 X-121.4408 Y88.6864 
G01 X-121.4407 Y88.6861 
G01 X-121.4639 Y88.6305 
G01 X-121.4889 Y88.5700 
G01 X-121.4892 Y88.5699 
G01 X-121.5300 Y88.4719 
G01 X-121.5290 Y88.4693 
G01 X-121.5415 Y88.4412 
G01 X-121.5415 Y88.4104 
G01 X-121.5419 Y88.4100 
G01 X-121.5419 Y88.3295 
G01 X-121.5418 Y88.3294 
G01 X-121.5419 Y88.2744 
G01 X-121.5419 Y88.2034 
G01 X-121.5421 Y88.2033 
G01 X-121.5422 Y88.1218 
G01 X-121.5419 Y88.1216 
G01 X-121.5419 Y88.0908 
G01 X-121.5294 Y88.0627 
G01 X-121.5419 Y88.0301 
G01 X-121.5419 Y9.0773 
G01 X-121.5304 Y9.0564 
G01 X-121.5419 Y9.0167 
G01 X-121.5419 Y8.9751 
G01 X-121.5555 Y8.9616 
G01 X-121.5488 Y8.9016 
G01 X-121.5419 Y8.8948 
G01 X-121.5419 Y8.8398 
G01 X-121.5359 Y8.7857 
G01 X-121.5419 Y8.7782 
G01 X-121.5419 Y8.7187 
G01 X-121.5269 Y8.7067 
G01 X-121.5224 Y8.6656 
G01 X-121.5066 Y8.6277 
G01 X-121.5140 Y8.6097 
G01 X-121.4847 Y8.5566 
G01 X-121.4757 Y8.5529 
G01 X-121.4549 Y8.5025 
G01 X-121.4285 Y8.4547 
G01 X-121.4313 Y8.4453 
G01 X-121.4086 Y8.3905 
G01 X-121.3902 Y8.3852 
G01 X-121.3703 Y8.3489 
G01 X-121.3411 Y8.3199 
G01 X-121.3411 Y8.3005 
G01 X-121.2935 Y8.2625 
G01 X-121.2837 Y8.2625 
G01 X-121.2452 Y8.2239 
G01 X-121.2025 Y8.1898 
G01 X-121.2014 Y8.1801 
G01 X-121.1596 Y8.1382 
G01 X-121.1407 Y8.1403 
G01 X-121.1084 Y8.1144 
G01 X-121.0702 Y8.0987 
G01 X-121.0610 Y8.0765 
G01 X-115.5384 Y3.6584 
G01 X-115.5287 Y3.6584 
G01 X-115.4899 Y3.6196 
G01 X-115.4474 Y3.5856 
G01 X-115.4464 Y3.5760 
G01 X-115.4395 Y3.5692 
G01 X-115.4395 Y3.5143 
G01 X-115.4335 Y3.4601 
G01 X-115.4395 Y3.4526 
G01 X-115.4395 Y3.0593 
G01 X-115.3657 Y2.8809 
G01 X-115.2289 Y2.7441 
G01 X-115.0505 Y2.6703 
G01 X-113.5493 Y2.6703 
G01 X-113.3709 Y2.7441 
G01 X-113.2341 Y2.8809 
G01 X-113.1603 Y3.0593 
G01 X-113.1603 Y4.5605 
G01 X-113.2341 Y4.7389 
G01 X-113.3709 Y4.8757 
G01 X-113.5493 Y4.9495 
G01 X-114.2348 Y4.9495 
G01 X-114.2890 Y4.9435 
G01 X-114.2965 Y4.9495 
G01 X-114.3062 Y4.9495 
G01 X-114.3450 Y4.9883 
G01 X-119.6590 Y9.2395 
G01 X-119.6687 Y9.2395 
G01 X-119.7075 Y9.2783 
G01 X-119.7500 Y9.3123 
G01 X-119.7510 Y9.3219 
G01 X-119.7579 Y9.3287 
G01 X-119.7579 Y9.3836 
G01 X-119.7639 Y9.4378 
G01 X-119.7579 Y9.4453 
G01 X-119.7579 Y87.5355 
G01 X-119.7704 Y87.5659 
G01 X-119.7579 Y87.5959 
G01 X-119.7579 Y87.6287 
G01 X-119.7345 Y87.6520 
G01 X-119.7219 Y87.6824 
G01 X-119.6918 Y87.6948 
G01 X-119.6687 Y87.7179 
G01 X-119.6356 Y87.7179 
G01 X-110.5815 Y91.4460 
G01 X-110.5583 Y91.4692 
G01 X-110.5253 Y91.4691 
G01 X-110.4950 Y91.4816 
G01 X-110.4649 Y91.4690 
G01 X-110.4320 Y91.4690 
G01 X-110.4088 Y91.4457 
G01 X-110.3785 Y91.4331 
G01 X-110.3749 Y91.4242 
G01 X-109.3224 Y91.4242 
G01 X-108.9287 Y91.8179 
G01 X-108.8024 Y91.8179 
G01 X-105.9582 Y91.8179 
G01 X-105.8690 Y91.7287 
G01 X-105.7279 Y91.5875 
G01 X-105.2684 Y91.3972 
G01 X-105.2652 Y91.3986 
G01 X-105.2349 Y91.3861 
G01 X-105.2020 Y91.3861 
G01 X-105.1789 Y91.3629 
G01 X-105.1485 Y91.3504 
G01 X-105.1360 Y91.3200 
G01 X-105.1128 Y91.2969 
G01 X-105.1128 Y91.2640 
G01 X-105.1003 Y91.2338 
G01 X-105.1128 Y91.2035 
G01 X-105.1128 Y91.1706 
G01 X-105.1230 Y91.1605 
G01 X-103.1569 Y91.1605 
G01 X-103.1671 Y91.1706 
G01 X-103.1671 Y91.2036 
G01 X-103.1796 Y91.2337 
G01 X-103.1671 Y91.2640 
G01 X-103.1671 Y91.2969 
G01 X-103.1438 Y91.3201 
G01 X-103.1314 Y91.3503 
G01 X-103.1011 Y91.3628 
G01 X-103.0779 Y91.3861 
G01 X-103.0449 Y91.3861 
G01 X-103.0148 Y91.3986 
G01 X-103.0115 Y91.3972 
G01 X-102.5519 Y91.5875 
G01 X-102.1793 Y91.9601 
G00 Z2.0000 
G00 X-103.1047 Y91.7194 
G01 Z-2.5000 F200.00 
G01 X-105.1752 Y91.7194 
G01 X-105.5393 Y91.8702 
G01 X-105.8179 Y92.1488 
G01 X-105.8189 Y92.1512 
G01 X-109.0668 Y92.1512 
G01 X-109.4605 Y91.7575 
G01 X-110.2494 Y91.7575 
G01 X-110.3810 Y91.8891 
G01 X-120.0912 Y87.8908 
G01 X-120.0912 Y9.1584 
G01 X-114.4135 Y4.6163 
G01 X-113.5828 Y4.6163 
G01 X-113.4936 Y4.5271 
G01 X-113.4936 Y3.0928 
G01 X-113.5828 Y3.0036 
G01 X-115.0171 Y3.0036 
G01 X-115.1063 Y3.0928 
G01 X-115.1063 Y3.7395 
G01 X-120.8459 Y8.3312 
G01 X-120.8814 Y8.3312 
G01 X-121.0232 Y8.4730 
G01 X-121.1797 Y8.5982 
G01 X-121.1836 Y8.6335 
G01 X-121.2087 Y8.6585 
G01 X-121.2087 Y8.8593 
G01 X-121.2308 Y9.0583 
G01 X-121.2087 Y9.0859 
G01 X-121.2087 Y88.1545 
G01 X-121.2547 Y88.2663 
G01 X-121.2087 Y88.3767 
G01 X-121.2087 Y88.4964 
G01 X-121.1232 Y88.5819 
G01 X-121.0767 Y88.6935 
G01 X-120.9660 Y88.7390 
G01 X-120.8814 Y88.8237 
G01 X-120.7604 Y88.8237 
G01 X-110.8074 Y92.9220 
G01 X-110.8074 Y93.1044 
G01 X-110.2494 Y93.6624 
G01 X-109.4605 Y93.6624 
G01 X-109.0668 Y93.2687 
G01 X-105.8189 Y93.2687 
G01 X-105.8179 Y93.2711 
G01 X-105.5393 Y93.5497 
G01 X-105.1752 Y93.7005 
G01 X-103.1047 Y93.7005 
G01 X-102.7406 Y93.5497 
G01 X-102.4620 Y93.2711 
G01 X-102.3112 Y92.9070 
G01 X-102.3112 Y92.5129 
G01 X-102.4620 Y92.1488 
G01 X-102.7406 Y91.8702 
G01 X-103.1047 Y91.7194 
G00 Z2.0000 
G00 X-105.4637 Y56.6445 
G01 Z-2.5000 F200.00 
G01 X-105.4543 Y56.6304 
G01 X-105.4637 Y56.5833 
G01 X-105.4637 Y56.5352 
G01 X-105.4757 Y56.5232 
G01 X-105.4772 Y56.5157 
G01 X-105.4756 Y56.5074 
G01 X-105.4637 Y56.4956 
G01 X-105.4637 Y56.4472 
G01 X-105.4544 Y56.4001 
G01 X-105.4637 Y56.3862 
G01 X-105.4637 Y56.3777 
G01 X-105.4608 Y56.3708 
G01 X-105.4466 Y56.3613 
G01 X-105.4373 Y56.3139 
G01 X-105.4190 Y56.2699 
G01 X-105.4255 Y56.2542 
G01 X-105.4240 Y56.2467 
G01 X-105.4195 Y56.2400 
G01 X-105.4039 Y56.2336 
G01 X-105.3856 Y56.1893 
G01 X-105.3588 Y56.1492 
G01 X-105.3622 Y56.1325 
G01 X-105.3590 Y56.1248 
G01 X-105.3535 Y56.1193 
G01 X-105.3368 Y56.1160 
G01 X-105.3102 Y56.0761 
G01 X-105.2762 Y56.0421 
G01 X-105.2762 Y56.0251 
G01 X-102.1449 Y51.3282 
G01 X-102.1109 Y51.2942 
G01 X-102.1109 Y51.2772 
G01 X-102.1015 Y51.2631 
G01 X-102.1109 Y51.2160 
G01 X-102.1109 Y50.1372 
G01 X-102.1035 Y50.0852 
G01 X-102.1109 Y50.0754 
G01 X-102.1109 Y50.0631 
G01 X-102.1479 Y50.0261 
G01 X-102.1793 Y49.9843 
G01 X-102.1915 Y49.9826 
G01 X-102.2001 Y49.9739 
G01 X-102.2523 Y49.9739 
G01 X-102.3043 Y49.9665 
G01 X-102.3141 Y49.9739 
G01 X-102.3264 Y49.9739 
G01 X-102.3633 Y50.0109 
G01 X-102.3683 Y50.0146 
G01 X-102.3807 Y50.0146 
G01 X-102.4177 Y50.0517 
G01 X-102.4594 Y50.0830 
G01 X-102.4611 Y50.0952 
G01 X-102.4749 Y50.1090 
G01 X-102.4911 Y50.1067 
G01 X-102.5262 Y50.1332 
G01 X-102.5666 Y50.1498 
G01 X-102.5728 Y50.1648 
G01 X-102.5921 Y50.1698 
G01 X-102.6036 Y50.1650 
G01 X-102.6514 Y50.1849 
G01 X-102.7022 Y50.1978 
G01 X-102.7085 Y50.2086 
G01 X-102.7266 Y50.2161 
G01 X-102.7405 Y50.2078 
G01 X-102.7831 Y50.2187 
G01 X-102.8270 Y50.2187 
G01 X-102.8384 Y50.2302 
G01 X-102.8579 Y50.2274 
G01 X-102.8665 Y50.2187 
G01 X-102.9187 Y50.2187 
G01 X-102.9706 Y50.2113 
G01 X-102.9804 Y50.2187 
G01 X-109.1157 Y50.2187 
G01 X-109.3569 Y50.2187 
G01 X-109.6099 Y50.1140 
G01 X-109.8040 Y49.9200 
G01 X-109.9087 Y49.6669 
G01 X-109.9087 Y49.5887 
G01 X-109.9979 Y49.4995 
G01 X-110.1242 Y49.4995 
G01 X-111.0033 Y49.4995 
G01 X-111.5541 Y48.9487 
G01 X-111.6804 Y48.9487 
G01 X-112.9257 Y48.9487 
G01 X-113.1669 Y48.9487 
G01 X-113.4200 Y48.8440 
G01 X-113.6140 Y48.6500 
G01 X-113.7187 Y48.3969 
G01 X-113.7187 Y39.4646 
G01 X-113.7134 Y39.4582 
G01 X-113.7187 Y39.4027 
G01 X-113.7187 Y39.3467 
G01 X-113.7246 Y39.3408 
G01 X-113.7271 Y39.3151 
G01 X-113.7187 Y39.3068 
G01 X-113.7187 Y39.2665 
G01 X-113.7069 Y39.2280 
G01 X-113.7124 Y39.2176 
G01 X-113.7025 Y39.1937 
G01 X-113.6951 Y39.1898 
G01 X-113.6788 Y39.1365 
G01 X-113.6574 Y39.0850 
G01 X-113.6606 Y39.0772 
G01 X-113.6531 Y39.0526 
G01 X-113.6419 Y39.0480 
G01 X-113.6267 Y39.0109 
G01 X-113.6012 Y38.9802 
G01 X-113.6023 Y38.9682 
G01 X-113.5839 Y38.9498 
G01 X-113.5756 Y38.9490 
G01 X-113.5407 Y38.9066 
G01 X-113.5005 Y38.8666 
G01 X-113.5005 Y38.8580 
G01 X-101.6004 Y24.4526 
G01 X-101.5770 Y24.4430 
G01 X-101.5617 Y24.4058 
G01 X-101.5361 Y24.3749 
G01 X-101.5373 Y24.3631 
G01 X-101.5191 Y24.3450 
G01 X-101.5107 Y24.3442 
G01 X-101.4755 Y24.3014 
G01 X-101.4357 Y24.2618 
G01 X-101.4357 Y24.2533 
G01 X-101.4191 Y24.2332 
G01 X-101.4073 Y24.2332 
G01 X-101.3789 Y24.2047 
G01 X-101.3433 Y24.1859 
G01 X-101.3399 Y24.1746 
G01 X-101.3157 Y24.1646 
G01 X-101.3076 Y24.1671 
G01 X-101.2582 Y24.1408 
G01 X-101.2068 Y24.1196 
G01 X-101.2036 Y24.1118 
G01 X-101.1811 Y24.0999 
G01 X-101.1702 Y24.1044 
G01 X-101.1332 Y24.0890 
G01 X-101.0930 Y24.0852 
G01 X-101.0855 Y24.0761 
G01 X-101.0596 Y24.0761 
G01 X-101.0532 Y24.0814 
G01 X-100.9977 Y24.0761 
G01 X-100.9417 Y24.0761 
G01 X-100.9358 Y24.0702 
G01 X-100.9101 Y24.0677 
G01 X-100.9018 Y24.0761 
G01 X-100.8615 Y24.0761 
G01 X-100.8230 Y24.0879 
G01 X-100.8008 Y24.0761 
G01 X-87.1408 Y24.0761 
G01 X-87.1228 Y24.0869 
G01 X-87.0797 Y24.0761 
G01 X-87.0354 Y24.0761 
G01 X-87.0235 Y24.0641 
G01 X-87.0048 Y24.0669 
G01 X-86.9957 Y24.0761 
G01 X-86.9436 Y24.0761 
G01 X-86.8925 Y24.0837 
G01 X-86.8823 Y24.0761 
G01 X-86.8634 Y24.0761 
G01 X-86.8535 Y24.0895 
G01 X-86.8097 Y24.0960 
G01 X-86.7687 Y24.1130 
G01 X-86.7532 Y24.1066 
G01 X-86.7370 Y24.1164 
G01 X-86.7321 Y24.1282 
G01 X-86.6846 Y24.1478 
G01 X-86.6399 Y24.1747 
G01 X-86.6273 Y24.1715 
G01 X-86.6099 Y24.1787 
G01 X-86.6058 Y24.1952 
G01 X-86.5680 Y24.2178 
G01 X-86.5368 Y24.2491 
G01 X-86.5197 Y24.2491 
G01 X-86.5084 Y24.2644 
G01 X-86.5084 Y24.2773 
G01 X-86.4717 Y24.3139 
G01 X-86.4409 Y24.3556 
G01 X-86.4282 Y24.3575 
G01 X-86.4148 Y24.3708 
G01 X-86.4173 Y24.3876 
G01 X-86.3908 Y24.4232 
G01 X-86.3740 Y24.4640 
G01 X-86.3585 Y24.4704 
G01 X-86.3539 Y24.4886 
G01 X-86.3589 Y24.5006 
G01 X-86.3391 Y24.5483 
G01 X-86.3266 Y24.5985 
G01 X-86.3155 Y24.6051 
G01 X-86.3082 Y24.6227 
G01 X-86.3169 Y24.6370 
G01 X-86.3061 Y24.6802 
G01 X-86.3061 Y24.7245 
G01 X-86.2913 Y24.7392 
G01 X-85.9825 Y25.9747 
G01 X-85.9825 Y26.0189 
G01 X-85.9677 Y26.0336 
G01 X-85.9627 Y26.0539 
G01 X-85.9246 Y26.0767 
G01 X-85.8933 Y26.1081 
G01 X-85.8724 Y26.1081 
G01 X-85.8545 Y26.1189 
G01 X-85.8536 Y26.1187 
G01 X-85.8401 Y26.1323 
G01 X-85.8230 Y26.1665 
G01 X-85.7974 Y26.1750 
G01 X-85.7782 Y26.1943 
G01 X-85.7396 Y26.1943 
G01 X-85.7032 Y26.2064 
G01 X-85.6790 Y26.1943 
G01 X-85.6519 Y26.1943 
G01 X-85.6247 Y26.1671 
G01 X-81.1934 Y23.9516 
G01 X-81.1397 Y23.9294 
G01 X-81.1373 Y23.9235 
G01 X-81.1318 Y23.9208 
G01 X-81.1139 Y23.8670 
G01 X-80.9600 Y23.4952 
G01 X-80.6446 Y23.1798 
G01 X-80.2328 Y23.0093 
G01 X-79.8634 Y23.0093 
G01 X-79.8357 Y22.9816 
G01 X-78.0351 Y21.1810 
G01 X-78.0228 Y21.1793 
G01 X-77.9915 Y21.1375 
G01 X-77.9546 Y21.1006 
G01 X-77.9546 Y21.0882 
G01 X-77.9428 Y21.0724 
G01 X-77.9263 Y21.0724 
G01 X-77.8954 Y21.0414 
G01 X-77.8578 Y21.0192 
G01 X-77.8537 Y21.0032 
G01 X-77.8357 Y20.9958 
G01 X-77.8236 Y20.9989 
G01 X-77.7785 Y20.9721 
G01 X-77.7305 Y20.9523 
G01 X-77.7258 Y20.9409 
G01 X-77.7087 Y20.9308 
G01 X-77.6937 Y20.9370 
G01 X-77.6532 Y20.9202 
G01 X-77.6097 Y20.9140 
G01 X-77.6001 Y20.9011 
G01 X-77.5805 Y20.9011 
G01 X-77.5707 Y20.9085 
G01 X-77.5189 Y20.9011 
G01 X-77.4666 Y20.9011 
G01 X-77.4579 Y20.8924 
G01 X-73.7260 Y20.3592 
G01 X-73.6913 Y20.3670 
G01 X-73.6657 Y20.3506 
G01 X-73.6358 Y20.3464 
G01 X-73.6147 Y20.3181 
G01 X-73.5848 Y20.2992 
G01 X-73.5783 Y20.2696 
G01 X-73.5601 Y20.2455 
G01 X-73.5651 Y20.2105 
G01 X-72.4692 Y15.2791 
G01 X-72.4504 Y15.2522 
G01 X-72.4561 Y15.2203 
G01 X-72.4490 Y15.1884 
G01 X-72.4498 Y15.1873 
G01 X-72.4408 Y15.1483 
G01 X-72.4400 Y15.1479 
G01 X-72.4269 Y15.0885 
G01 X-72.4124 Y15.0262 
G01 X-72.4129 Y15.0255 
G01 X-72.4042 Y14.9861 
G01 X-72.4019 Y14.9847 
G01 X-72.3953 Y14.9541 
G01 X-72.3769 Y14.9286 
G01 X-72.3773 Y14.9262 
G01 X-72.3549 Y14.8948 
G01 X-72.3541 Y14.8947 
G01 X-72.3187 Y14.8441 
G01 X-72.2820 Y14.7928 
G01 X-72.2821 Y14.7920 
G01 X-72.2582 Y14.7578 
G01 X-72.2566 Y14.7576 
G01 X-72.2374 Y14.7304 
G01 X-72.2093 Y14.7126 
G01 X-72.2090 Y14.7113 
G01 X-72.1732 Y14.6890 
G01 X-72.1723 Y14.6892 
G01 X-72.1127 Y14.6512 
G01 X-72.0668 Y14.6226 
G01 X-72.0667 Y14.6219 
G01 X-72.0345 Y14.6014 
G01 X-72.0318 Y14.6020 
G01 X-72.0057 Y14.5851 
G01 X-71.9749 Y14.5801 
G01 X-71.9734 Y14.5780 
G01 X-71.9290 Y14.5706 
G01 X-71.9284 Y14.5710 
G01 X-71.8721 Y14.5611 
G01 X-71.8053 Y14.5500 
G01 X-71.8048 Y14.5493 
G01 X-71.7703 Y14.5432 
G01 X-71.7693 Y14.5440 
G01 X-71.7378 Y14.5387 
G01 X-71.7067 Y14.5463 
G01 X-71.6780 Y14.5288 
G01 X-61.4919 Y12.8311 
G01 X-61.4417 Y12.8311 
G01 X-61.4317 Y12.8210 
G01 X-61.4175 Y12.8187 
G01 X-61.3881 Y12.7774 
G01 X-60.7995 Y12.1889 
G01 X-60.0067 Y12.1889 
G01 X-59.9547 Y12.1963 
G01 X-59.9449 Y12.1889 
G01 X-59.9325 Y12.1889 
G01 X-59.8955 Y12.1519 
G01 X-58.2865 Y10.9451 
G01 X-58.2742 Y10.9451 
G01 X-58.2374 Y10.9083 
G01 X-58.1954 Y10.8768 
G01 X-58.1937 Y10.8645 
G01 X-58.1799 Y10.8508 
G01 X-58.1637 Y10.8531 
G01 X-58.1285 Y10.8266 
G01 X-58.0882 Y10.8100 
G01 X-58.0820 Y10.7949 
G01 X-58.0628 Y10.7900 
G01 X-58.0514 Y10.7947 
G01 X-58.0034 Y10.7748 
G01 X-57.9525 Y10.7618 
G01 X-57.9462 Y10.7511 
G01 X-57.9282 Y10.7437 
G01 X-57.9143 Y10.7520 
G01 X-57.8717 Y10.7411 
G01 X-57.8278 Y10.7411 
G01 X-57.8164 Y10.7296 
G01 X-57.7969 Y10.7324 
G01 X-57.7883 Y10.7411 
G01 X-57.7361 Y10.7411 
G01 X-57.6842 Y10.7485 
G01 X-57.6744 Y10.7411 
G01 X-50.0279 Y10.7411 
G01 X-49.7748 Y10.8458 
G01 X-49.5149 Y11.1058 
G01 X-48.8128 Y11.8079 
G01 X-48.6865 Y11.8079 
G01 X-41.3326 Y11.8079 
G01 X-41.2746 Y11.7498 
G01 X-40.8628 Y11.5793 
G01 X-40.4170 Y11.5793 
G01 X-40.0052 Y11.7498 
G01 X-39.7284 Y12.0267 
G01 X-39.7284 Y12.0268 
G01 X-39.6454 Y12.1097 
G01 X-39.6392 Y12.1160 
G01 X-39.5129 Y12.1160 
G01 X-39.4237 Y12.0268 
G01 X-39.4237 Y11.9005 
G01 X-39.4237 Y3.7475 
G01 X-39.4911 Y3.6802 
G01 X-39.6269 Y3.3523 
G01 X-39.6269 Y2.9975 
G01 X-39.4912 Y2.6697 
G01 X-39.2401 Y2.4186 
G01 X-38.9123 Y2.2829 
G01 X-33.4775 Y2.2829 
G01 X-33.1497 Y2.4186 
G01 X-32.8327 Y2.7357 
G01 X-30.9741 Y4.5943 
G01 X-30.8478 Y4.5943 
G01 X-29.7528 Y4.5943 
G01 X-29.5847 Y4.7624 
G01 X-29.5676 Y4.7967 
G01 X-29.5419 Y4.8052 
G01 X-29.5227 Y4.8245 
G01 X-29.4842 Y4.8245 
G01 X-29.4478 Y4.8366 
G01 X-29.4236 Y4.8245 
G01 X-29.3964 Y4.8245 
G01 X-29.3692 Y4.7973 
G01 X-26.7639 Y3.4947 
G01 X-26.7367 Y3.4947 
G01 X-26.7095 Y3.4675 
G01 X-26.6753 Y3.4504 
G01 X-26.6668 Y3.4247 
G01 X-26.6475 Y3.4055 
G01 X-26.6475 Y3.3670 
G01 X-26.6354 Y3.3306 
G01 X-26.6475 Y3.3064 
G01 X-26.6475 Y2.7997 
G01 X-26.4577 Y2.3412 
G01 X-26.1066 Y1.9901 
G01 X-25.6481 Y1.8003 
G01 X-25.1517 Y1.8003 
G01 X-24.6932 Y1.9901 
G01 X-24.3421 Y2.3412 
G01 X-24.1523 Y2.7997 
G01 X-24.1523 Y4.8201 
G01 X-24.3421 Y5.2786 
G01 X-24.6932 Y5.6297 
G01 X-25.1517 Y5.8195 
G01 X-25.6481 Y5.8195 
G01 X-26.1066 Y5.6297 
G01 X-26.3242 Y5.4120 
G01 X-26.3413 Y5.3777 
G01 X-26.3670 Y5.3692 
G01 X-26.3862 Y5.3499 
G01 X-26.4248 Y5.3499 
G01 X-26.4611 Y5.3378 
G01 X-26.4853 Y5.3499 
G01 X-26.5125 Y5.3499 
G01 X-26.5397 Y5.3771 
G01 X-28.6079 Y6.4112 
G01 X-28.6351 Y6.4112 
G01 X-28.6623 Y6.4384 
G01 X-28.6965 Y6.4555 
G01 X-28.7050 Y6.4812 
G01 X-28.7243 Y6.5004 
G01 X-28.7243 Y6.5389 
G01 X-28.7364 Y6.5753 
G01 X-28.7243 Y6.5995 
G01 X-28.7243 Y7.0770 
G01 X-29.7528 Y8.1055 
G01 X-30.0890 Y8.1055 
G01 X-30.1203 Y8.0930 
G01 X-30.1494 Y8.1055 
G01 X-30.1814 Y8.1055 
G01 X-30.2053 Y8.1295 
G01 X-30.2363 Y8.1427 
G01 X-30.2481 Y8.1722 
G01 X-30.2706 Y8.1947 
G01 X-30.2706 Y8.2285 
G01 X-31.7443 Y11.9129 
G01 X-31.7669 Y11.9354 
G01 X-31.7669 Y11.9693 
G01 X-31.7794 Y12.0006 
G01 X-31.7669 Y12.0297 
G01 X-31.7669 Y12.0617 
G01 X-31.7429 Y12.0856 
G01 X-31.7297 Y12.1166 
G01 X-31.7002 Y12.1283 
G01 X-31.6777 Y12.1509 
G01 X-31.6438 Y12.1509 
G01 X-31.6125 Y12.1634 
G01 X-31.5834 Y12.1509 
G01 X-31.5514 Y12.1509 
G01 X-31.5275 Y12.1269 
G01 X-31.4965 Y12.1137 
G01 X-31.4847 Y12.0841 
G01 X-30.9545 Y11.5539 
G01 X-30.0052 Y11.5539 
G01 X-29.3339 Y12.2253 
G01 X-29.3339 Y13.1745 
G01 X-29.4986 Y13.3392 
G01 X-29.4987 Y13.3392 
G01 X-29.5829 Y13.4234 
G01 X-29.5879 Y13.4284 
G01 X-29.5879 Y13.5547 
G01 X-29.5879 Y16.6772 
G01 X-29.4987 Y16.7664 
G01 X-29.4141 Y16.8509 
G01 X-29.3265 Y17.0627 
G01 X-29.2099 Y17.1109 
G01 X-29.2098 Y17.1109 
G01 X-29.2097 Y17.1109 
G01 X-29.1766 Y17.0971 
G01 X-29.0932 Y17.0627 
G01 X-29.0450 Y16.9460 
G01 X-29.0057 Y16.8509 
G01 X-28.8319 Y16.6772 
G01 X-28.8319 Y16.5509 
G01 X-28.8319 Y15.9684 
G01 X-28.9211 Y15.8792 
G01 X-28.9212 Y15.8792 
G01 X-29.0859 Y15.7145 
G01 X-29.0859 Y14.7653 
G01 X-28.4145 Y14.0939 
G01 X-27.7031 Y14.0939 
G01 X-27.6667 Y14.1060 
G01 X-27.6425 Y14.0939 
G01 X-27.6153 Y14.0939 
G01 X-27.5881 Y14.0667 
G01 X-26.7640 Y13.6547 
G01 X-26.7367 Y13.6547 
G01 X-26.7095 Y13.6275 
G01 X-26.6753 Y13.6104 
G01 X-26.6668 Y13.5847 
G01 X-26.6475 Y13.5655 
G01 X-26.6475 Y13.5270 
G01 X-26.6354 Y13.4906 
G01 X-26.6475 Y13.4664 
G01 X-26.6475 Y12.9597 
G01 X-26.4577 Y12.5012 
G01 X-26.1066 Y12.1501 
G01 X-25.6481 Y11.9603 
G01 X-25.1517 Y11.9603 
G01 X-24.6932 Y12.1501 
G01 X-24.3421 Y12.5012 
G01 X-24.1523 Y12.9597 
G01 X-24.1523 Y14.9801 
G01 X-24.3421 Y15.4386 
G01 X-24.6932 Y15.7897 
G01 X-25.1517 Y15.9795 
G01 X-25.6481 Y15.9795 
G01 X-26.1066 Y15.7897 
G01 X-26.3243 Y15.5720 
G01 X-26.3414 Y15.5376 
G01 X-26.3672 Y15.5291 
G01 X-26.3863 Y15.5099 
G01 X-26.4248 Y15.5099 
G01 X-26.4612 Y15.4978 
G01 X-26.4854 Y15.5099 
G01 X-26.5126 Y15.5099 
G01 X-26.5398 Y15.5371 
G01 X-26.6776 Y15.6060 
G01 X-26.7047 Y15.6060 
G01 X-26.7318 Y15.6331 
G01 X-26.7662 Y15.6503 
G01 X-26.7747 Y15.6761 
G01 X-26.7939 Y15.6952 
G01 X-26.7939 Y15.7145 
G01 X-26.9586 Y15.8792 
G01 X-26.9587 Y15.8792 
G01 X-27.0429 Y15.9635 
G01 X-27.0479 Y15.9684 
G01 X-27.0479 Y16.0947 
G01 X-27.0479 Y16.6772 
G01 X-26.9587 Y16.7664 
G01 X-26.8741 Y16.8509 
G01 X-26.7865 Y17.0627 
G01 X-26.6699 Y17.1109 
G01 X-26.6698 Y17.1108 
G01 X-26.6697 Y17.1109 
G01 X-26.6366 Y17.0971 
G01 X-26.5532 Y17.0627 
G01 X-26.5050 Y16.9460 
G01 X-26.5051 Y16.9460 
G01 X-26.4657 Y16.8509 
G01 X-26.3289 Y16.7141 
G01 X-26.1506 Y16.6403 
G01 X-24.6493 Y16.6403 
G01 X-24.4709 Y16.7141 
G01 X-24.3341 Y16.8509 
G01 X-24.2603 Y17.0293 
G01 X-24.2603 Y18.5305 
G01 X-24.3341 Y18.7089 
G01 X-24.5079 Y18.8826 
G01 X-24.5079 Y19.0089 
G01 X-24.5079 Y24.2973 
G01 X-24.4187 Y24.3865 
G01 X-24.4186 Y24.3865 
G01 X-24.3342 Y24.4708 
G01 X-24.2603 Y24.6493 
G01 X-24.2603 Y26.1505 
G01 X-24.3342 Y26.3290 
G01 X-24.4186 Y26.4133 
G01 X-24.4187 Y26.4133 
G01 X-24.5061 Y26.5008 
G01 X-24.5079 Y26.5025 
G01 X-24.5079 Y26.6287 
G01 X-24.5079 Y27.2113 
G01 X-24.4187 Y27.3005 
G01 X-24.2539 Y27.4653 
G01 X-24.2539 Y28.4145 
G01 X-24.9253 Y29.0859 
G01 X-25.8745 Y29.0859 
G01 X-26.5459 Y28.4145 
G01 X-26.5459 Y27.4653 
G01 X-26.2919 Y27.2113 
G01 X-26.2919 Y27.0850 
G01 X-26.2919 Y26.5025 
G01 X-26.3811 Y26.4133 
G01 X-26.5025 Y26.2919 
G01 X-26.6288 Y26.2919 
G01 X-26.8373 Y26.2919 
G01 X-26.9265 Y26.3811 
G01 X-26.9265 Y26.3812 
G01 X-27.0108 Y26.4657 
G01 X-27.1893 Y26.5395 
G01 X-28.6905 Y26.5395 
G01 X-28.8689 Y26.4657 
G01 X-29.0057 Y26.3289 
G01 X-29.0933 Y26.1170 
G01 X-29.2100 Y26.0688 
G01 X-29.2100 Y26.0689 
G01 X-29.2101 Y26.0688 
G01 X-29.2432 Y26.0826 
G01 X-29.3266 Y26.1170 
G01 X-29.3748 Y26.2337 
G01 X-29.3747 Y26.2337 
G01 X-29.4141 Y26.3290 
G01 X-29.4986 Y26.4133 
G01 X-29.4987 Y26.4133 
G01 X-29.5861 Y26.5008 
G01 X-29.5879 Y26.5025 
G01 X-29.5879 Y26.6287 
G01 X-29.5879 Y27.2113 
G01 X-29.4987 Y27.3005 
G01 X-29.3339 Y27.4653 
G01 X-29.3339 Y27.8246 
G01 X-29.2447 Y27.9138 
G01 X-29.2446 Y27.9138 
G01 X-25.3098 Y31.8486 
G01 X-25.2971 Y31.8791 
G01 X-25.2670 Y31.8914 
G01 X-25.2440 Y31.9145 
G01 X-25.2109 Y31.9145 
G01 X-25.1803 Y31.9270 
G01 X-25.1503 Y31.9145 
G01 X-25.1177 Y31.9145 
G01 X-25.1026 Y31.8993 
G01 X-24.4158 Y31.8993 
G01 X-23.7705 Y32.1665 
G01 X-23.2765 Y32.6605 
G01 X-23.0093 Y33.3058 
G01 X-23.0093 Y34.0040 
G01 X-23.2765 Y34.6493 
G01 X-23.7705 Y35.1433 
G01 X-24.4158 Y35.4105 
G01 X-25.1026 Y35.4105 
G01 X-25.1177 Y35.3954 
G01 X-25.1506 Y35.3954 
G01 X-25.1807 Y35.3829 
G01 X-25.2110 Y35.3954 
G01 X-25.2440 Y35.3954 
G01 X-25.2672 Y35.4187 
G01 X-25.2974 Y35.4311 
G01 X-25.3099 Y35.4614 
G01 X-27.0039 Y37.1553 
G01 X-27.0489 Y37.2000 
G01 X-27.0489 Y37.2002 
G01 X-27.0491 Y37.2004 
G01 X-27.0491 Y37.2734 
G01 X-27.1388 Y69.9942 
G01 X-27.1507 Y70.0166 
G01 X-27.1390 Y70.0547 
G01 X-27.1391 Y70.0949 
G01 X-27.1210 Y70.1130 
G01 X-27.1136 Y70.1373 
G01 X-27.0782 Y70.1560 
G01 X-27.0501 Y70.1843 
G01 X-27.0246 Y70.1844 
G01 X-24.4396 Y71.5528 
G01 X-24.4365 Y71.5605 
G01 X-24.3848 Y71.5819 
G01 X-24.3355 Y71.6080 
G01 X-24.3276 Y71.6055 
G01 X-24.2694 Y71.6296 
G01 X-24.2645 Y71.6457 
G01 X-24.2292 Y71.6643 
G01 X-24.2009 Y71.6927 
G01 X-24.1840 Y71.6927 
G01 X-24.1438 Y71.7414 
G01 X-24.1438 Y71.7498 
G01 X-24.1042 Y71.7892 
G01 X-24.0687 Y71.8323 
G01 X-24.0603 Y71.8331 
G01 X-24.0162 Y71.8771 
G01 X-24.0178 Y71.8940 
G01 X-23.9921 Y71.9248 
G01 X-23.9770 Y71.9616 
G01 X-23.9614 Y71.9680 
G01 X-23.9429 Y72.0283 
G01 X-23.9461 Y72.0360 
G01 X-23.9249 Y72.0869 
G01 X-23.9084 Y72.1409 
G01 X-23.9009 Y72.1448 
G01 X-23.8769 Y72.2027 
G01 X-23.8847 Y72.2173 
G01 X-23.8729 Y72.2557 
G01 X-23.8729 Y72.2960 
G01 X-23.8612 Y72.3077 
G01 X-23.8671 Y72.3700 
G01 X-23.8729 Y72.3758 
G01 X-23.8729 Y72.4314 
G01 X-23.8782 Y72.4875 
G01 X-23.8729 Y72.4939 
G01 X-23.8729 Y93.8353 
G01 X-23.8729 Y94.1573 
G01 X-24.0086 Y94.4851 
G01 X-24.2597 Y94.7362 
G01 X-24.5875 Y94.8719 
G01 X-35.8487 Y94.8719 
G01 X-35.9379 Y94.9611 
G01 X-35.9379 Y95.0874 
G01 X-35.9379 Y96.3753 
G01 X-35.9379 Y96.6973 
G01 X-36.0736 Y97.0251 
G01 X-36.3246 Y97.2761 
G01 X-36.6525 Y97.4119 
G01 X-93.2379 Y97.4119 
G01 X-93.2447 Y97.4063 
G01 X-93.3000 Y97.4119 
G01 X-93.3553 Y97.4119 
G01 X-93.3615 Y97.4181 
G01 X-93.4225 Y97.4243 
G01 X-93.4349 Y97.4119 
G01 X-93.4758 Y97.4119 
G01 X-93.5148 Y97.4002 
G01 X-93.5303 Y97.4086 
G01 X-93.5872 Y97.3850 
G01 X-93.5914 Y97.3771 
G01 X-93.6446 Y97.3612 
G01 X-93.6954 Y97.3401 
G01 X-93.7037 Y97.3435 
G01 X-93.7629 Y97.3258 
G01 X-93.7698 Y97.3091 
G01 X-93.8074 Y97.2937 
G01 X-93.8386 Y97.2681 
G01 X-93.8564 Y97.2699 
G01 X-93.8995 Y97.2267 
G01 X-93.9004 Y97.2178 
G01 X-93.9429 Y97.1832 
G01 X-93.9823 Y97.1437 
G01 X-93.9914 Y97.1437 
G01 X-94.0396 Y97.1044 
G01 X-94.0396 Y97.0864 
G01 X-94.0683 Y97.0578 
G01 X-94.0875 Y97.0220 
G01 X-94.1045 Y97.0169 
G01 X-94.1279 Y96.9605 
G01 X-94.1253 Y96.9520 
G01 X-94.1515 Y96.9034 
G01 X-94.1727 Y96.8521 
G01 X-94.1810 Y96.8487 
G01 X-98.2901 Y89.2176 
G01 X-98.2884 Y89.2011 
G01 X-98.3191 Y89.1637 
G01 X-98.3420 Y89.1210 
G01 X-98.3578 Y89.1163 
G01 X-98.3683 Y89.1034 
G01 X-98.4168 Y89.0986 
G01 X-98.4630 Y89.0847 
G01 X-98.4774 Y89.0925 
G01 X-102.3652 Y88.7038 
G01 X-102.3714 Y88.6975 
G01 X-102.4270 Y88.6976 
G01 X-102.4819 Y88.6921 
G01 X-102.4887 Y88.6977 
G01 X-102.4976 Y88.6977 
G01 X-102.5366 Y88.7369 
G01 X-102.5590 Y88.7552 
G01 X-103.0115 Y88.9426 
G01 X-103.0148 Y88.9412 
G01 X-103.0449 Y88.9537 
G01 X-103.0779 Y88.9537 
G01 X-103.1011 Y88.9770 
G01 X-103.1314 Y88.9895 
G01 X-103.1439 Y89.0197 
G01 X-103.1671 Y89.0429 
G01 X-103.1671 Y89.0758 
G01 X-103.1796 Y89.1061 
G01 X-103.1671 Y89.1362 
G01 X-103.1671 Y89.1692 
G01 X-103.1568 Y89.1794 
G01 X-105.1231 Y89.1794 
G01 X-105.1128 Y89.1692 
G01 X-105.1128 Y89.1363 
G01 X-105.1003 Y89.1061 
G01 X-105.1128 Y89.0758 
G01 X-105.1128 Y89.0429 
G01 X-105.1360 Y89.0198 
G01 X-105.1485 Y88.9894 
G01 X-105.1789 Y88.9769 
G01 X-105.2020 Y88.9537 
G01 X-105.2349 Y88.9537 
G01 X-105.2652 Y88.9412 
G01 X-105.2684 Y88.9425 
G01 X-105.7279 Y88.7523 
G01 X-106.1005 Y88.3797 
G01 X-106.3019 Y87.8932 
G01 X-106.3019 Y87.3882 
G01 X-106.2925 Y87.3741 
G01 X-106.3019 Y87.3270 
G01 X-106.3019 Y87.2789 
G01 X-106.3139 Y87.2670 
G01 X-106.3172 Y87.2503 
G01 X-106.3571 Y87.2237 
G01 X-106.3911 Y87.1897 
G01 X-106.4081 Y87.1897 
G01 X-108.1689 Y86.0159 
G01 X-108.2029 Y85.9819 
G01 X-108.2199 Y85.9819 
G01 X-108.2340 Y85.9725 
G01 X-108.2811 Y85.9819 
G01 X-108.9287 Y85.9819 
G01 X-109.0179 Y86.0711 
G01 X-109.3224 Y86.3756 
G01 X-110.3874 Y86.3756 
G01 X-111.1406 Y85.6224 
G01 X-111.1406 Y84.5574 
G01 X-110.3874 Y83.8042 
G01 X-109.3224 Y83.8042 
G01 X-108.9287 Y84.1979 
G01 X-108.8024 Y84.1979 
G01 X-108.0996 Y84.1979 
G01 X-108.0855 Y84.2073 
G01 X-108.0384 Y84.1979 
G01 X-107.9903 Y84.1979 
G01 X-107.9783 Y84.1859 
G01 X-107.9508 Y84.1804 
G01 X-107.9225 Y84.1860 
G01 X-107.9106 Y84.1979 
G01 X-107.8622 Y84.1979 
G01 X-107.8151 Y84.2072 
G01 X-107.8012 Y84.1979 
G01 X-107.7724 Y84.1979 
G01 X-107.7467 Y84.2085 
G01 X-107.7372 Y84.2228 
G01 X-107.6900 Y84.2321 
G01 X-107.6459 Y84.2504 
G01 X-107.6301 Y84.2439 
G01 X-107.6027 Y84.2493 
G01 X-107.5789 Y84.2652 
G01 X-107.5724 Y84.2810 
G01 X-107.5277 Y84.2994 
G01 X-107.4880 Y84.3260 
G01 X-107.4714 Y84.3227 
G01 X-107.4446 Y84.3337 
G01 X-107.4250 Y84.3534 
G01 X-107.4217 Y84.3701 
G01 X-107.3819 Y84.3966 
G01 X-107.3479 Y84.4307 
G01 X-107.3307 Y84.4307 
G01 X-104.5685 Y86.2721 
G01 X-104.5346 Y86.3061 
G01 X-104.5176 Y86.3061 
G01 X-104.5035 Y86.3155 
G01 X-104.4564 Y86.3061 
G01 X-103.0384 Y86.3061 
G01 X-102.5519 Y86.5075 
G01 X-102.1681 Y86.8913 
G01 X-102.1331 Y86.9342 
G01 X-102.1244 Y86.9350 
G01 X-102.1183 Y86.9412 
G01 X-102.0630 Y86.9412 
G01 X-97.8516 Y87.3623 
G01 X-97.8382 Y87.3733 
G01 X-97.7907 Y87.3684 
G01 X-97.7432 Y87.3732 
G01 X-97.7299 Y87.3622 
G01 X-97.7036 Y87.3595 
G01 X-97.6743 Y87.3683 
G01 X-97.6638 Y87.3812 
G01 X-97.6157 Y87.3859 
G01 X-97.5693 Y87.3999 
G01 X-97.5547 Y87.3920 
G01 X-97.5245 Y87.3950 
G01 X-97.5015 Y87.4074 
G01 X-97.4933 Y87.4227 
G01 X-97.4476 Y87.4363 
G01 X-97.4057 Y87.4589 
G01 X-97.3890 Y87.4538 
G01 X-97.3637 Y87.4614 
G01 X-97.3400 Y87.4807 
G01 X-97.3353 Y87.4965 
G01 X-97.2929 Y87.5192 
G01 X-97.2552 Y87.5500 
G01 X-97.2386 Y87.5483 
G01 X-97.2119 Y87.5626 
G01 X-97.1951 Y87.5831 
G01 X-97.1934 Y87.6004 
G01 X-97.1564 Y87.6305 
G01 X-97.1263 Y87.6674 
G01 X-97.1090 Y87.6691 
G01 X-97.0886 Y87.6857 
G01 X-97.0742 Y87.7125 
G01 X-97.0759 Y87.7291 
G01 X-97.0453 Y87.7663 
G01 X-97.0224 Y87.8091 
G01 X-97.0064 Y87.8139 
G01 X-96.9871 Y87.8374 
G01 X-96.9795 Y87.8626 
G01 X-96.9845 Y87.8792 
G01 X-96.9619 Y87.9212 
G01 X-96.9481 Y87.9669 
G01 X-96.9329 Y87.9750 
G01 X-92.8735 Y95.5139 
G01 X-92.8735 Y95.5387 
G01 X-92.8446 Y95.5675 
G01 X-92.8254 Y95.6033 
G01 X-92.8018 Y95.6104 
G01 X-92.7843 Y95.6279 
G01 X-92.7434 Y95.6279 
G01 X-92.7044 Y95.6396 
G01 X-92.6827 Y95.6279 
G01 X-37.8111 Y95.6279 
G01 X-37.7219 Y95.5387 
G01 X-37.7219 Y95.4124 
G01 X-37.7219 Y94.1245 
G01 X-37.7219 Y93.7090 
G01 X-37.7219 Y88.4095 
G01 X-37.7219 Y88.0875 
G01 X-37.5862 Y87.7597 
G01 X-37.3351 Y87.5086 
G01 X-37.0073 Y87.3729 
G01 X-34.8080 Y87.3729 
G01 X-34.7777 Y87.3854 
G01 X-34.7476 Y87.3729 
G01 X-34.7147 Y87.3729 
G01 X-34.6915 Y87.3496 
G01 X-34.6612 Y87.3371 
G01 X-34.6488 Y87.3069 
G01 X-34.6255 Y87.2837 
G01 X-34.6255 Y87.2507 
G01 X-34.6130 Y87.2204 
G01 X-34.6255 Y87.1903 
G01 X-34.6255 Y87.1574 
G01 X-34.6488 Y87.1342 
G01 X-34.6613 Y87.1039 
G01 X-34.6915 Y87.0915 
G01 X-34.7147 Y87.0682 
G01 X-34.7477 Y87.0682 
G01 X-34.8467 Y87.0273 
G01 X-35.2062 Y86.6677 
G01 X-35.3325 Y86.6677 
G01 X-37.9553 Y86.6677 
G01 X-38.2773 Y86.6677 
G01 X-38.6051 Y86.5320 
G01 X-38.6150 Y86.5220 
G01 X-38.6321 Y86.4878 
G01 X-38.6578 Y86.4793 
G01 X-38.6770 Y86.4600 
G01 X-38.7155 Y86.4600 
G01 X-40.3029 Y85.9309 
G01 X-40.3567 Y85.9086 
G01 X-40.3624 Y85.9110 
G01 X-40.3684 Y85.9090 
G01 X-40.4200 Y85.9349 
G01 X-40.5545 Y85.9905 
G01 X-40.9287 Y85.9905 
G01 X-41.0179 Y86.0797 
G01 X-41.0179 Y86.2060 
G01 X-41.0179 Y86.8483 
G01 X-41.0304 Y86.8786 
G01 X-41.0179 Y86.9088 
G01 X-41.0179 Y86.9417 
G01 X-40.9947 Y86.9648 
G01 X-40.9822 Y86.9952 
G01 X-40.9518 Y87.0077 
G01 X-40.9287 Y87.0309 
G01 X-40.8959 Y87.0309 
G01 X-40.4538 Y87.2139 
G01 X-40.1049 Y87.5628 
G01 X-39.9163 Y88.0183 
G01 X-39.9163 Y88.5115 
G01 X-40.1049 Y88.9670 
G01 X-40.4538 Y89.3159 
G01 X-40.6148 Y89.3825 
G01 X-40.7013 Y89.4182 
G01 X-40.7489 Y89.5336 
G01 X-40.7495 Y89.5348 
G01 X-40.7482 Y89.5380 
G01 X-40.7013 Y89.6515 
G01 X-40.4538 Y89.7539 
G01 X-40.1050 Y90.1027 
G01 X-39.9163 Y90.5583 
G01 X-39.9163 Y91.0515 
G01 X-40.1049 Y91.5070 
G01 X-40.4538 Y91.8559 
G01 X-40.9093 Y92.0445 
G01 X-42.9105 Y92.0445 
G01 X-43.3660 Y91.8559 
G01 X-43.7149 Y91.5070 
G01 X-43.9035 Y91.0515 
G01 X-43.9035 Y90.5583 
G01 X-43.7149 Y90.1028 
G01 X-43.3660 Y89.7539 
G01 X-43.1185 Y89.6515 
G01 X-43.0703 Y89.5349 
G01 X-43.1185 Y89.4182 
G01 X-43.2098 Y89.3805 
G01 X-43.3660 Y89.3159 
G01 X-43.7149 Y88.9670 
G01 X-43.9035 Y88.5115 
G01 X-43.9035 Y88.0183 
G01 X-43.7149 Y87.5628 
G01 X-43.3660 Y87.2139 
G01 X-42.9239 Y87.0309 
G01 X-42.8911 Y87.0309 
G01 X-42.8680 Y87.0077 
G01 X-42.8376 Y86.9952 
G01 X-42.8251 Y86.9648 
G01 X-42.8019 Y86.9417 
G01 X-42.8019 Y86.9088 
G01 X-42.7894 Y86.8786 
G01 X-42.8019 Y86.8483 
G01 X-42.8019 Y86.0797 
G01 X-42.8911 Y85.9905 
G01 X-43.0174 Y85.9905 
G01 X-43.2653 Y85.9905 
G01 X-43.8297 Y85.7568 
G01 X-44.2618 Y85.3247 
G01 X-44.4955 Y84.7603 
G01 X-44.4955 Y84.1495 
G01 X-44.2618 Y83.5851 
G01 X-43.8297 Y83.1530 
G01 X-43.2653 Y82.9193 
G01 X-40.5545 Y82.9193 
G01 X-39.9901 Y83.1530 
G01 X-39.5580 Y83.5851 
G01 X-39.3243 Y84.1495 
G01 X-39.3243 Y84.2422 
G01 X-39.3364 Y84.2785 
G01 X-39.3243 Y84.3026 
G01 X-39.3243 Y84.3299 
G01 X-39.2971 Y84.3571 
G01 X-39.2800 Y84.3913 
G01 X-39.2543 Y84.3998 
G01 X-39.2351 Y84.4191 
G01 X-39.1965 Y84.4191 
G01 X-38.0128 Y84.8136 
G01 X-37.9936 Y84.8329 
G01 X-37.9551 Y84.8329 
G01 X-37.9187 Y84.8450 
G01 X-37.9072 Y84.8392 
G01 X-37.8559 Y84.8605 
G01 X-37.8327 Y84.8837 
G01 X-37.7998 Y84.8837 
G01 X-37.7696 Y84.8962 
G01 X-37.7393 Y84.8837 
G01 X-35.2062 Y84.8837 
G01 X-35.1170 Y84.7945 
G01 X-34.8467 Y84.5241 
G01 X-34.3041 Y84.2995 
G01 X-31.7357 Y84.2995 
G01 X-31.1931 Y84.5241 
G01 X-30.7777 Y84.9395 
G01 X-30.5531 Y85.4821 
G01 X-30.5531 Y86.0693 
G01 X-30.7777 Y86.6119 
G01 X-31.1931 Y87.0273 
G01 X-31.2921 Y87.0682 
G01 X-31.3251 Y87.0682 
G01 X-31.3483 Y87.0914 
G01 X-31.3785 Y87.1039 
G01 X-31.3910 Y87.1342 
G01 X-31.4143 Y87.1574 
G01 X-31.4143 Y87.1903 
G01 X-31.4268 Y87.2204 
G01 X-31.4143 Y87.2507 
G01 X-31.4143 Y87.2837 
G01 X-31.3910 Y87.3069 
G01 X-31.3786 Y87.3371 
G01 X-31.3483 Y87.3496 
G01 X-31.3251 Y87.3729 
G01 X-31.2922 Y87.3729 
G01 X-31.2621 Y87.3854 
G01 X-31.2318 Y87.3729 
G01 X-30.1911 Y87.3729 
G01 X-30.1019 Y87.2837 
G01 X-30.1019 Y87.1574 
G01 X-30.1019 Y81.6832 
G01 X-30.1015 Y81.6202 
G01 X-30.1019 Y81.6198 
G01 X-30.1019 Y81.6192 
G01 X-30.1459 Y81.5752 
G01 X-30.1901 Y81.5304 
G01 X-30.1907 Y81.5304 
G01 X-30.1911 Y81.5300 
G01 X-30.2501 Y81.5300 
G01 X-30.7219 Y81.5269 
G01 X-30.7223 Y81.5264 
G01 X-30.7876 Y81.5264 
G01 X-30.8476 Y81.5260 
G01 X-30.8480 Y81.5264 
G01 X-30.8486 Y81.5264 
G01 X-30.8916 Y81.5695 
G01 X-30.9374 Y81.6146 
G01 X-30.9374 Y81.6153 
G01 X-31.1931 Y81.8711 
G01 X-31.7357 Y82.0957 
G01 X-34.3041 Y82.0957 
G01 X-34.8467 Y81.8711 
G01 X-35.2621 Y81.4557 
G01 X-35.4867 Y80.9131 
G01 X-35.4867 Y80.3259 
G01 X-35.2621 Y79.7833 
G01 X-34.8467 Y79.3679 
G01 X-34.3041 Y79.1433 
G01 X-31.7357 Y79.1433 
G01 X-31.1931 Y79.3679 
G01 X-30.8645 Y79.6966 
G01 X-30.8196 Y79.7422 
G01 X-30.8190 Y79.7422 
G01 X-30.8186 Y79.7426 
G01 X-30.7590 Y79.7426 
G01 X-29.2687 Y79.7524 
G01 X-29.2683 Y79.7529 
G01 X-29.2036 Y79.7529 
G01 X-29.1430 Y79.7533 
G01 X-29.1426 Y79.7529 
G01 X-29.0633 Y79.7529 
G01 X-29.0620 Y79.7543 
G01 X-29.0298 Y79.7543 
G01 X-29.0003 Y79.7668 
G01 X-28.9983 Y79.7660 
G01 X-28.9180 Y79.7998 
G01 X-28.9178 Y79.8005 
G01 X-28.8526 Y79.8274 
G01 X-28.8023 Y79.8487 
G01 X-28.8018 Y79.8485 
G01 X-28.7323 Y79.8772 
G01 X-28.7311 Y79.8801 
G01 X-28.7031 Y79.8912 
G01 X-28.6822 Y79.9131 
G01 X-28.6787 Y79.9131 
G01 X-28.6190 Y79.9737 
G01 X-28.6190 Y79.9744 
G01 X-28.5735 Y80.0199 
G01 X-28.5308 Y80.0632 
G01 X-28.5302 Y80.0632 
G01 X-28.4755 Y80.1179 
G01 X-28.4755 Y80.1199 
G01 X-28.4524 Y80.1430 
G01 X-28.4400 Y80.1731 
G01 X-28.4385 Y80.1737 
G01 X-28.4072 Y80.2508 
G01 X-28.4074 Y80.2514 
G01 X-28.3848 Y80.3059 
G01 X-28.3599 Y80.3672 
G01 X-28.3593 Y80.3674 
G01 X-28.3297 Y80.4388 
G01 X-28.3304 Y80.4403 
G01 X-28.3179 Y80.4707 
G01 X-28.3179 Y80.5038 
G01 X-28.3169 Y80.5047 
G01 X-28.3175 Y80.5881 
G01 X-28.3179 Y80.5885 
G01 X-28.3179 Y80.6529 
G01 X-28.3183 Y80.7138 
G01 X-28.3179 Y80.7142 
G01 X-28.3179 Y88.1203 
G01 X-28.3179 Y88.4423 
G01 X-28.4536 Y88.7701 
G01 X-28.7047 Y89.0212 
G01 X-29.0325 Y89.1569 
G01 X-35.8487 Y89.1569 
G01 X-35.9379 Y89.2461 
G01 X-35.9379 Y89.3724 
G01 X-35.9379 Y92.9987 
G01 X-35.8487 Y93.0879 
G01 X-35.7224 Y93.0879 
G01 X-25.7461 Y93.0879 
G01 X-25.6569 Y92.9987 
G01 X-25.6569 Y92.8724 
G01 X-25.6569 Y73.0565 
G01 X-25.6451 Y73.0342 
G01 X-25.6569 Y72.9958 
G01 X-25.6569 Y72.9555 
G01 X-25.6748 Y72.9377 
G01 X-25.6822 Y72.9135 
G01 X-25.7177 Y72.8947 
G01 X-25.7461 Y72.8663 
G01 X-25.7714 Y72.8663 
G01 X-28.3581 Y71.4969 
G01 X-28.3611 Y71.4894 
G01 X-28.4129 Y71.4679 
G01 X-28.4624 Y71.4416 
G01 X-28.4701 Y71.4440 
G01 X-28.5297 Y71.4192 
G01 X-28.5345 Y71.4034 
G01 X-28.5699 Y71.3847 
G01 X-28.5978 Y71.3565 
G01 X-28.6234 Y71.3564 
G01 X-34.5040 Y68.2432 
G01 X-34.5071 Y68.2355 
G01 X-34.5587 Y68.2142 
G01 X-34.6081 Y68.1880 
G01 X-34.6161 Y68.1905 
G01 X-34.6237 Y68.1873 
G01 X-34.6749 Y68.2086 
G01 X-34.7288 Y68.2251 
G01 X-34.7327 Y68.2325 
G01 X-35.2106 Y68.4305 
G01 X-35.9090 Y68.4305 
G01 X-36.5543 Y68.1633 
G01 X-37.0483 Y67.6693 
G01 X-37.3155 Y67.0240 
G01 X-37.3155 Y66.3258 
G01 X-37.0483 Y65.6805 
G01 X-36.8221 Y65.4543 
G01 X-36.8054 Y65.4510 
G01 X-36.7788 Y65.4111 
G01 X-36.7448 Y65.3771 
G01 X-36.7448 Y65.3601 
G01 X-36.7354 Y65.3460 
G01 X-36.7448 Y65.2989 
G01 X-36.7448 Y65.2508 
G01 X-36.7569 Y65.2388 
G01 X-37.3624 Y62.2105 
G01 X-37.3560 Y62.1950 
G01 X-37.3744 Y62.1508 
G01 X-37.3838 Y62.1034 
G01 X-37.3979 Y62.0941 
G01 X-37.4043 Y62.0784 
G01 X-37.4490 Y62.0600 
G01 X-37.4888 Y62.0334 
G01 X-37.5046 Y62.0366 
G01 X-37.7444 Y61.7968 
G01 X-37.7444 Y58.8530 
G01 X-37.5037 Y58.6123 
G01 X-37.0665 Y58.4313 
G01 X-36.5933 Y58.4313 
G01 X-36.1561 Y58.6123 
G01 X-35.8213 Y58.9471 
G01 X-35.6765 Y59.2970 
G01 X-35.6694 Y59.2999 
G01 X-35.5598 Y59.3452 
G01 X-35.5145 Y59.3264 
G01 X-35.4432 Y59.2970 
G01 X-35.4412 Y59.2921 
G01 X-35.2985 Y58.9471 
G01 X-34.9637 Y58.6123 
G01 X-34.5265 Y58.4313 
G01 X-34.0533 Y58.4313 
G01 X-33.6161 Y58.6123 
G01 X-33.2813 Y58.9471 
G01 X-33.1688 Y59.2190 
G01 X-33.1366 Y59.2970 
G01 X-33.0212 Y59.3446 
G01 X-33.0200 Y59.3452 
G01 X-33.0168 Y59.3439 
G01 X-32.9033 Y59.2970 
G01 X-32.7585 Y58.9471 
G01 X-32.6419 Y58.8306 
G01 X-32.6419 Y58.7043 
G01 X-32.6419 Y54.1991 
G01 X-32.6419 Y54.1990 
G01 X-32.7019 Y54.1391 
G01 X-32.7311 Y54.1099 
G01 X-32.7312 Y54.1099 
G01 X-32.7585 Y54.0827 
G01 X-32.8710 Y53.8108 
G01 X-32.9032 Y53.7328 
G01 X-33.0186 Y53.6852 
G01 X-33.0198 Y53.6846 
G01 X-33.0230 Y53.6859 
G01 X-33.1365 Y53.7328 
G01 X-33.2813 Y54.0827 
G01 X-33.6161 Y54.4175 
G01 X-34.0533 Y54.5985 
G01 X-34.5265 Y54.5985 
G01 X-34.9637 Y54.4175 
G01 X-35.2985 Y54.0827 
G01 X-35.4110 Y53.8108 
G01 X-35.4432 Y53.7328 
G01 X-35.5586 Y53.6852 
G01 X-35.5598 Y53.6846 
G01 X-35.5630 Y53.6859 
G01 X-35.6765 Y53.7328 
G01 X-35.8213 Y54.0827 
G01 X-36.1561 Y54.4175 
G01 X-36.5933 Y54.5985 
G01 X-37.0665 Y54.5985 
G01 X-37.5037 Y54.4175 
G01 X-37.8385 Y54.0827 
G01 X-38.0195 Y53.6455 
G01 X-38.0195 Y51.7643 
G01 X-37.8385 Y51.3271 
G01 X-37.8112 Y51.2999 
G01 X-37.8111 Y51.2999 
G01 X-37.7837 Y51.2724 
G01 X-37.7219 Y51.2108 
G01 X-37.7219 Y51.0845 
G01 X-37.7219 Y47.0835 
G01 X-37.8111 Y46.9943 
G01 X-37.9759 Y46.8295 
G01 X-37.9759 Y45.8803 
G01 X-37.3045 Y45.2089 
G01 X-36.3552 Y45.2089 
G01 X-35.6839 Y45.8803 
G01 X-35.6839 Y46.8295 
G01 X-35.9379 Y47.0835 
G01 X-35.9379 Y47.2098 
G01 X-35.9379 Y51.2107 
G01 X-35.9379 Y51.2108 
G01 X-35.8779 Y51.2707 
G01 X-35.8487 Y51.2999 
G01 X-35.8486 Y51.2999 
G01 X-35.8213 Y51.3271 
G01 X-35.6765 Y51.6770 
G01 X-35.5599 Y51.7252 
G01 X-35.4432 Y51.6770 
G01 X-35.4092 Y51.5947 
G01 X-35.2985 Y51.3271 
G01 X-35.2712 Y51.2999 
G01 X-35.2711 Y51.2999 
G01 X-35.2437 Y51.2724 
G01 X-35.1819 Y51.2108 
G01 X-35.1819 Y51.0845 
G01 X-35.1819 Y49.6234 
G01 X-35.2711 Y49.5342 
G01 X-35.2712 Y49.5342 
G01 X-35.4359 Y49.3695 
G01 X-35.4359 Y48.4203 
G01 X-34.7645 Y47.7489 
G01 X-33.8153 Y47.7489 
G01 X-33.6506 Y47.9136 
G01 X-33.6506 Y47.9137 
G01 X-33.5663 Y47.9979 
G01 X-33.5614 Y48.0029 
G01 X-33.4351 Y48.0029 
G01 X-33.1665 Y48.0029 
G01 X-33.1363 Y48.0154 
G01 X-33.1060 Y48.0029 
G01 X-33.0731 Y48.0029 
G01 X-33.0500 Y47.9797 
G01 X-33.0196 Y47.9672 
G01 X-33.0071 Y47.9368 
G01 X-32.9839 Y47.9137 
G01 X-32.9839 Y47.8809 
G01 X-32.8009 Y47.4388 
G01 X-32.4520 Y47.0899 
G01 X-31.9965 Y46.9013 
G01 X-31.5033 Y46.9013 
G01 X-31.0478 Y47.0899 
G01 X-30.6989 Y47.4388 
G01 X-30.5103 Y47.8943 
G01 X-30.5103 Y49.8955 
G01 X-30.6989 Y50.3510 
G01 X-31.0476 Y50.6997 
G01 X-31.0777 Y50.7122 
G01 X-31.1336 Y50.7352 
G01 X-31.1336 Y50.7355 
G01 X-31.1339 Y50.7355 
G01 X-31.1557 Y50.7886 
G01 X-31.1820 Y50.8517 
G01 X-31.1819 Y50.8520 
G01 X-31.1820 Y50.8523 
G01 X-31.1560 Y50.9147 
G01 X-31.1339 Y50.9684 
G01 X-31.1336 Y50.9684 
G01 X-31.1336 Y50.9687 
G01 X-31.0797 Y50.9909 
G01 X-31.0760 Y50.9924 
G01 X-30.7413 Y51.3271 
G01 X-30.5603 Y51.7643 
G01 X-30.5603 Y53.6455 
G01 X-30.7413 Y54.0827 
G01 X-30.7686 Y54.1099 
G01 X-30.7687 Y54.1099 
G01 X-30.7961 Y54.1374 
G01 X-30.8579 Y54.1990 
G01 X-30.8579 Y54.3253 
G01 X-30.8579 Y58.8306 
G01 X-30.7687 Y58.9198 
G01 X-30.7413 Y58.9471 
G01 X-30.5603 Y59.3843 
G01 X-30.5603 Y61.2655 
G01 X-30.7413 Y61.7027 
G01 X-30.7686 Y61.7300 
G01 X-30.7687 Y61.7300 
G01 X-30.8579 Y61.8192 
G01 X-30.8579 Y62.1363 
G01 X-30.7687 Y62.2255 
G01 X-30.6039 Y62.3903 
G01 X-30.6039 Y63.3395 
G01 X-31.3362 Y64.0718 
G01 X-31.3362 Y64.1981 
G01 X-31.2470 Y64.2873 
G01 X-30.6039 Y64.9303 
G01 X-30.6039 Y65.8795 
G01 X-31.2753 Y66.5509 
G01 X-32.2242 Y66.5509 
G01 X-32.2377 Y66.5373 
G01 X-32.2652 Y66.5372 
G01 X-32.2896 Y66.5250 
G01 X-32.3257 Y66.5370 
G01 X-32.3639 Y66.5369 
G01 X-32.3834 Y66.5563 
G01 X-32.9601 Y66.7485 
G01 X-33.0196 Y66.7668 
G01 X-33.0206 Y66.7687 
G01 X-33.0225 Y66.7693 
G01 X-33.0495 Y66.8235 
G01 X-33.0786 Y66.8783 
G01 X-33.0780 Y66.8803 
G01 X-33.0789 Y66.8821 
G01 X-33.0598 Y66.9393 
G01 X-33.0415 Y66.9990 
G01 X-33.0396 Y67.0000 
G01 X-33.0390 Y67.0019 
G01 X-32.9853 Y67.0287 
G01 X-29.1640 Y69.0517 
G01 X-29.1358 Y69.0801 
G01 X-29.1103 Y69.0802 
G01 X-29.0878 Y69.0921 
G01 X-29.0496 Y69.0803 
G01 X-29.0095 Y69.0805 
G01 X-28.9914 Y69.0624 
G01 X-28.9671 Y69.0550 
G01 X-28.9484 Y69.0197 
G01 X-28.9201 Y68.9915 
G01 X-28.9201 Y68.9660 
G01 X-28.9081 Y68.9435 
G01 X-28.9199 Y68.9052 
G01 X-28.8321 Y36.9010 
G01 X-28.8319 Y36.9009 
G01 X-28.8319 Y36.8483 
G01 X-28.8317 Y36.7750 
G01 X-28.8319 Y36.7748 
G01 X-28.8319 Y36.6845 
G01 X-28.8313 Y36.6839 
G01 X-28.8313 Y36.6519 
G01 X-28.8188 Y36.6228 
G01 X-28.8194 Y36.6212 
G01 X-28.7847 Y36.5379 
G01 X-28.7843 Y36.5378 
G01 X-28.7539 Y36.4642 
G01 X-28.7361 Y36.4217 
G01 X-28.7362 Y36.4215 
G01 X-28.7073 Y36.3516 
G01 X-28.7037 Y36.3500 
G01 X-28.6947 Y36.3258 
G01 X-28.6754 Y36.3085 
G01 X-28.6751 Y36.3030 
G01 X-28.6045 Y36.2329 
G01 X-28.6042 Y36.2329 
G01 X-28.5619 Y36.1905 
G01 X-28.5152 Y36.1442 
G01 X-28.5152 Y36.1439 
G01 X-26.5714 Y34.1999 
G01 X-26.5411 Y34.1874 
G01 X-26.5287 Y34.1572 
G01 X-26.5054 Y34.1340 
G01 X-26.5054 Y34.1010 
G01 X-26.4929 Y34.0707 
G01 X-26.5054 Y34.0406 
G01 X-26.5054 Y34.0077 
G01 X-26.5205 Y33.9926 
G01 X-26.5205 Y33.3173 
G01 X-26.5053 Y33.3021 
G01 X-26.5053 Y33.2694 
G01 X-26.4928 Y33.2395 
G01 X-26.5053 Y33.2090 
G01 X-26.5053 Y33.1758 
G01 X-26.5284 Y33.1528 
G01 X-26.5407 Y33.1227 
G01 X-26.5711 Y33.1101 
G01 X-30.5952 Y29.0859 
G01 X-30.7215 Y29.0859 
G01 X-30.9545 Y29.0859 
G01 X-31.6259 Y28.4145 
G01 X-31.6259 Y27.4653 
G01 X-31.3719 Y27.2113 
G01 X-31.3719 Y27.0850 
G01 X-31.3719 Y26.6601 
G01 X-31.3661 Y26.6426 
G01 X-31.3719 Y26.6310 
G01 X-31.3719 Y26.5025 
G01 X-31.3944 Y26.4800 
G01 X-31.3944 Y24.3281 
G01 X-31.2305 Y24.2603 
G01 X-29.7293 Y24.2603 
G01 X-29.5509 Y24.3341 
G01 X-29.4141 Y24.4709 
G01 X-29.3747 Y24.5661 
G01 X-29.3748 Y24.5661 
G01 X-29.3266 Y24.6828 
G01 X-29.2450 Y24.7165 
G01 X-29.2101 Y24.7310 
G01 X-29.2100 Y24.7309 
G01 X-29.2100 Y24.7310 
G01 X-29.0933 Y24.6828 
G01 X-29.0057 Y24.4709 
G01 X-28.8689 Y24.3341 
G01 X-28.6905 Y24.2603 
G01 X-27.1893 Y24.2603 
G01 X-27.0108 Y24.3341 
G01 X-26.9265 Y24.4186 
G01 X-26.9265 Y24.4187 
G01 X-26.8390 Y24.5061 
G01 X-26.8373 Y24.5079 
G01 X-26.7111 Y24.5079 
G01 X-26.6288 Y24.5079 
G01 X-26.5025 Y24.5079 
G01 X-26.2919 Y24.2973 
G01 X-26.2919 Y24.1710 
G01 X-26.2919 Y18.8826 
G01 X-26.3811 Y18.7934 
G01 X-26.4657 Y18.7089 
G01 X-26.5050 Y18.6138 
G01 X-26.5532 Y18.4971 
G01 X-26.6348 Y18.4634 
G01 X-26.6697 Y18.4489 
G01 X-26.6698 Y18.4489 
G01 X-26.6699 Y18.4489 
G01 X-26.7865 Y18.4971 
G01 X-26.8741 Y18.7089 
G01 X-27.0109 Y18.8457 
G01 X-27.1893 Y18.9195 
G01 X-28.6905 Y18.9195 
G01 X-28.8689 Y18.8457 
G01 X-29.0057 Y18.7089 
G01 X-29.0450 Y18.6138 
G01 X-29.0932 Y18.4971 
G01 X-29.1748 Y18.4634 
G01 X-29.2097 Y18.4489 
G01 X-29.2098 Y18.4489 
G01 X-29.2099 Y18.4489 
G01 X-29.3265 Y18.4971 
G01 X-29.4141 Y18.7089 
G01 X-29.5509 Y18.8457 
G01 X-29.7293 Y18.9195 
G01 X-31.2305 Y18.9195 
G01 X-31.4089 Y18.8457 
G01 X-31.5457 Y18.7089 
G01 X-31.5850 Y18.6138 
G01 X-31.6332 Y18.4971 
G01 X-31.7148 Y18.4634 
G01 X-31.7497 Y18.4489 
G01 X-31.7498 Y18.4490 
G01 X-31.7499 Y18.4489 
G01 X-31.8665 Y18.4971 
G01 X-31.9541 Y18.7089 
G01 X-32.0909 Y18.8457 
G01 X-32.2693 Y18.9195 
G01 X-33.7705 Y18.9195 
G01 X-33.9489 Y18.8457 
G01 X-34.1226 Y18.6719 
G01 X-34.2489 Y18.6719 
G01 X-34.8313 Y18.6719 
G01 X-34.9205 Y18.7611 
G01 X-35.0853 Y18.9259 
G01 X-36.0345 Y18.9259 
G01 X-36.7059 Y18.2545 
G01 X-36.7059 Y17.3053 
G01 X-36.0345 Y16.6339 
G01 X-35.0853 Y16.6339 
G01 X-34.8313 Y16.8879 
G01 X-34.7050 Y16.8879 
G01 X-34.1226 Y16.8879 
G01 X-34.0334 Y16.7987 
G01 X-33.9119 Y16.6772 
G01 X-33.9119 Y16.5509 
G01 X-33.9119 Y13.4284 
G01 X-34.0011 Y13.3392 
G01 X-34.0012 Y13.3392 
G01 X-34.1659 Y13.1746 
G01 X-34.1659 Y12.2253 
G01 X-33.5836 Y11.6431 
G01 X-33.5526 Y11.6298 
G01 X-33.5408 Y11.6003 
G01 X-33.5183 Y11.5778 
G01 X-33.5183 Y11.5440 
G01 X-31.9245 Y7.5593 
G01 X-31.9019 Y7.5368 
G01 X-31.9019 Y7.5029 
G01 X-31.8894 Y7.4716 
G01 X-31.9019 Y7.4425 
G01 X-31.9019 Y7.4105 
G01 X-31.9258 Y7.3866 
G01 X-31.9391 Y7.3556 
G01 X-31.9686 Y7.3438 
G01 X-32.2355 Y7.0770 
G01 X-32.2355 Y5.8557 
G01 X-32.3247 Y5.7665 
G01 X-34.0243 Y4.0669 
G01 X-34.1506 Y4.0669 
G01 X-37.9569 Y4.0669 
G01 X-38.0461 Y4.1561 
G01 X-38.0461 Y4.2824 
G01 X-38.0461 Y14.5007 
G01 X-38.0461 Y14.7419 
G01 X-38.1508 Y14.9950 
G01 X-38.3448 Y15.1890 
G01 X-38.5979 Y15.2937 
G01 X-46.8469 Y15.2937 
G01 X-46.9361 Y15.3829 
G01 X-46.9361 Y15.5092 
G01 X-46.9361 Y16.8820 
G01 X-46.9486 Y16.9123 
G01 X-46.9361 Y16.9424 
G01 X-46.9361 Y16.9754 
G01 X-46.9128 Y16.9986 
G01 X-46.9003 Y17.0289 
G01 X-46.8701 Y17.0414 
G01 X-46.8538 Y17.0576 
G01 X-47.0870 Y17.2908 
G01 X-47.2185 Y17.6081 
G01 X-47.2185 Y17.9518 
G01 X-47.0870 Y18.2691 
G01 X-46.8538 Y18.5022 
G01 X-46.8701 Y18.5184 
G01 X-46.9003 Y18.5309 
G01 X-46.9128 Y18.5611 
G01 X-46.9361 Y18.5844 
G01 X-46.9361 Y18.6174 
G01 X-46.9486 Y18.6475 
G01 X-46.9361 Y18.6778 
G01 X-46.9361 Y18.9457 
G01 X-46.9361 Y19.1869 
G01 X-47.0301 Y19.4140 
G01 X-47.0533 Y19.4372 
G01 X-47.0533 Y19.4700 
G01 X-47.0658 Y19.5002 
G01 X-47.0533 Y19.5305 
G01 X-47.0533 Y19.5634 
G01 X-47.0301 Y19.5865 
G01 X-47.0176 Y19.6169 
G01 X-46.9871 Y19.6295 
G01 X-46.9640 Y19.6526 
G01 X-46.9312 Y19.6526 
G01 X-46.9153 Y19.6592 
G01 X-47.1683 Y19.9122 
G01 X-47.1683 Y19.8720 
G01 X-47.2575 Y19.7828 
G01 X-47.3838 Y19.7828 
G01 X-47.4730 Y19.8720 
G01 X-47.4730 Y19.8721 
G01 X-47.6981 Y20.0972 
G01 X-47.6981 Y20.2235 
G01 X-47.6981 Y20.8156 
G01 X-48.3992 Y21.5167 
G01 X-49.3869 Y21.5167 
G01 X-49.4761 Y21.6059 
G01 X-49.4761 Y21.7322 
G01 X-49.4761 Y28.3730 
G01 X-49.4886 Y28.4043 
G01 X-49.4761 Y28.4334 
G01 X-49.4761 Y28.4654 
G01 X-49.4521 Y28.4893 
G01 X-47.7026 Y32.5717 
G01 X-47.7022 Y32.6048 
G01 X-47.6786 Y32.6277 
G01 X-47.6658 Y32.6577 
G01 X-47.6640 Y32.6584 
G01 X-47.6482 Y32.6964 
G01 X-47.6487 Y32.6976 
G01 X-47.6228 Y32.7580 
G01 X-47.6005 Y32.8120 
G01 X-47.5995 Y32.8124 
G01 X-47.5852 Y32.8457 
G01 X-47.5856 Y32.8467 
G01 X-47.5725 Y32.8788 
G01 X-47.5719 Y32.9136 
G01 X-47.5711 Y32.9143 
G01 X-47.5711 Y32.9516 
G01 X-47.5719 Y32.9524 
G01 X-47.5711 Y33.0167 
G01 X-47.5711 Y33.0768 
G01 X-47.5703 Y33.0775 
G01 X-47.5698 Y33.1176 
G01 X-47.5711 Y33.1188 
G01 X-47.5711 Y33.1527 
G01 X-47.5836 Y33.1840 
G01 X-47.5711 Y33.2131 
G01 X-47.5711 Y38.2123 
G01 X-47.5758 Y38.2216 
G01 X-47.5711 Y38.2356 
G01 X-47.5711 Y49.9717 
G01 X-47.5836 Y50.0008 
G01 X-47.5711 Y50.0321 
G01 X-47.5711 Y50.0660 
G01 X-47.5698 Y50.0672 
G01 X-47.5703 Y50.1071 
G01 X-47.5711 Y50.1078 
G01 X-47.5711 Y50.1678 
G01 X-47.5719 Y50.2322 
G01 X-47.5711 Y50.2330 
G01 X-47.5711 Y50.2705 
G01 X-47.5719 Y50.2712 
G01 X-47.5725 Y50.3060 
G01 X-47.5856 Y50.3381 
G01 X-47.5851 Y50.3391 
G01 X-47.5993 Y50.3722 
G01 X-47.6004 Y50.3726 
G01 X-47.6259 Y50.4343 
G01 X-47.6486 Y50.4872 
G01 X-47.6482 Y50.4882 
G01 X-47.6640 Y50.5264 
G01 X-47.6658 Y50.5271 
G01 X-47.6786 Y50.5571 
G01 X-47.7022 Y50.5800 
G01 X-47.7026 Y50.6131 
G01 X-49.5052 Y54.8193 
G01 X-49.5063 Y54.8197 
G01 X-49.5302 Y54.8777 
G01 X-49.5545 Y54.9342 
G01 X-49.5541 Y54.9353 
G01 X-49.5690 Y54.9715 
G01 X-49.5707 Y54.9721 
G01 X-49.5839 Y55.0031 
G01 X-49.6079 Y55.0270 
G01 X-49.6079 Y55.0288 
G01 X-49.6353 Y55.0556 
G01 X-49.6365 Y55.0556 
G01 X-49.6828 Y55.1019 
G01 X-49.7249 Y55.1430 
G01 X-49.7249 Y55.1441 
G01 X-49.7536 Y55.1727 
G01 X-49.7566 Y55.1727 
G01 X-49.7791 Y55.1953 
G01 X-49.8086 Y55.2070 
G01 X-49.8097 Y55.2097 
G01 X-49.8457 Y55.2241 
G01 X-49.8467 Y55.2237 
G01 X-49.9022 Y55.2467 
G01 X-49.9618 Y55.2705 
G01 X-49.9622 Y55.2716 
G01 X-49.9993 Y55.2869 
G01 X-50.0008 Y55.2862 
G01 X-50.0321 Y55.2987 
G01 X-50.0660 Y55.2987 
G01 X-50.0672 Y55.3000 
G01 X-50.1073 Y55.2995 
G01 X-50.1080 Y55.2987 
G01 X-50.1680 Y55.2987 
G01 X-50.2324 Y55.2979 
G01 X-50.2332 Y55.2987 
G01 X-56.3426 Y55.2987 
G01 X-56.3667 Y55.2866 
G01 X-56.4030 Y55.2987 
G01 X-56.4416 Y55.2987 
G01 X-56.4480 Y55.3052 
G01 X-56.4768 Y55.3031 
G01 X-56.4811 Y55.2987 
G01 X-56.5385 Y55.2987 
G01 X-56.5964 Y55.2946 
G01 X-56.6011 Y55.2987 
G01 X-56.6310 Y55.2987 
G01 X-56.6369 Y55.2918 
G01 X-56.6753 Y55.2891 
G01 X-56.7108 Y55.2744 
G01 X-56.7192 Y55.2779 
G01 X-56.7451 Y55.2649 
G01 X-56.7475 Y55.2591 
G01 X-56.8009 Y55.2371 
G01 X-56.8523 Y55.2113 
G01 X-56.8583 Y55.2133 
G01 X-56.8857 Y55.2020 
G01 X-56.8886 Y55.1932 
G01 X-56.9228 Y55.1761 
G01 X-56.9500 Y55.1489 
G01 X-56.9593 Y55.1489 
G01 X-56.9784 Y55.1269 
G01 X-56.9784 Y55.1205 
G01 X-57.0197 Y55.0792 
G01 X-57.0570 Y55.0362 
G01 X-57.0632 Y55.0358 
G01 X-57.0842 Y55.0148 
G01 X-57.0835 Y55.0053 
G01 X-57.1086 Y54.9765 
G01 X-57.1231 Y54.9413 
G01 X-57.1317 Y54.9378 
G01 X-57.1408 Y54.9105 
G01 X-57.1384 Y54.9047 
G01 X-57.1605 Y54.8513 
G01 X-57.1787 Y54.7967 
G01 X-57.1843 Y54.7940 
G01 X-57.1957 Y54.7663 
G01 X-57.1916 Y54.7581 
G01 X-57.2037 Y54.7217 
G01 X-57.2037 Y54.6832 
G01 X-57.2230 Y54.6640 
G01 X-57.8662 Y52.7341 
G01 X-57.8662 Y52.6955 
G01 X-57.8855 Y52.6763 
G01 X-57.8940 Y52.6506 
G01 X-57.9282 Y52.6335 
G01 X-57.9554 Y52.6063 
G01 X-57.9826 Y52.6063 
G01 X-58.0068 Y52.5942 
G01 X-58.0263 Y52.6007 
G01 X-58.4340 Y52.4319 
G01 X-58.7565 Y52.1094 
G01 X-58.9383 Y51.6702 
G01 X-59.0550 Y51.6220 
G01 X-59.0551 Y51.6220 
G01 X-59.0882 Y51.6358 
G01 X-59.1716 Y51.6702 
G01 X-59.2198 Y51.7869 
G01 X-59.2236 Y51.7962 
G01 X-59.2495 Y51.8479 
G01 X-59.2475 Y51.8539 
G01 X-59.2499 Y51.8598 
G01 X-59.2278 Y51.9131 
G01 X-58.4721 Y54.1801 
G01 X-58.4721 Y54.2186 
G01 X-58.4528 Y54.2378 
G01 X-58.4443 Y54.2635 
G01 X-58.4101 Y54.2806 
G01 X-57.3716 Y55.3191 
G01 X-57.2008 Y55.4898 
G01 X-57.0961 Y55.7429 
G01 X-57.0961 Y65.1082 
G01 X-57.0069 Y65.1974 
G01 X-57.0068 Y65.1974 
G01 X-56.6389 Y65.5653 
G01 X-56.6389 Y66.5145 
G01 X-57.3103 Y67.1859 
G01 X-58.2595 Y67.1859 
G01 X-58.9309 Y66.5145 
G01 X-58.9309 Y65.5653 
G01 X-58.5630 Y65.1974 
G01 X-58.5629 Y65.1974 
G01 X-58.4817 Y65.1161 
G01 X-58.4737 Y65.1082 
G01 X-58.4737 Y64.9819 
G01 X-58.4737 Y56.1652 
G01 X-58.5629 Y56.0760 
G01 X-59.4201 Y55.2189 
G01 X-59.4286 Y55.1932 
G01 X-59.4628 Y55.1761 
G01 X-59.4900 Y55.1489 
G01 X-59.4993 Y55.1489 
G01 X-59.5184 Y55.1269 
G01 X-59.5184 Y55.1205 
G01 X-59.5597 Y55.0792 
G01 X-59.5970 Y55.0362 
G01 X-59.6032 Y55.0358 
G01 X-59.6242 Y55.0148 
G01 X-59.6235 Y55.0053 
G01 X-59.6486 Y54.9765 
G01 X-59.6631 Y54.9413 
G01 X-59.6717 Y54.9378 
G01 X-59.6808 Y54.9105 
G01 X-59.6784 Y54.9047 
G01 X-59.7006 Y54.8513 
G01 X-59.7187 Y54.7967 
G01 X-59.7243 Y54.7940 
G01 X-59.7357 Y54.7663 
G01 X-59.7316 Y54.7581 
G01 X-59.7437 Y54.7217 
G01 X-59.7437 Y54.6832 
G01 X-59.7630 Y54.6640 
G01 X-60.4062 Y52.7340 
G01 X-60.4062 Y52.6955 
G01 X-60.4255 Y52.6763 
G01 X-60.4340 Y52.6506 
G01 X-60.4682 Y52.6335 
G01 X-60.4954 Y52.6063 
G01 X-60.5226 Y52.6063 
G01 X-60.5468 Y52.5942 
G01 X-60.5663 Y52.6007 
G01 X-60.9740 Y52.4319 
G01 X-61.2394 Y52.1664 
G01 X-61.2394 Y49.4334 
G01 X-60.9740 Y49.1679 
G01 X-60.5528 Y48.9935 
G01 X-60.0970 Y48.9935 
G01 X-59.6758 Y49.1679 
G01 X-59.3533 Y49.4904 
G01 X-59.1997 Y49.8614 
G01 X-59.1716 Y49.9296 
G01 X-59.0562 Y49.9772 
G01 X-59.0550 Y49.9778 
G01 X-59.0518 Y49.9765 
G01 X-58.9383 Y49.9296 
G01 X-58.7565 Y49.4904 
G01 X-58.4340 Y49.1679 
G01 X-58.0128 Y48.9935 
G01 X-57.5570 Y48.9935 
G01 X-57.1358 Y49.1679 
G01 X-56.8133 Y49.4904 
G01 X-56.6597 Y49.8614 
G01 X-56.6316 Y49.9296 
G01 X-56.5162 Y49.9772 
G01 X-56.5150 Y49.9778 
G01 X-56.5118 Y49.9765 
G01 X-56.3983 Y49.9296 
G01 X-56.2165 Y49.4904 
G01 X-55.8940 Y49.1679 
G01 X-55.4728 Y48.9935 
G01 X-55.0170 Y48.9935 
G01 X-54.5958 Y49.1679 
G01 X-54.2733 Y49.4904 
G01 X-54.1197 Y49.8614 
G01 X-54.0916 Y49.9296 
G01 X-53.9762 Y49.9772 
G01 X-53.9750 Y49.9778 
G01 X-53.9718 Y49.9765 
G01 X-53.8583 Y49.9296 
G01 X-53.6765 Y49.4904 
G01 X-53.3540 Y49.1679 
G01 X-52.9328 Y48.9935 
G01 X-52.4770 Y48.9935 
G01 X-52.1717 Y49.1199 
G01 X-52.1485 Y49.1432 
G01 X-52.1155 Y49.1432 
G01 X-52.0854 Y49.1557 
G01 X-52.0551 Y49.1432 
G01 X-52.0222 Y49.1432 
G01 X-51.9991 Y49.1200 
G01 X-51.9687 Y49.1075 
G01 X-51.9562 Y49.0771 
G01 X-51.4887 Y48.6096 
G01 X-51.4887 Y48.4833 
G01 X-51.4887 Y36.9293 
G01 X-51.5779 Y36.8401 
G01 X-51.7042 Y36.8401 
G01 X-51.7934 Y36.9293 
G01 X-51.7934 Y36.9294 
G01 X-52.0558 Y37.1919 
G01 X-52.4771 Y37.3663 
G01 X-52.9328 Y37.3663 
G01 X-53.3540 Y37.1919 
G01 X-53.6765 Y36.8694 
G01 X-53.8301 Y36.4984 
G01 X-53.8582 Y36.4302 
G01 X-53.9736 Y36.3826 
G01 X-53.9748 Y36.3820 
G01 X-53.9780 Y36.3833 
G01 X-54.0915 Y36.4302 
G01 X-54.2733 Y36.8694 
G01 X-54.5958 Y37.1919 
G01 X-55.0170 Y37.3663 
G01 X-55.4728 Y37.3663 
G01 X-55.8940 Y37.1919 
G01 X-56.2165 Y36.8694 
G01 X-56.3701 Y36.4984 
G01 X-56.3982 Y36.4302 
G01 X-56.5136 Y36.3826 
G01 X-56.5148 Y36.3820 
G01 X-56.5180 Y36.3833 
G01 X-56.6315 Y36.4302 
G01 X-56.8133 Y36.8694 
G01 X-57.1358 Y37.1919 
G01 X-57.5570 Y37.3663 
G01 X-58.0128 Y37.3663 
G01 X-58.4340 Y37.1919 
G01 X-58.7565 Y36.8694 
G01 X-58.9101 Y36.4984 
G01 X-58.9382 Y36.4302 
G01 X-59.0536 Y36.3826 
G01 X-59.0548 Y36.3820 
G01 X-59.0580 Y36.3833 
G01 X-59.1715 Y36.4302 
G01 X-59.3533 Y36.8694 
G01 X-59.6758 Y37.1919 
G01 X-60.0970 Y37.3663 
G01 X-60.5528 Y37.3663 
G01 X-60.9740 Y37.1919 
G01 X-61.2965 Y36.8694 
G01 X-61.4501 Y36.4984 
G01 X-61.4782 Y36.4302 
G01 X-61.5936 Y36.3826 
G01 X-61.5948 Y36.3820 
G01 X-61.5980 Y36.3833 
G01 X-61.7115 Y36.4302 
G01 X-61.8933 Y36.8694 
G01 X-62.2158 Y37.1919 
G01 X-62.6370 Y37.3663 
G01 X-63.0928 Y37.3663 
G01 X-63.5140 Y37.1919 
G01 X-63.8365 Y36.8694 
G01 X-63.9901 Y36.4984 
G01 X-64.0182 Y36.4302 
G01 X-64.1336 Y36.3826 
G01 X-64.1348 Y36.3820 
G01 X-64.1380 Y36.3833 
G01 X-64.2515 Y36.4302 
G01 X-64.4333 Y36.8694 
G01 X-64.7558 Y37.1919 
G01 X-65.1770 Y37.3663 
G01 X-65.6328 Y37.3663 
G01 X-66.0540 Y37.1919 
G01 X-66.3765 Y36.8694 
G01 X-66.5301 Y36.4984 
G01 X-66.5582 Y36.4302 
G01 X-66.6736 Y36.3826 
G01 X-66.6748 Y36.3820 
G01 X-66.6780 Y36.3833 
G01 X-66.7915 Y36.4302 
G01 X-66.9733 Y36.8694 
G01 X-67.2958 Y37.1919 
G01 X-67.7171 Y37.3663 
G01 X-68.1728 Y37.3663 
G01 X-68.5940 Y37.1919 
G01 X-68.9165 Y36.8694 
G01 X-69.0701 Y36.4984 
G01 X-69.0982 Y36.4302 
G01 X-69.2136 Y36.3826 
G01 X-69.2148 Y36.3820 
G01 X-69.2180 Y36.3833 
G01 X-69.3315 Y36.4302 
G01 X-69.5133 Y36.8694 
G01 X-69.8358 Y37.1919 
G01 X-70.2570 Y37.3663 
G01 X-70.7128 Y37.3663 
G01 X-71.1340 Y37.1919 
G01 X-71.4565 Y36.8694 
G01 X-71.6101 Y36.4984 
G01 X-71.6382 Y36.4302 
G01 X-71.7536 Y36.3826 
G01 X-71.7548 Y36.3820 
G01 X-71.7580 Y36.3833 
G01 X-71.8715 Y36.4302 
G01 X-72.0533 Y36.8694 
G01 X-72.3758 Y37.1919 
G01 X-72.7970 Y37.3663 
G01 X-73.2528 Y37.3663 
G01 X-73.6740 Y37.1919 
G01 X-73.9394 Y36.9264 
G01 X-73.9394 Y34.1934 
G01 X-73.6739 Y33.9279 
G01 X-73.5532 Y33.8779 
G01 X-73.5339 Y33.8811 
G01 X-73.4965 Y33.8544 
G01 X-73.4545 Y33.8370 
G01 X-73.4472 Y33.8191 
G01 X-73.4312 Y33.8078 
G01 X-73.4237 Y33.7624 
G01 X-73.4063 Y33.7204 
G01 X-73.4137 Y33.7026 
G01 X-73.0848 Y31.7289 
G01 X-73.0786 Y31.7236 
G01 X-73.0747 Y31.6682 
G01 X-73.0654 Y31.6126 
G01 X-73.0702 Y31.6059 
G01 X-73.0685 Y31.5811 
G01 X-73.0588 Y31.5742 
G01 X-73.0523 Y31.5346 
G01 X-73.0344 Y31.4990 
G01 X-73.0382 Y31.4876 
G01 X-73.0241 Y31.4650 
G01 X-73.0162 Y31.4624 
G01 X-72.9914 Y31.4127 
G01 X-72.9616 Y31.3651 
G01 X-72.9635 Y31.3569 
G01 X-67.8127 Y21.0551 
G01 X-67.7855 Y21.0279 
G01 X-67.7855 Y21.0008 
G01 X-67.7734 Y20.9766 
G01 X-67.7855 Y20.9402 
G01 X-67.7855 Y20.9016 
G01 X-67.8048 Y20.8824 
G01 X-67.8133 Y20.8568 
G01 X-67.8476 Y20.8397 
G01 X-67.8717 Y20.8156 
G01 X-67.8717 Y19.8242 
G01 X-67.1605 Y19.1130 
G01 X-67.1605 Y18.9867 
G01 X-67.2497 Y18.8975 
G01 X-67.2498 Y18.8975 
G01 X-67.8717 Y18.2756 
G01 X-67.8717 Y17.2842 
G01 X-67.1706 Y16.5831 
G01 X-66.1792 Y16.5831 
G01 X-65.4680 Y17.2943 
G01 X-65.3417 Y17.2943 
G01 X-65.2525 Y17.2051 
G01 X-65.2525 Y17.2050 
G01 X-64.6306 Y16.5831 
G01 X-63.6392 Y16.5831 
G01 X-62.9280 Y17.2943 
G01 X-62.8017 Y17.2943 
G01 X-62.7125 Y17.2051 
G01 X-62.7125 Y17.2050 
G01 X-62.0906 Y16.5831 
G01 X-61.0992 Y16.5831 
G01 X-60.3880 Y17.2943 
G01 X-60.2617 Y17.2943 
G01 X-60.1725 Y17.2051 
G01 X-59.5506 Y16.5831 
G01 X-58.5592 Y16.5831 
G01 X-57.8480 Y17.2943 
G01 X-57.7217 Y17.2943 
G01 X-57.6325 Y17.2051 
G01 X-57.0106 Y16.5831 
G01 X-56.0229 Y16.5831 
G01 X-55.9337 Y16.4939 
G01 X-55.9337 Y16.3676 
G01 X-55.9337 Y15.9791 
G01 X-55.9337 Y15.7379 
G01 X-55.8290 Y15.4848 
G01 X-53.8509 Y13.5068 
G01 X-53.8509 Y13.3805 
G01 X-53.8509 Y12.8603 
G01 X-53.4140 Y12.4234 
G01 X-53.4139 Y12.4234 
G01 X-53.3337 Y12.3431 
G01 X-53.3247 Y12.3342 
G01 X-53.3247 Y12.2079 
G01 X-53.4139 Y12.1187 
G01 X-53.5402 Y12.1187 
G01 X-57.4938 Y12.1187 
G01 X-57.5455 Y12.1113 
G01 X-57.5553 Y12.1187 
G01 X-57.5677 Y12.1187 
G01 X-57.6047 Y12.1557 
G01 X-59.0773 Y13.2602 
G01 X-59.0897 Y13.2602 
G01 X-59.1268 Y13.2973 
G01 X-59.1684 Y13.3285 
G01 X-59.1701 Y13.3407 
G01 X-59.1789 Y13.3494 
G01 X-59.1789 Y13.4018 
G01 X-59.1863 Y13.4535 
G01 X-59.1789 Y13.4633 
G01 X-59.1789 Y13.8095 
G01 X-59.8503 Y14.4809 
G01 X-60.7995 Y14.4809 
G01 X-61.0254 Y14.2550 
G01 X-61.0277 Y14.2408 
G01 X-61.0690 Y14.2114 
G01 X-61.1045 Y14.1758 
G01 X-61.1188 Y14.1758 
G01 X-61.1304 Y14.1675 
G01 X-61.1802 Y14.1758 
G01 X-61.2308 Y14.1758 
G01 X-61.2409 Y14.1859 
G01 X-71.0527 Y15.8212 
G01 X-71.0854 Y15.8139 
G01 X-71.1124 Y15.8311 
G01 X-71.1442 Y15.8364 
G01 X-71.1637 Y15.8638 
G01 X-71.1919 Y15.8817 
G01 X-71.1988 Y15.9130 
G01 X-71.2175 Y15.9391 
G01 X-71.2120 Y15.9722 
G01 X-72.3122 Y20.9229 
G01 X-72.3304 Y20.9472 
G01 X-72.3253 Y20.9820 
G01 X-72.3330 Y21.0164 
G01 X-72.3306 Y21.0201 
G01 X-72.3393 Y21.0541 
G01 X-72.3417 Y21.0556 
G01 X-72.3548 Y21.1146 
G01 X-72.3699 Y21.1736 
G01 X-72.3684 Y21.1760 
G01 X-72.3763 Y21.2114 
G01 X-72.3807 Y21.2140 
G01 X-72.3890 Y21.2474 
G01 X-72.4089 Y21.2753 
G01 X-72.4080 Y21.2804 
G01 X-72.4296 Y21.3092 
G01 X-72.4324 Y21.3096 
G01 X-72.4662 Y21.3580 
G01 X-72.5036 Y21.4077 
G01 X-72.5031 Y21.4107 
G01 X-72.5235 Y21.4398 
G01 X-72.5280 Y21.4404 
G01 X-72.5491 Y21.4686 
G01 X-72.5789 Y21.4875 
G01 X-72.5798 Y21.4919 
G01 X-72.6111 Y21.5104 
G01 X-72.6140 Y21.5097 
G01 X-72.6663 Y21.5431 
G01 X-72.7173 Y21.5732 
G01 X-72.7180 Y21.5760 
G01 X-72.7474 Y21.5948 
G01 X-72.7519 Y21.5936 
G01 X-72.7820 Y21.6116 
G01 X-72.8166 Y21.6176 
G01 X-72.8192 Y21.6214 
G01 X-72.8548 Y21.6265 
G01 X-72.8571 Y21.6248 
G01 X-72.9176 Y21.6355 
G01 X-72.9769 Y21.6439 
G01 X-72.9785 Y21.6462 
G01 X-73.0132 Y21.6523 
G01 X-73.0168 Y21.6495 
G01 X-73.0516 Y21.6545 
G01 X-73.0857 Y21.6467 
G01 X-73.1114 Y21.6630 
G01 X-77.0839 Y22.2306 
G01 X-77.1365 Y22.2306 
G01 X-77.1452 Y22.2394 
G01 X-77.1574 Y22.2411 
G01 X-77.1886 Y22.2828 
G01 X-78.8893 Y23.9834 
G01 X-78.8893 Y24.1097 
G01 X-78.8893 Y24.3528 
G01 X-79.0309 Y24.6947 
G01 X-79.5069 Y25.1345 
G01 X-79.7870 Y25.2505 
G01 X-80.2328 Y25.2505 
G01 X-80.3775 Y25.1906 
G01 X-80.3803 Y25.1850 
G01 X-80.4350 Y25.1668 
G01 X-80.4883 Y25.1447 
G01 X-80.4941 Y25.1471 
G01 X-80.5001 Y25.1451 
G01 X-80.5513 Y25.1707 
G01 X-80.6050 Y25.1929 
G01 X-80.6074 Y25.1988 
G01 X-85.0467 Y27.4184 
G01 X-85.0739 Y27.4184 
G01 X-85.1011 Y27.4456 
G01 X-85.1353 Y27.4627 
G01 X-85.1438 Y27.4884 
G01 X-85.1631 Y27.5076 
G01 X-85.1631 Y27.5461 
G01 X-85.1752 Y27.5825 
G01 X-85.1631 Y27.6067 
G01 X-85.1631 Y27.8006 
G01 X-85.8642 Y28.5017 
G01 X-86.8519 Y28.5017 
G01 X-86.9411 Y28.5909 
G01 X-86.9411 Y28.7172 
G01 X-86.9411 Y28.8451 
G01 X-86.9412 Y28.8452 
G01 X-86.9411 Y28.9077 
G01 X-86.9411 Y28.9712 
G01 X-86.9410 Y28.9713 
G01 X-86.9410 Y28.9714 
G01 X-86.9116 Y29.0006 
G01 X-86.8519 Y29.0604 
G01 X-86.8517 Y29.0604 
G01 X-86.8516 Y29.0605 
G01 X-86.7965 Y29.0604 
G01 X-87.2235 Y29.4873 
G01 X-87.2235 Y30.2026 
G01 X-86.7966 Y30.6294 
G01 X-86.8516 Y30.6293 
G01 X-86.8517 Y30.6294 
G01 X-86.8519 Y30.6294 
G01 X-86.9107 Y30.6883 
G01 X-86.9410 Y30.7184 
G01 X-86.9410 Y30.7185 
G01 X-86.9411 Y30.7186 
G01 X-86.9411 Y30.7809 
G01 X-86.9412 Y30.8446 
G01 X-86.9411 Y30.8447 
G01 X-86.9411 Y31.1642 
G01 X-86.9536 Y31.1933 
G01 X-86.9411 Y31.2246 
G01 X-86.9411 Y31.2585 
G01 X-86.9185 Y31.2810 
G01 X-86.9068 Y31.3105 
G01 X-86.8758 Y31.3237 
G01 X-86.8519 Y31.3477 
G01 X-86.8199 Y31.3477 
G01 X-82.9757 Y32.9951 
G01 X-82.9753 Y32.9962 
G01 X-82.9171 Y33.0202 
G01 X-82.8608 Y33.0444 
G01 X-82.8597 Y33.0440 
G01 X-82.8221 Y33.0595 
G01 X-82.8207 Y33.0629 
G01 X-82.7917 Y33.0747 
G01 X-82.7698 Y33.0972 
G01 X-82.7666 Y33.0972 
G01 X-82.7394 Y33.1252 
G01 X-82.7394 Y33.1265 
G01 X-82.6933 Y33.1724 
G01 X-82.6521 Y33.2148 
G01 X-82.6509 Y33.2148 
G01 X-82.6221 Y33.2436 
G01 X-82.6221 Y33.2466 
G01 X-82.5995 Y33.2691 
G01 X-82.5878 Y33.2986 
G01 X-82.5851 Y33.2997 
G01 X-82.5708 Y33.3355 
G01 X-82.5712 Y33.3365 
G01 X-82.5482 Y33.3920 
G01 X-82.5244 Y33.4516 
G01 X-82.5233 Y33.4520 
G01 X-82.5077 Y33.4899 
G01 X-82.5086 Y33.4920 
G01 X-82.4961 Y33.5227 
G01 X-82.4961 Y33.5561 
G01 X-82.4948 Y33.5573 
G01 X-82.4953 Y33.5971 
G01 X-82.4961 Y33.5978 
G01 X-82.4961 Y33.6578 
G01 X-82.4969 Y33.7222 
G01 X-82.4961 Y33.7230 
G01 X-82.4961 Y33.9677 
G01 X-82.4069 Y34.0569 
G01 X-82.2133 Y34.2504 
G01 X-82.0315 Y34.6896 
G01 X-81.9149 Y34.7378 
G01 X-81.7982 Y34.6896 
G01 X-81.7685 Y34.6177 
G01 X-81.6165 Y34.2505 
G01 X-81.3337 Y33.9677 
G01 X-81.3337 Y33.8414 
G01 X-81.3337 Y32.6817 
G01 X-81.4229 Y32.5925 
G01 X-81.7909 Y32.2245 
G01 X-81.7909 Y31.2753 
G01 X-81.1195 Y30.6039 
G01 X-80.1703 Y30.6039 
G01 X-79.4989 Y31.2753 
G01 X-79.4989 Y32.2245 
G01 X-79.9561 Y32.6817 
G01 X-79.9561 Y32.8080 
G01 X-79.9561 Y33.9677 
G01 X-79.8669 Y34.0569 
G01 X-79.6733 Y34.2504 
G01 X-79.4989 Y34.6716 
G01 X-79.4989 Y36.4482 
G01 X-79.6733 Y36.8694 
G01 X-79.9958 Y37.1919 
G01 X-80.4170 Y37.3663 
G01 X-80.8728 Y37.3663 
G01 X-81.2940 Y37.1919 
G01 X-81.6165 Y36.8694 
G01 X-81.7701 Y36.4984 
G01 X-81.7982 Y36.4302 
G01 X-81.9136 Y36.3826 
G01 X-81.9148 Y36.3820 
G01 X-81.9180 Y36.3833 
G01 X-82.0315 Y36.4302 
G01 X-82.2133 Y36.8694 
G01 X-82.5358 Y37.1919 
G01 X-82.9570 Y37.3663 
G01 X-83.4128 Y37.3663 
G01 X-83.8340 Y37.1919 
G01 X-84.1565 Y36.8694 
G01 X-84.3101 Y36.4984 
G01 X-84.3382 Y36.4302 
G01 X-84.4536 Y36.3826 
G01 X-84.4548 Y36.3820 
G01 X-84.4580 Y36.3833 
G01 X-84.5715 Y36.4302 
G01 X-84.7533 Y36.8694 
G01 X-85.0758 Y37.1919 
G01 X-85.4970 Y37.3663 
G01 X-85.9528 Y37.3663 
G01 X-86.3740 Y37.1919 
G01 X-86.6965 Y36.8694 
G01 X-86.8782 Y36.4303 
G01 X-86.9949 Y36.3821 
G01 X-87.1115 Y36.4303 
G01 X-87.1545 Y36.5344 
G01 X-87.2933 Y36.8694 
G01 X-87.6157 Y37.1918 
G01 X-88.0371 Y37.3663 
G01 X-88.4928 Y37.3663 
G01 X-88.9140 Y37.1919 
G01 X-89.2365 Y36.8694 
G01 X-89.4182 Y36.4303 
G01 X-89.5349 Y36.3821 
G01 X-89.6515 Y36.4303 
G01 X-89.6945 Y36.5344 
G01 X-89.8333 Y36.8693 
G01 X-90.1558 Y37.1919 
G01 X-90.5770 Y37.3663 
G01 X-91.0328 Y37.3663 
G01 X-91.4540 Y37.1919 
G01 X-91.7765 Y36.8694 
G01 X-91.9582 Y36.4303 
G01 X-92.0749 Y36.3821 
G01 X-92.1915 Y36.4303 
G01 X-92.2345 Y36.5344 
G01 X-92.3733 Y36.8693 
G01 X-92.6958 Y37.1919 
G01 X-93.1170 Y37.3663 
G01 X-93.5728 Y37.3663 
G01 X-93.9940 Y37.1919 
G01 X-94.3165 Y36.8694 
G01 X-94.4982 Y36.4303 
G01 X-94.6149 Y36.3821 
G01 X-94.7315 Y36.4303 
G01 X-94.7745 Y36.5344 
G01 X-94.9133 Y36.8693 
G01 X-95.2358 Y37.1919 
G01 X-95.6570 Y37.3663 
G01 X-96.1128 Y37.3663 
G01 X-96.5340 Y37.1919 
G01 X-96.8565 Y36.8694 
G01 X-97.0383 Y36.4302 
G01 X-97.1550 Y36.3820 
G01 X-97.2716 Y36.4302 
G01 X-97.3013 Y36.5021 
G01 X-97.4533 Y36.8694 
G01 X-97.7758 Y37.1919 
G01 X-98.1970 Y37.3663 
G01 X-98.6528 Y37.3663 
G01 X-99.0740 Y37.1919 
G01 X-99.3965 Y36.8694 
G01 X-99.5501 Y36.4984 
G01 X-99.5782 Y36.4302 
G01 X-99.6936 Y36.3826 
G01 X-99.6948 Y36.3820 
G01 X-99.6980 Y36.3833 
G01 X-99.8115 Y36.4302 
G01 X-99.9933 Y36.8694 
G01 X-100.3158 Y37.1919 
G01 X-100.7370 Y37.3663 
G01 X-101.1928 Y37.3663 
G01 X-101.6140 Y37.1919 
G01 X-101.9365 Y36.8694 
G01 X-102.1109 Y36.4481 
G01 X-102.1109 Y34.6716 
G01 X-101.9365 Y34.2505 
G01 X-101.7430 Y34.0570 
G01 X-101.7429 Y34.0570 
G01 X-101.6588 Y33.9728 
G01 X-101.6537 Y33.9678 
G01 X-101.6537 Y33.8415 
G01 X-101.6537 Y32.4903 
G01 X-101.6470 Y32.4817 
G01 X-101.6537 Y32.4289 
G01 X-101.6537 Y32.3751 
G01 X-101.6615 Y32.3673 
G01 X-101.6643 Y32.3459 
G01 X-101.6537 Y32.3354 
G01 X-101.6537 Y32.2926 
G01 X-101.6425 Y32.2515 
G01 X-101.6499 Y32.2386 
G01 X-101.6415 Y32.2184 
G01 X-101.6318 Y32.2129 
G01 X-101.6177 Y32.1610 
G01 X-101.5974 Y32.1121 
G01 X-101.6016 Y32.1019 
G01 X-101.5961 Y32.0814 
G01 X-101.5821 Y32.0756 
G01 X-101.5660 Y32.0363 
G01 X-101.5399 Y32.0028 
G01 X-101.5418 Y31.9877 
G01 X-101.5265 Y31.9724 
G01 X-101.5154 Y31.9710 
G01 X-101.4829 Y31.9288 
G01 X-101.4450 Y31.8911 
G01 X-101.4450 Y31.8799 
G01 X-101.4317 Y31.8627 
G01 X-101.4168 Y31.8627 
G01 X-101.3865 Y31.8323 
G01 X-101.3496 Y31.8113 
G01 X-101.3457 Y31.7970 
G01 X-101.3260 Y31.7889 
G01 X-101.3153 Y31.7918 
G01 X-101.2689 Y31.7652 
G01 X-101.2196 Y31.7449 
G01 X-101.2154 Y31.7347 
G01 X-97.8287 Y29.7994 
G01 X-97.8059 Y29.7994 
G01 X-97.7756 Y29.7690 
G01 X-97.7387 Y29.7480 
G01 X-97.7328 Y29.7262 
G01 X-97.7167 Y29.7102 
G01 X-97.7167 Y29.6673 
G01 X-97.7055 Y29.6262 
G01 X-97.7167 Y29.6067 
G01 X-97.5346 Y29.1670 
G01 X-97.1978 Y28.8302 
G01 X-97.0752 Y28.7795 
G01 X-97.0424 Y28.7795 
G01 X-97.0193 Y28.7563 
G01 X-96.9889 Y28.7438 
G01 X-96.9764 Y28.7134 
G01 X-96.9532 Y28.6903 
G01 X-96.9532 Y28.6574 
G01 X-96.9407 Y28.6272 
G01 X-96.9532 Y28.5969 
G01 X-96.9532 Y28.5640 
G01 X-96.9764 Y28.5409 
G01 X-96.9889 Y28.5105 
G01 X-97.0193 Y28.4980 
G01 X-97.7167 Y27.8006 
G01 X-97.7167 Y26.8092 
G01 X-97.0156 Y26.1081 
G01 X-96.0242 Y26.1081 
G01 X-95.4023 Y26.7300 
G01 X-95.4023 Y26.7301 
G01 X-95.3247 Y26.8076 
G01 X-95.3131 Y26.8193 
G01 X-95.1868 Y26.8193 
G01 X-95.0976 Y26.7301 
G01 X-94.4756 Y26.1081 
G01 X-93.4842 Y26.1081 
G01 X-92.7730 Y26.8193 
G01 X-92.6467 Y26.8193 
G01 X-92.5575 Y26.7301 
G01 X-92.5575 Y26.7300 
G01 X-91.9356 Y26.1081 
G01 X-90.9442 Y26.1081 
G01 X-90.3223 Y26.7300 
G01 X-90.3223 Y26.7301 
G01 X-90.2331 Y26.8193 
G01 X-90.1068 Y26.8193 
G01 X-89.3956 Y26.1081 
G01 X-88.4042 Y26.1081 
G01 X-87.6931 Y26.8193 
G01 X-87.5668 Y26.8193 
G01 X-87.4776 Y26.7301 
G01 X-87.4776 Y26.7300 
G01 X-87.3572 Y26.6097 
G01 X-87.3368 Y26.6046 
G01 X-87.3140 Y26.5665 
G01 X-87.2827 Y26.5353 
G01 X-87.2827 Y26.5144 
G01 X-87.2719 Y26.4964 
G01 X-87.2827 Y26.4532 
G01 X-87.2827 Y26.4091 
G01 X-87.2974 Y26.3944 
G01 X-87.4993 Y25.5874 
G01 X-87.4993 Y25.5429 
G01 X-87.5141 Y25.5281 
G01 X-87.5192 Y25.5078 
G01 X-87.5572 Y25.4850 
G01 X-87.5885 Y25.4537 
G01 X-87.6094 Y25.4537 
G01 X-87.6274 Y25.4429 
G01 X-87.6705 Y25.4537 
G01 X-100.5139 Y25.4537 
G01 X-100.5203 Y25.4484 
G01 X-100.5758 Y25.4537 
G01 X-100.6319 Y25.4537 
G01 X-100.6378 Y25.4596 
G01 X-100.6460 Y25.4604 
G01 X-100.6811 Y25.5030 
G01 X-100.7211 Y25.5429 
G01 X-100.7211 Y25.5514 
G01 X-112.3017 Y39.5700 
G01 X-112.3411 Y39.6093 
G01 X-112.3411 Y39.6176 
G01 X-112.3464 Y39.6240 
G01 X-112.3411 Y39.6795 
G01 X-112.3411 Y47.4819 
G01 X-112.2519 Y47.5711 
G01 X-112.1256 Y47.5711 
G01 X-111.5541 Y47.5711 
G01 X-111.5466 Y47.5636 
G01 X-111.1253 Y47.1423 
G01 X-111.1252 Y47.1423 
G01 X-111.0435 Y47.0606 
G01 X-111.0360 Y47.0531 
G01 X-111.0360 Y46.9268 
G01 X-111.1252 Y46.8376 
G01 X-111.7295 Y46.2333 
G01 X-111.7295 Y45.2065 
G01 X-111.0033 Y44.4803 
G01 X-109.9765 Y44.4803 
G01 X-109.2830 Y45.1738 
G01 X-109.1567 Y45.1738 
G01 X-109.0675 Y45.0846 
G01 X-108.4960 Y44.5131 
G01 X-108.4960 Y44.3868 
G01 X-108.5852 Y44.2976 
G01 X-109.1895 Y43.6933 
