( This gcode generated by /opt/eagle-5.6.0/ulp/pcb-gcode.ulp )
( Copyright 2005 by John Johnson. See readme.txt for licensing terms. )

( This file generated from the board /usr/data1/freebus/freebus-svn/freebus/trunk/hardware/Eagle Layouts/app_avr_glcd/glcd_240x128/glcd_240x128.brd )
( This file generated 05.03.10 21:20 )

( Settings from pcb-machine.h )
( tool size = 0.3000 )
( z high = 5.0000	z up = 2.0000	z down = -2.5000 )
( drill depth = -5.0000 )
( spindle on time = 1.0000 )
( milling depth = 5.0000 )
( tool change at X40.0000, Y-26.0000, Z5.0000 )
( feed rate = 200.0000	feed rate z = 40.0000 )

( Settings from pcb-defaults.h )
( Default isolate = 0.0025 )
( isolate max = 0.5588 )
( isolate step = 0.1500 )
( Generated: top outlines, top drill, bottom outlines, bottom drill,  )
( Unit of measure: mm )


( T01 0.800000 )
( T02 0.812800 )
( T03 0.900000 )
( T04 0.914400 )
( T05 1.000000 )
( T06 1.016000 )
( T07 1.100000 )
( T08 1.117600 )
( T09 1.320800 )
( T10 1.400000 )
( T11 3.200000 )
( T12 3.302000 )
G21

G90
G00 Z9.0000
M05
G00 X40.0000 Y-26.0000 Z35.0000
M06 T01 ( 0.8000 )
G00 Z9.0000
M03 S1
G04 P1.0000
G82 X-25.4000 Y17.7800 Z1.5000 F300.0000R9.0000 P0.0000
G82 X-27.9400 Y17.7800
G82 X-30.4800 Y17.7800
G82 X-33.0200 Y17.7800
G82 X-27.9400 Y25.4000
G82 X-30.4800 Y25.4000
G82 X-33.0200 Y25.4000
G82 X-40.6400 Y19.0500
G82 X-40.6400 Y12.7000
G82 X-25.4000 Y25.4000
G82 X-48.2600 Y28.5750
G82 X-55.8800 Y28.5750
G82 X-74.9300 Y24.1300
G82 X-76.2000 Y19.0500
G82 X-80.0100 Y24.1300
G82 X-81.2800 Y19.0500
G82 X-76.2000 Y3.8100
G82 X-114.3000 Y3.8100
G82 X-114.3000 Y19.0500
G00 Z9.0000
M05
G00 X40.0000 Y-26.0000 Z35.0000
M06 T02 ( 0.8128 )
G00 Z9.0000
M03 S1
G04 P1.0000
G82 X-100.9650 Y35.5600 Z1.5000 F300.0000R9.0000 P0.0000
G82 X-98.4250 Y35.5600
G82 X-95.8850 Y35.5600
G82 X-93.3450 Y35.5600
G82 X-90.8050 Y35.5600
G82 X-88.2650 Y35.5600
G82 X-85.7250 Y35.5600
G82 X-83.1850 Y35.5600
G82 X-80.6450 Y35.5600
G82 X-78.1050 Y35.5600
G82 X-75.5650 Y35.5600
G82 X-73.0250 Y35.5600
G82 X-70.4850 Y35.5600
G82 X-67.9450 Y35.5600
G82 X-65.4050 Y35.5600
G82 X-62.8650 Y35.5600
G82 X-60.3250 Y35.5600
G82 X-57.7850 Y35.5600
G82 X-55.2450 Y35.5600
G82 X-52.7050 Y35.5600
G82 X-44.4500 Y43.8150
G82 X-41.9100 Y43.8150
G82 X-39.3700 Y46.3550
G82 X-36.8300 Y46.3550
G82 X-34.2900 Y48.8950
G82 X-41.9100 Y51.4350
G82 X-44.4500 Y48.8950
G82 X-44.4500 Y51.4350
G82 X-52.7050 Y50.8000
G82 X-55.2450 Y50.8000
G82 X-57.7850 Y50.8000
G82 X-60.3250 Y50.8000
G82 X-62.8650 Y50.8000
G82 X-65.4050 Y50.8000
G82 X-67.9450 Y50.8000
G82 X-70.4850 Y50.8000
G82 X-73.0250 Y50.8000
G82 X-75.5650 Y50.8000
G82 X-78.1050 Y50.8000
G82 X-80.6450 Y50.8000
G82 X-80.6450 Y53.3400
G82 X-83.1850 Y50.8000
G82 X-85.7250 Y50.8000
G82 X-88.2650 Y50.8000
G82 X-90.8050 Y50.8000
G82 X-93.3450 Y50.8000
G82 X-95.8850 Y50.8000
G82 X-98.4250 Y50.8000
G82 X-100.9650 Y50.8000
G82 X-83.1850 Y53.9750
G82 X-83.1850 Y56.5150
G82 X-80.6450 Y58.4200
G82 X-76.8350 Y57.1500
G82 X-76.8350 Y59.6900
G82 X-76.8350 Y62.2300
G82 X-76.8350 Y64.7700
G82 X-72.3900 Y67.9450
G82 X-69.8500 Y69.2150
G82 X-69.8500 Y73.0250
G82 X-69.8500 Y75.5650
G82 X-72.3900 Y78.1050
G82 X-76.2000 Y75.5650
G82 X-72.3900 Y83.1850
G82 X-76.2000 Y85.7250
G82 X-76.2000 Y88.2650
G82 X-72.3900 Y93.3450
G82 X-76.2000 Y93.3450
G82 X-78.7400 Y93.3450
G82 X-78.7400 Y83.1850
G82 X-62.8650 Y66.0400
G82 X-59.6900 Y69.2150
G82 X-57.7850 Y66.0400
G82 X-59.6900 Y73.0250
G82 X-59.6900 Y75.5650
G82 X-53.3400 Y80.6450
G82 X-43.1800 Y80.6450
G82 X-31.7500 Y65.4050
G82 X-31.7500 Y62.8650
G82 X-41.9100 Y61.5950
G82 X-44.4500 Y61.5950
G82 X-34.2900 Y35.5600
G82 X-30.4800 Y27.9400
G82 X-34.2900 Y27.9400
G82 X-35.5600 Y25.4000
G82 X-35.5600 Y17.7800
G82 X-35.5600 Y15.2400
G82 X-33.0200 Y12.7000
G82 X-30.4800 Y12.7000
G82 X-27.9400 Y15.2400
G82 X-25.4000 Y27.9400
G82 X-52.7050 Y13.3350
G82 X-60.3250 Y13.3350
G82 X-55.8800 Y24.1300
G82 X-55.8800 Y26.6700
G82 X-76.8350 Y26.6700
G82 X-80.6450 Y26.6700
G82 X-76.8350 Y31.7500
G82 X-80.6450 Y31.7500
G82 X-104.7750 Y70.4850
G82 X-104.7750 Y78.1050
G82 X-106.6800 Y80.6450
G82 X-108.5850 Y79.3750
G82 X-108.5850 Y81.9150
G82 X-109.8550 Y85.0900
G82 X-109.8550 Y87.6300
G82 X-109.8550 Y90.1700
G82 X-109.8550 Y92.7100
G00 Z9.0000
M05
G00 X40.0000 Y-26.0000 Z35.0000
M06 T03 ( 0.9000 )
G00 Z9.0000
M03 S1
G04 P1.0000
G82 X-81.9150 Y79.3750 Z1.5000 F300.0000R9.0000 P0.5000
G82 X-80.0100 Y78.1050
G82 X-80.0100 Y80.6450
G82 X-57.7850 Y71.1200
G82 X-55.8800 Y69.8500
G82 X-55.8800 Y72.3900
G82 X-57.1500 Y75.5650
G82 X-57.1500 Y78.1050
G82 X-57.1500 Y80.6450
G82 X-39.3700 Y60.3250
G82 X-36.8300 Y60.3250
G82 X-34.2900 Y60.3250
G82 X-31.7500 Y60.3250
G82 X-31.7500 Y52.7050
G82 X-34.2900 Y52.7050
G82 X-36.8300 Y52.7050
G82 X-39.3700 Y52.7050
G00 Z9.0000
M05
G00 X40.0000 Y-26.0000 Z35.0000
M06 T04 ( 0.9144 )
G00 Z9.0000
M03 S1
G04 P1.0000
G82 X-46.3550 Y20.3200 Z1.5000 F300.0000R9.0000 P0.5000
G82 X-46.3550 Y17.7800
G82 X-48.8950 Y17.7800
G82 X-48.8950 Y20.3200
G82 X-51.4350 Y17.7800
G82 X-53.9750 Y17.7800
G82 X-51.4350 Y20.3200
G82 X-53.9750 Y20.3200
G82 X-56.5150 Y17.7800
G82 X-56.5150 Y20.3200
G82 X-59.0550 Y17.7800
G82 X-59.0550 Y20.3200
G82 X-61.5950 Y17.7800
G82 X-61.5950 Y20.3200
G82 X-64.1350 Y17.7800
G82 X-64.1350 Y20.3200
G82 X-66.6750 Y17.7800
G82 X-69.2150 Y17.7800
G82 X-66.6750 Y20.3200
G82 X-69.2150 Y20.3200
G82 X-86.3600 Y27.3050
G82 X-86.3600 Y29.8450
G82 X-88.9000 Y27.3050
G82 X-88.9000 Y29.8450
G82 X-91.4400 Y27.3050
G82 X-91.4400 Y29.8450
G82 X-93.9800 Y27.3050
G82 X-96.5200 Y27.3050
G82 X-93.9800 Y29.8450
G82 X-96.5200 Y29.8450
G82 X-102.2350 Y63.5000
G82 X-102.2350 Y66.0400
G82 X-99.6950 Y63.5000
G82 X-97.1550 Y63.5000
G82 X-94.6150 Y63.5000
G82 X-92.0750 Y63.5000
G82 X-92.0750 Y66.0400
G82 X-94.6150 Y66.0400
G82 X-97.1550 Y66.0400
G82 X-99.6950 Y66.0400
G00 Z9.0000
M05
G00 X40.0000 Y-26.0000 Z35.0000
M06 T05 ( 1.0000 )
G00 Z9.0000
M03 S1
G04 P1.0000
G82 X-107.9500 Y48.2600 Z1.5000 F300.0000R9.0000 P0.5000
G82 X-107.9500 Y45.7200
G82 X-107.9500 Y43.1800
G82 X-110.4900 Y43.1800
G82 X-110.4900 Y45.7200
G82 X-110.4900 Y48.2600
G82 X-73.0250 Y59.0550
G82 X-73.0250 Y64.1350
G82 X-60.9600 Y78.1050
G82 X-60.9600 Y80.6450
G82 X-68.5800 Y78.1050
G82 X-71.1200 Y80.6450
G82 X-52.0700 Y88.2650
G82 X-52.0700 Y90.8050
G82 X-41.9100 Y88.2650
G82 X-41.9100 Y90.8050
G82 X-31.7500 Y48.8950
G82 X-31.7500 Y38.7350
G00 Z9.0000
M05
G00 X40.0000 Y-26.0000 Z35.0000
M06 T06 ( 1.0160 )
G00 Z9.0000
M03 S1
G04 P1.0000
G82 X-29.8450 Y33.6550 Z1.5000 F300.0000R9.0000 P0.5000
G82 X-24.7650 Y33.6550
G82 X-38.7350 Y37.4650
G82 X-43.8150 Y37.4650
G82 X-41.2750 Y27.3050
G82 X-25.4000 Y13.9700
G82 X-30.4800 Y6.3500
G82 X-25.4000 Y3.8100
G82 X-35.5600 Y6.3500
G82 X-62.8650 Y55.8800
G82 X-65.4050 Y55.8800
G82 X-67.9450 Y55.8800
G82 X-40.6400 Y66.6750
G82 X-35.5600 Y66.6750
G00 Z9.0000
M05
G00 X40.0000 Y-26.0000 Z35.0000
M06 T07 ( 1.1000 )
G00 Z9.0000
M03 S1
G04 P1.0000
G82 X-62.2700 Y88.2650 Z1.5000 F300.0000R9.0000 P0.5000
G82 X-67.2700 Y88.2650
G00 Z9.0000
M05
G00 X40.0000 Y-26.0000 Z35.0000
M06 T08 ( 1.1176 )
G00 Z9.0000
M03 S1
G04 P1.0000
G82 X-104.1400 Y87.6300 Z1.5000 F300.0000R9.0000 P0.5000
G82 X-104.1400 Y90.1700
G82 X-104.1400 Y92.7100
G00 Z9.0000
M05
G00 X40.0000 Y-26.0000 Z35.0000
M06 T09 ( 1.3208 )
G00 Z9.0000
M03 S1
G04 P1.0000
G82 X-33.0200 Y75.6158 Z1.5000 F250.0000R9.0000 P2.0000
G82 X-33.0200 Y80.6196
G82 X-33.0200 Y85.7758
G82 X-33.0200 Y90.7796
G82 X-64.8208 Y6.9850
G82 X-69.8246 Y6.9850
G00 Z9.0000
M05
G00 X40.0000 Y-26.0000 Z35.0000
M06 T10 ( 1.4000 )
G00 Z9.0000
M03 S1
G04 P1.0000
G82 X-41.9100 Y84.4550 Z1.5000 F250.0000R9.0000 P2.0000
G82 X-57.1500 Y84.4550
G00 Z9.0000
M05
G00 X40.0000 Y-26.0000 Z35.0000
M06 T11 ( 3.2000 )
G00 Z9.0000
M03 S1
G04 P1.0000
G82 X-5.0800 Y92.7100 Z1.5000 F100.0000R9.0000 P5.0000
G82 X-5.0800 Y7.6200
G82 X-154.9400 Y7.6200
G82 X-154.9400 Y92.7100
G00 Z9.0000
M05
G00 X40.0000 Y-26.0000 Z35.0000
M06 T12 ( 3.3020 )
G00 Z9.0000
M03 S1
G04 P1.0000
G82 X-89.1540 Y90.1700 Z1.5000 F100.0000R9.0000 P5.0000
G00 Z20.0000
M05
M02
